!!!!SEGMENT: pl-cz--iii-695--001_volckmer-augusti--litaniae-lauretanae-d-kyrie-eleison.krn
!!!cenid: 17xx:1123
!!!COM: Volckmer, Augustin
!!!COM-rismID: pe30020656
!!!CDT: 1755-~1820
!!!CNT:
!!!OPR: Litaniae Lauretanae D
!!!OTL: Kyrie eleison
!!!OMV: 001
!!!PDT:
!!!AGN: Sacred; Mass
!!!SMS-siglum: PL-CZ
!!!SMS-shelfmark: III-695
!!!SMS-shelfwork: 001-001 M
!!!SMS-variant:
!!!SMS-altvar:
!!!NIFC-rismSourceID: 300001387
!!!NIFC-islandoraID: pl-cz:40519
!!!URL-pdf-islandora: https://repozytorium.nifc.pl/islandora/object/pl-cz%3A40519/datastream/PDF/view
!!!URL-scan:
!!!ONB-nifc: UWAGA: części Litanii: Kyrie eleison, Virgo prudentissima, Regina angelorum, Agnus Dei, Miserere nobis
!!!AIN: 1 alto 1 bass 2 corno Iclrno 2 oboe 1 organ 1 soprn 1 tenor 1 timpa 1 viola 2 violn
!!!key: D
**kern	**fba	**kern	**dynam	**kern	**dynam	**kern	**dynam	**fing	**kern	**text	**dynam	**kern	**text	**dynam	**kern	**text	**dynam	**kern	**text	**dynam	**kern	**dynam	**kern	**dynam	**kern	**dynam	**kern	**dynam	**kern	**dynam	**kern	**dynam	**kern	**dynam
*part15	*	*part14	*part14	*part13	*part13	*part12	*part12	*	*part11	*part11	*part11	*part10	*part10	*part10	*part9	*part9	*part9	*part8	*part8	*part8	*part7	*part7	*part6	*part6	*part5	*part5	*part4	*part4	*part3	*part3	*part2	*part2	*part1	*part1
*staff15	*	*staff14	*	*staff13	*	*staff12	*	*	*staff11	*staff11	*	*staff10	*staff10	*	*staff9	*staff9	*	*staff8	*staff8	*	*staff7	*	*staff6	*	*staff5	*	*staff4	*	*staff3	*	*staff2	*	*staff1	*
*I"Organo.	*	*I"Viola.	*	*I"Violino Secundo.	*	*I"Violino Primo	*	*	*I"Baſso.	*	*	*I"Tenore.	*	*	*I"Alto.	*	*	*I"Canto	*	*	*I"Timpano.	*	*I"Clarino ê Corno Secundo	*	*I"Clarino ê Corno Primo	*	*I"Clarinetto Secundo in A.	*	*I"Clarinetto Primo in A.	*	*I"Oboe Secundo,	*	*I"Oboe Primo	*
*I'org	*	*I'vla	*	*I'vl II	*	*I'vl I	*	*	*I'B	*	*	*I'T	*	*	*I'A	*	*	*I'C	*	*	*I'timp	*	*I'clno ê cor II	*	*I'clno ê cor I	*	*I'cl II	*	*I'cl I	*	*I'ob II	*	*I'ob I	*
*Iorgan	*	*Iviola	*	*Ivioln	*	*Ivioln	*	*	*Ibass	*	*	*Itenor	*	*	*Ialto	*	*	*Isoprn	*	*	*Itimpa	*	*Icorno Iclrno	*	*Icorno Iclrno	*	*clars	*	*clars	*	*Ioboe	*	*Ioboe	*
*ICklav	*	*ICstr	*	*ICstr	*	*ICstr	*	*	*ICvox	*	*	*ICvox	*	*	*ICvox	*	*	*ICvox	*	*	*ICidio	*	*ICbras	*	*ICbras	*	*ICww	*	*ICww	*	*ICww	*	*ICww	*
*clefF4	*	*clefC3	*	*clefG2	*	*clefG2	*	*	*clefF4	*	*	*clefC4	*	*	*clefC3	*	*	*clefC1	*	*	*clefF4	*	*clefG2	*	*clefG2	*	*clefG2	*	*clefG2	*	*clefG2	*	*clefG2	*
*	*	*	*	*	*	*	*	*	*	*	*	*	*	*	*	*	*	*	*	*	*	*	*ITrd-1c-2	*	*ITrd-1c-2	*	*ITrd2c3	*	*ITrd2c3	*	*	*	*	*
*k[f#c#]	*	*k[f#c#]	*	*k[f#c#]	*	*k[f#c#]	*	*	*k[f#c#]	*	*	*k[f#c#]	*	*	*k[f#c#]	*	*	*k[f#c#]	*	*	*k[f#c#]	*	*k[f#c#]	*	*k[f#c#]	*	*k[f#c#]	*	*k[f#c#]	*	*k[f#c#]	*	*k[f#c#]	*
*D:	*	*D:	*	*D:	*	*D:	*	*	*D:	*	*	*D:	*	*	*D:	*	*	*D:	*	*	*D:	*	*D:	*	*D:	*	*D:	*	*D:	*	*D:	*	*D:	*
*M6/8	*	*M6/8	*	*M6/8	*	*M6/8	*	*	*M6/8	*	*	*M6/8	*	*	*M6/8	*	*	*M6/8	*	*	*M6/8	*	*M6/8	*	*M6/8	*	*M6/8	*	*M6/8	*	*M6/8	*	*M6/8	*
*all\right	*	*all\right	*	*all\right	*	*all\right	*	*	*all\right	*	*	*all\right	*	*	*all\right	*	*	*all\right	*	*	*all\right	*	*all\right	*	*all\right	*	*all\right	*	*all\right	*	*all\right	*	*all\right	*
*2\right	*	*2\right	*	*2\right	*	*2\right	*	*	*2\right	*	*	*2\right	*	*	*2\right	*	*	*2\right	*	*	*2\right	*	*2\right	*	*2\right	*	*2\right	*	*2\right	*	*2\right	*	*2\right	*
=1	=1	=1	=1	=1	=1	=1	=1	=1	=1	=1	=1	=1	=1	=1	=1	=1	=1	=1	=1	=1	=1	=1	=1	=1	=1	=1	=1	=1	=1	=1	=1	=1	=1	=1
!	!	!	!	!	!	!	!	!	!	!	!	!	!	!	!	!	!	!	!	!	!	!	!	!	!	!	!LO:TX:t=P:problem:brak oznaczenia tempa	!	!	!	!	!	!	!
!	!	!	!	!	!	!	!	!	!	!	!	!LO:TX:t=P:problem:kolejność znaków c# F#	!	!	!	!	!	!	!	!	!LO:TX:t=P:problem:all\right:global	!	!	!	!	!	!LO:TX:t=P:problem:all\right:global	!	!	!	!	!	!	!
!LO:TX:t=P:problem:all\right:global	!	!LO:TX:t=P:problem:all\right:global	!	!LO:TX:t=P:problem:all\right:global	!	!LO:TX:t=P:problem:all\right:global	!	!	!LO:TX:a:t=7	!	!	!LO:TX:a:t=7	!	!	!LO:TX:a:t=3	!	!	!LO:TX:a:t=3	!	!	!LO:TX:t=P:problem:kotły zapisane bez znaków [problem #229]	!	! 	!	!LO:TX:t=P:problem:all\right:global	!	!LO:TX:t=P:problem:f = forto:global	!	!LO:TX:t=P:problem:all\right:global	!	!LO:TX:t=P:problem:4,8,16 middle or right:global	!	!LO:TX:t=P:problem:4,8,16 middle or right:global	!
!LO:TX:a:B:t=Andante Molto.	!	!LO:TX:a:B:t=Andante Molto	!	!LO:TX:a:B:t=Andante Molto	!	!LO:TX:a:B:t=Andante Molto	!	!	!LO:TX:a:B:t=Andante Molto	!	!	!LO:TX:a:B:t=Andante Molto	!	!	!LO:TX:a:B:t=Andante Molto	!	!	!LO:TX:a:B:t=Andante Molto	!	!	!LO:TX:a:B:t=Andante Molto	!	!LO:TX:a:B:t=Andante Molto	!	!LO:TX:a:B:t=Andante Molto	!	!	!	!LO:TX:a:B:t=Andante Molto.	!	!LO:TX:a:B:t=Andante Molto.	!	!LO:TX:a:B:t=Andante Molto	!
4d\	.	4d|\	f	4dd|\	f	4dd|\	f	.	2.r	.	.	2.r	.	.	2.r	.	.	2.r	.	.	4D\	f	4d|/	.	4dd|\	f	4dd|\	f	4dd|\	f	4dd\	f	4ddd\	f
8A\	.	8A|/	.	8a\|	.	8a|\	.	.	.	.	.	.	.	.	.	.	.	.	.	.	8r	.	8a|/	.	8a|/	.	8a|\	.	8a|\	.	8a|/	.	8aa\	.
8F#\L	.	8F#|/L	.	8f#|/L	.	8f#|/L	.	.	.	.	.	.	.	.	.	.	.	.	.	.	4r	.	8f#|/L	.	8f#|/L	.	8f#|/L	.	8f#|/L	.	8f#'/L	.	8ff#'\L	.
8D\	.	8D|/	.	8d|/	.	8d'/	.	.	.	.	.	.	.	.	.	.	.	.	.	.	.	.	8d|/	.	8d|/	.	8d|/	.	8d|/	.	8d'/	.	8dd'\	.
8F#\J	.	8F#|/J	.	8f#|/J	.	8f#'/J	.	.	.	.	.	.	.	.	.	.	.	.	.	.	8D\	.	8f#|/J	.	8f#|/J	.	8f#|/J	.	8f#|/J	.	8f#'/J	.	8ff#'\J	.
=2	=2	=2	=2	=2	=2	=2	=2	=2	=2	=2	=2	=2	=2	=2	=2	=2	=2	=2	=2	=2	=2	=2	=2	=2	=2	=2	=2	=2	=2	=2	=2	=2	=2	=2
!LO:N:vis=4	!	!	!	!	!	!	!	!	!	!	!	!	!	!	!	!	!	!	!	!	!	!	!	!	!	!	!	!	!	!	!	!	!	!
8d\	.	4A/	.	8a/	.	8a/	.	.	2.r	.	.	2.r	.	.	2.r	.	.	2.r	.	.	4AA/	.	4a/	.	4a/	.	8a\	.	8a\	.	8a\	.	8aa\	.
8r	.	.	.	16r	.	16r	.	.	.	.	.	.	.	.	.	.	.	.	.	.	.	.	.	.	.	.	16r	.	16r	.	16r	.	16r	.
.	.	.	.	16dd|\	.	16ff#\	.	.	.	.	.	.	.	.	.	.	.	.	.	.	.	.	.	.	.	.	16dd\	.	16ff#\	.	16dd\	.	16ff#\	.
8r	.	8r	.	(8dd\L	.	16ff#W\LL	.	.	.	.	.	.	.	.	.	.	.	.	.	.	8r	.	8r	.	8r	.	(8dd\L	.	8ff#\L	.	(8dd\L	.	8ff#\	.
.	.	.	.	.	.	(32ee\L	.	.	.	.	.	.	.	.	.	.	.	.	.	.	.	.	.	.	.	.	.	.	.	.	.	.	.	.
.	.	.	.	.	.	32ff#\JJJ)	.	.	.	.	.	.	.	.	.	.	.	.	.	.	.	.	.	.	.	.	.	.	.	.	.	.	.	.
.	.	.	.	(32qqcc#/LLL	.	.	.	.	.	.	.	.	.	.	.	.	.	.	.	.	.	.	.	.	.	.	32qqcc#/LLL	.	(32qqee/LLL	.	16qqcc#/LL	.	(16qqee/LL	.
.	.	.	.	32qqdd/JJJ)	.	.	.	.	.	.	.	.	.	.	.	.	.	.	.	.	.	.	.	.	.	.	32qqdd/JJJ	.	32qqff#/JJJ)	.	16qqdd/JJ	.	16qqff#/JJ)	.
8A\	.	8r	.	8ee\J)	.	8gg|\	.	.	.	.	.	.	.	.	.	.	.	.	.	.	8r	.	8r	.	8r	.	8ee\J)	.	8gg\J	.	8ee\J)	.	8gg\	.
8r	.	8a\	.	16r	.	16r	.	.	.	.	.	.	.	.	.	.	.	.	.	.	8AA/	.	8a/	.	8ee\	.	16r	.	16r	.	16r	.	16r	.
.	.	.	.	16cc#|\	.	16ee|\	.	.	.	.	.	.	.	.	.	.	.	.	.	.	.	.	.	.	.	.	16cc#\	.	16ee\	.	16cc#'\	.	16ee\	.
!	!	!	!	!LO:TX:t=P:problem:belka przez kreskę taktową	!	!	!	!	!	!	!	!	!	!	!	!	!	!	!	!	!	!	!	!	!	!	!LO:TX:t=P:problem:belka przez kreskę taktową	!	!LO:TX:t=P:problem:belka przez kreskę taktową	!	!LO:TX:t=P:problem:belka przez kreskę taktową	!	!	!
8r	.	8r	.	(8cc#\	.	16eeW\LL	.	.	.	.	.	.	.	.	.	.	.	.	.	.	8r	.	8r	.	8r	.	(8cc#\	.	8ee\	.	(8cc#\	.	8ee\	.
.	.	.	.	.	.	(32dd\L	.	.	.	.	.	.	.	.	.	.	.	.	.	.	.	.	.	.	.	.	.	.	.	.	.	.	.	.
.	.	.	.	.	.	32ee\JJJ)	.	.	.	.	.	.	.	.	.	.	.	.	.	.	.	.	.	.	.	.	.	.	.	.	.	.	.	.
.	.	.	.	(32qqb/LLL	.	.	.	.	.	.	.	.	.	.	.	.	.	.	.	.	.	.	.	.	.	.	.	.	.	.	.	.	.	.
.	.	.	.	32qqcc#/JJJ)	.	.	.	.	.	.	.	.	.	.	.	.	.	.	.	.	.	.	.	.	.	.	.	.	.	.	.	.	.	.
=3	=3	=3	=3	=3	=3	=3	=3	=3	=3	=3	=3	=3	=3	=3	=3	=3	=3	=3	=3	=3	=3	=3	=3	=3	=3	=3	=3	=3	=3	=3	=3	=3	=3	=3
.	.	.	.	.	.	.	.	.	.	.	.	.	.	.	.	.	.	.	.	.	.	.	.	.	.	.	32qqb/LLL	.	(32qqdd/LLL	.	16qqb/LL	.	16qqdd/LL	.
.	.	.	.	.	.	.	.	.	.	.	.	.	.	.	.	.	.	.	.	.	.	.	.	.	.	.	32qqcc#/JJJ	.	32qqee/JJJ)	.	16qqcc#/JJ	.	16qqee/JJ	.
8r	.	8r	.	8dd\)	.	8ff#\	.	.	2.r	.	.	2.r	.	.	2.r	.	.	2.r	.	.	8r	.	8r	.	8r	.	8dd\)	.	8ff#\	.	8dd\)	.	8ff#\	.
!	!	!	!	!	!	!	!	!	!	!	!	!	!	!	!	!	!	!	!	!	!	!	!LO:TX:t=P:problem:all\right:global	!	!	!	!	!	!	!	!	!	!	!
8F#\L	6	8a\L	.	16r	.	16r	.	.	.	.	.	.	.	.	.	.	.	.	.	.	8D\	.	8dd\	.	8ff#\	.	8r	.	8r	.	8r	.	8r	.
.	.	.	.	16A/LL	.	16a\LL	.	.	.	.	.	.	.	.	.	.	.	.	.	.	.	.	.	.	.	.	.	.	.	.	.	.	.	.
8F#\J	.	8a\J	.	16d/	.	(16dd\	.	.	.	.	.	.	.	.	.	.	.	.	.	.	8r	.	8r	.	8r	.	8r	.	8r	.	8r	.	8r	.
.	.	.	.	16f#/JJ	.	16ff#\JJ)	.	.	.	.	.	.	.	.	.	.	.	.	.	.	.	.	.	.	.	.	.	.	.	.	.	.	.	.
!LO:TX:t=P:problem:mixed beam	!	!	!	!	!	!	!	!	!	!	!	!	!	!	!	!	!	!	!	!	!	!	!	!	!	!	!	!	!	!	!	!	!	!
8G\L	6	8b\L	.	(16b/LL	.	(16ff#\LL	.	.	.	.	.	.	.	.	.	.	.	.	.	.	8r	.	8r	.	8r	.	(16a\LL	.	(16ff#\LL	.	(16a/LL	.	(16ff#\LL	.
.	.	.	.	16g/J)	.	16ee\J)	.	.	.	.	.	.	.	.	.	.	.	.	.	.	.	.	.	.	.	.	16g\J)	.	16ee\J)	.	16g/J)	.	16ee\JJ)	.
8A\	6 4	8a\	.	8f#/	.	8dd\	.	.	.	.	.	.	.	.	.	.	.	.	.	.	8AA/L	.	8dd\L	.	8ff#\L	.	8f#\	.	8dd\	.	8f#/	.	8dd\L	.
8AA/J	5 3	8a\J	.	8e/J	.	8cc#\J	.	.	.	.	.	.	.	.	.	.	.	.	.	.	8AA/J	.	8a\J	.	8ee\J	.	8e\J	.	8cc#\J	.	8e/J	.	8cc#\J	.
!	!	!	!	!	!	!LO:LB:g=original	!	!	!	!	!	!	!	!	!	!	!	!	!	!	!	!	!	!	!	!	!	!	!	!	!	!	!	!
=4	=4	=4	=4	=4	=4	=4	=4	=4	=4	=4	=4	=4	=4	=4	=4	=4	=4	=4	=4	=4	=4	=4	=4	=4	=4	=4	=4	=4	=4	=4	=4	=4	=4	=4
!	!	!	!	!	!	!	!	!	!	!	!	!	!	!	!LO:TX:t=P:problem:all\right:global	!	!	!LO:TX:t=P:problem:all\right:global	!	!	!	!	!	!	!	!	!	!	!	!	!	!	!	!
!	!	!	!	!	!LO:DY:a	!	!	!	!	!	!	!	!	!	!LO:TX:a:i:t=dolce	!	!	!LO:TX:a:i:t=dolce	!	!	!	!	!	!	!	!	!	!	!	!	!	!	!	!
8D\L	8	8d\L	p	[4.f#/	p	[4.dd\	p	.	2.r	.	.	2.r	.	.	4f#\	Kÿ-	.	4dd\	Kÿ-	.	4D\	.	8f#/	.	4dd\	.	8f#/	.	8dd\	.	8f#/	.	8dd\	.
8F#\	.	8d\	.	.	.	.	.	.	.	.	.	.	.	.	.	.	.	.	.	.	.	.	8r	.	.	.	8r	.	8r	.	8r	.	8r	.
8A\J	.	8d\J	.	.	.	.	.	.	.	.	.	.	.	.	8f#\	-ri-	.	8dd\	-ri-	.	8r	.	8r	.	8r	.	4r	.	8r	.	4r	.	8r	.
4d\	.	4d\	.	8f#/L]	.	8dd\L]	.	.	.	.	.	.	.	.	4f#\	-e	.	4dd\	-e	.	4r	.	4r	.	4r	.	.	.	4r	.	.	.	4r	.
!	!	!	!	!	!	!	!	!	!	!	!	!	!	!	!	!	!	!	!	!	!	!	!	!	!	!	!LO:N:vis=8	!	!	!	!LO:N:vis=8	!	!	!
.	.	.	.	(8g/	.	(8ee\	.	.	.	.	.	.	.	.	.	.	.	.	.	.	.	.	.	.	.	.	4r	.	.	.	4r	.	.	.
8r	.	8r	.	8a/J)	.	8ff#\J)	.	.	.	.	.	.	.	.	8r	.	.	8r	.	.	8r	.	8r	.	8r	.	.	.	8r	.	.	.	8r	.
!	!	!	!	!LO:LB:g=original	!	!	!	!	!	!	!	!	!	!	!	!	!	!	!	!	!	!	!	!	!	!	!	!	!	!	!	!	!	!
=5	=5	=5	=5	=5	=5	=5	=5	=5	=5	=5	=5	=5	=5	=5	=5	=5	=5	=5	=5	=5	=5	=5	=5	=5	=5	=5	=5	=5	=5	=5	=5	=5	=5	=5
*tremolo	*	*	*	*	*	*	*	*	*	*	*	*	*	*	*	*	*	*	*	*	*	*	*	*	*	*	*	*	*	*	*	*	*	*
!	!	!	!	!	!	!	!	!	!	!	!	!	!	!	!	!	!	!	!	!	!LO:TX:a:t=3	!	!LO:TX:a:t=3	!	!LO:TX:a:t=3	!	!LO:TX:a:t=3	!	!LO:TX:a:t=2	!	!LO:TX:a:t=3	!	!LO:TX:a:t=2	!
8D\L	.	8d\L	.	[4.b\	.	[4.gg\	.	.	2.r	.	.	2.r	.	.	4b\	Kÿ-	.	4gg\	Kÿ-	.	2.r	.	2.r	.	2.r	.	2.r	.	2.r	.	2.r	.	2.r	.
8D\	.	8d\	.	.	.	.	.	.	.	.	.	.	.	.	.	.	.	.	.	.	.	.	.	.	.	.	.	.	.	.	.	.	.	.
8D\J	.	8d\J	.	.	.	.	.	.	.	.	.	.	.	.	8b\	-ri-	.	8gg\	-ri-	.	.	.	.	.	.	.	.	.	.	.	.	.	.	.
*Xtremolo	*	*	*	*	*	*	*	*	*	*	*	*	*	*	*	*	*	*	*	*	*	*	*	*	*	*	*	*	*	*	*	*	*	*
4D\	.	4d\	.	8b/L]	.	8gg\L]	.	.	.	.	.	.	.	.	4b\	-e	.	4gg\	-e	.	.	.	.	.	.	.	.	.	.	.	.	.	.	.
.	.	.	.	(8g/	.	(8ee\	.	.	.	.	.	.	.	.	.	.	.	.	.	.	.	.	.	.	.	.	.	.	.	.	.	.	.	.
8r	.	8r	.	8f#/J)	.	8dd\J)	.	.	.	.	.	.	.	.	8r	.	.	8r	.	.	.	.	.	.	.	.	.	.	.	.	.	.	.	.
!	!	!LO:LB:g=original	!	!	!	!	!	!	!	!	!	!	!	!	!	!	!	!	!	!	!	!	!	!	!	!	!	!	!	!	!	!	!	!
=6	=6	=6	=6	=6	=6	=6	=6	=6	=6	=6	=6	=6	=6	=6	=6	=6	=6	=6	=6	=6	=6	=6	=6	=6	=6	=6	=6	=6	=6	=6	=6	=6	=6	=6
*tremolo	*	*	*	*	*	*	*	*	*	*	*	*	*	*	*	*	*	*	*	*	*	*	*	*	*	*	*	*	*	*	*	*	*	*
8AA/L	.	8A/L	.	[4.e/	.	[4.cc#\	.	.	2.r	.	.	2.r	.	.	4e\	Kÿ-	.	4cc#\	Kÿ-	.	2.r	.	2.r	.	2.r	.	2.r	.	2.r	.	2.r	.	2.r	.
8AA/	.	8A/	.	.	.	.	.	.	.	.	.	.	.	.	.	.	.	.	.	.	.	.	.	.	.	.	.	.	.	.	.	.	.	.
8AA/J	.	8A/J	.	.	.	.	.	.	.	.	.	.	.	.	8e\	-ri-	.	8cc#\	-ri-	.	.	.	.	.	.	.	.	.	.	.	.	.	.	.
*Xtremolo	*	*	*	*	*	*	*	*	*	*	*	*	*	*	*	*	*	*	*	*	*	*	*	*	*	*	*	*	*	*	*	*	*	*
8AA/	.	8A/	.	8e/L]	.	8cc#\L]	.	.	.	.	.	.	.	.	8e\L	-e	.	8cc#\L	-e	.	.	.	.	.	.	.	.	.	.	.	.	.	.	.
8r	.	8r	.	(8f#/	.	(8dd\	.	.	.	.	.	.	.	.	8f#\J	.	.	8dd\J	.	.	.	.	.	.	.	.	.	.	.	.	.	.	.	.
8A\	.	8a\	.	8g/J)	.	8ee\J)	.	.	.	.	.	.	.	.	8g\	e-	.	8ee\	e-	.	.	.	.	.	.	.	.	.	.	.	.	.	.	.
!	!	!	!	!	!	!	!	!	!	!	!	!	!	!	!	!	!	!	!	!	!	!	!	!	!	!	!	!	!LO:LB:g=original	!	!	!	!	!
=7	=7	=7	=7	=7	=7	=7	=7	=7	=7	=7	=7	=7	=7	=7	=7	=7	=7	=7	=7	=7	=7	=7	=7	=7	=7	=7	=7	=7	=7	=7	=7	=7	=7	=7
8D\L	.	8d\L	.	(4.a/	.	(4.ff#\	.	.	2.r	.	.	2.r	.	.	4.a\	-lei-	.	4.ff#\	-lei-	.	2.r	.	2.r	.	2.r	.	2.r	.	4r	.	2.r	.	4r	.
8F#\	.	8f#\	.	.	.	.	.	.	.	.	.	.	.	.	.	.	.	.	.	.	.	.	.	.	.	.	.	.	.	.	.	.	.	.
8A\J	.	8a\J	.	.	.	.	.	.	.	.	.	.	.	.	.	.	.	.	.	.	.	.	.	.	.	.	.	.	8r	.	.	.	8r	.
4d\	.	8a\	.	8f#/)	.	8dd\)	.	.	.	.	.	.	.	.	8f#\	-son	.	8dd\	-son	.	.	.	.	.	.	.	.	.	8r	.	.	.	8r	.
.	.	8r	.	8r	.	8r	.	.	.	.	.	.	.	.	8r	.	.	8r	.	.	.	.	.	.	.	.	.	.	8r	.	.	.	8r	.
8r	.	8r	.	8r	.	8a/	f	.	.	.	.	.	.	.	8r	.	.	8r	.	.	.	.	.	.	.	.	.	.	8a\	.	.	.	8a/	.
!LO:LB:g=original	!	!	!	!	!	!	!	!	!	!	!	!	!	!	!	!	!	!	!	!	!	!	!	!	!	!	!	!	!	!	!	!	!	!
!	!	!	!	!	!	!	!	!	!	!	!	!	!	!	!	!	!	!	!	!	!	!	!	!	!	!	!LO:LB:g=original	!	!	!	!	!	!	!
!	!	!	!	!	!	!	!	!	!	!	!	!	!	!	!	!	!	!	!	!	!	!	!	!	!	!	!	!	!	!	!	!	!LO:LB:g=original	!
=8	=8	=8	=8	=8	=8	=8	=8	=8	=8	=8	=8	=8	=8	=8	=8	=8	=8	=8	=8	=8	=8	=8	=8	=8	=8	=8	=8	=8	=8	=8	=8	=8	=8	=8
!	!	!	!	!	!	!	!	!	!	!	!LO:DY:a	!LO:TX:t=P:problem:all\right:global	!	!	!	!	!LO:DY:a	!	!	!LO:DY:a	!	!	!	!	!	!	!	!	!	!	!	!	!	!
8AA\L	.	8a\L	f	8ee|\L	f	8gg|\L	.	.	8AA/L	Chri-	f	(4e\	Chri-	f	4.a\	Chri-	f	(4gg\	Chri-	f	4AA/	.	4a/	.	4ee\	.	4ee\	.	4gg\	.	4ee\	.	4gg\	.
8A\	.	8a\	.	(16ee\L	.	(16gg\L	.	.	8C#/	.	.	.	.	.	.	.	.	.	.	.	.	.	.	.	.	.	.	.	.	.	.	.	.	.
.	.	.	.	16ff#\	.	16aa\	.	.	.	.	.	.	.	.	.	.	.	.	.	.	.	.	.	.	.	.	.	.	.	.	.	.	.	.
8A\J	.	8a\J	.	16ee\	.	16gg\	.	.	8E/J	.	.	8d\)	.	.	.	.	.	8ff#\)	.	.	8r	.	8r	.	8r	.	(16ee\LL	.	(16gg\LL	.	(16ee\LL	.	(16gg\LL	.
.	.	.	.	16dd\JJ)	.	16ff#\JJ)	.	.	.	.	.	.	.	.	.	.	.	.	.	.	.	.	.	.	.	.	16dd\JJ)	.	16ff#\JJ)	.	16dd\JJ)	.	16ff#\JJ)	.
!	!	!	!	!	!	!	!	!	!LO:TX:t=P:problem:all\right:global	!	!	!	!	!	!	!	!	!	!	!	!	!	!	!	!	!	!	!	!	!	!	!	!	!
8A\L	.	8a\L	.	8cc#\L	.	8ee|\L	.	.	4A\	-ste	.	4c#\	-ste	.	8a\	-ste	.	4ee\	-ste	.	8AA/L	.	8a/L	.	8ee\L	.	8cc#\L	.	8ee\L	.	8cc#\L	.	8ee\L	.
8A\J	.	8a\J	.	(16cc#\L	.	(16ee\L	.	.	.	.	.	.	.	.	8r	.	.	.	.	.	8AA/	.	16a/L	.	16ee\L	.	(16cc#\L	.	(16ee\L	.	(16cc#\L	.	(16ee\L	.
.	.	.	.	16b\J)	.	16dd\J)	.	.	.	.	.	.	.	.	.	.	.	.	.	.	.	.	16a/J	.	16ee\J	.	16b\J)	.	16dd\J)	.	16b\J)	.	16dd\J)	.
8r	.	8r	.	8cc#\J	.	8ee\J	.	.	8r	.	.	8r	.	.	8r	.	.	8r	.	.	8AA/J	.	8a/J	.	8ee\J	.	8cc#\J	.	8ee\J	.	8cc#\J	.	8ee\J	.
!	!	!	!	!	!	!	!	!	!	!	!	!	!	!	!LO:LB:g=original	!	!	!	!	!	!	!	!	!	!	!	!	!	!	!	!	!	!	!
!	!	!	!	!	!	!	!	!	!	!	!	!	!	!	!	!	!	!LO:LB:g=original	!	!	!	!	!	!	!	!	!	!	!	!	!	!	!	!
!	!	!	!	!	!	!	!	!	!	!	!	!	!	!	!	!	!	!	!	!	!	!	!LO:LB:g=original	!	!	!	!	!	!	!	!	!	!	!
!	!	!	!	!	!	!	!	!	!	!	!	!	!	!	!	!	!	!	!	!	!	!	!	!	!LO:LB:g=original	!	!	!	!	!	!	!	!	!
!	!	!	!	!	!	!	!	!	!	!	!	!	!	!	!	!	!	!	!	!	!	!	!	!	!	!	!	!	!LO:LB:g=original	!	!	!	!	!
=9	=9	=9	=9	=9	=9	=9	=9	=9	=9	=9	=9	=9	=9	=9	=9	=9	=9	=9	=9	=9	=9	=9	=9	=9	=9	=9	=9	=9	=9	=9	=9	=9	=9	=9
*	*	*tremolo	*	*	*	*	*	*	*	*	*	*	*	*	*	*	*	*	*	*	*	*	*	*	*	*	*	*	*	*	*	*	*	*
8AA\L	6 4	8a\L	.	8d\L 8a 8ff#|	.	8aa|\L	.	.	8D\L	Chri-	.	(4A\	Chri-	.	(4f#\	Chri-	.	(4dd\	Chri-	.	4D\	.	4dd\	.	4ff#\	.	4ff#\	.	4aa\	.	4ff#\	.	4aa\	.
8A\	.	8a\	.	(16ff#\L	.	(16aa\L	.	.	8F#\	.	.	.	.	.	.	.	.	.	.	.	.	.	.	.	.	.	.	.	.	.	.	.	.	.
.	.	.	.	16gg\	.	16bb\	.	.	.	.	.	.	.	.	.	.	.	.	.	.	.	.	.	.	.	.	.	.	.	.	.	.	.	.
8A\J	.	8a\J	.	16ff#\	.	16aa\	.	.	8A\J	.	.	8c#\)	.	.	8a\)	.	.	8ee\)	.	.	8r	.	8r	.	8r	.	(16ff#\LL	.	(16aa\LL	.	(16ff#\LL	.	(16aa\LL	.
*	*	*Xtremolo	*	*	*	*	*	*	*	*	*	*	*	*	*	*	*	*	*	*	*	*	*	*	*	*	*	*	*	*	*	*	*	*
.	.	.	.	16ee\JJ)	.	16gg\JJ)	.	.	.	.	.	.	.	.	.	.	.	.	.	.	.	.	.	.	.	.	16ee\JJ)	.	16gg\JJ)	.	16ee\JJ)	.	16gg\JJ)	.
8A\L	.	8a\L	.	8dd\L	.	8ff#\L	.	.	8d\	-ste	.	8d\	-ste	.	8a\	-ste	.	8ff#\	-ste	.	8D\L	.	8dd\L	.	8ff#\L	.	8dd\L	.	8ff#\L	.	8dd\L	.	8ff#\L	.
!	!	!	!	!	!	!	!	!	!	!	!	!	!	!	!	!	!	!	!	!	!	!	!	!	!	!	!	!	!	!	!	!	!LO:TX:t=P:problem:niejednoznaczny zapis przednutka/obiegnik [przyjęto przednutkę]	!
.	.	.	.	.	.	16qqgg/	.	.	.	.	.	.	.	.	.	.	.	.	.	.	.	.	.	.	.	.	.	.	16qqgg/	.	.	.	8qqgg/	.
8A\J	.	8a\J	.	(16dd\L	.	(16ff#\L	.	.	8r	.	.	8r	.	.	8r	.	.	8r	.	.	8D\	.	16dd\L	.	(16ff#\L	.	(16dd\L	.	(16ff#\L	.	(16dd\L	.	(16ff#\L	.
.	.	.	.	16cc#\J)	.	16ee\J)	.	.	.	.	.	.	.	.	.	.	.	.	.	.	.	.	16dd\J	.	16ee\J)	.	16cc#\J)	.	16ee\J)	.	16cc#\J)	.	16ee\J)	.
8r	.	8r	.	8dd\J	.	8ff#\J	.	.	8F#\	Chri-	.	8d\	Chri-	.	8a\	Chri-	.	8ff#\	Chri-	.	8D\J	.	8dd\J	.	8ff#\J	.	8dd\J	.	8ff#\J	.	8dd\J	.	8ff#\J	.
!	!	!	!	!	!	!	!	!	!	!	!	!	!	!	!	!	!	!	!	!	!LO:LB:g=original	!	!	!	!	!	!	!	!	!	!	!	!	!
=10	=10	=10	=10	=10	=10	=10	=10	=10	=10	=10	=10	=10	=10	=10	=10	=10	=10	=10	=10	=10	=10	=10	=10	=10	=10	=10	=10	=10	=10	=10	=10	=10	=10	=10
!	!	!LO:TX:t=P:problem:mixed beam	!	!	!	!	!	!	!	!	!	!	!	!	!	!	!	!	!	!	!	!	!	!	!	!	!	!	!	!	!	!	!	!
8GG\L	.	8G/L	.	8b'\L	.	8ee\L	.	.	4G\	-ste	.	4e\	-ste	.	4b\	-ste	.	4ee\	-ste	.	4r	.	4r	.	4r	.	4b\	.	4ee\	.	4b\	.	4ee\	.
8G\	.	8g\	.	8b'\	.	(16ee\L	.	.	.	.	.	.	.	.	.	.	.	.	.	.	.	.	.	.	.	.	.	.	.	.	.	.	.	.
.	.	.	.	.	.	16dd\J)	.	.	.	.	.	.	.	.	.	.	.	.	.	.	.	.	.	.	.	.	.	.	.	.	.	.	.	.
8G\J	.	8g|\J	.	8b'\J	.	8ee\J	.	.	8G\	e-	.	8e\	e-	.	8b\	e-	.	8ee\	e-	.	8r	.	8r	.	8r	.	8b\	.	8ee\	.	8b\	.	8ee\	.
8G\L	.	8e|\L	.	8g'/L	.	(16dd\LL	.	.	4A\	-lei-	.	4e\	-lei-	.	4g\	-lei-	.	(16dd\LL	-lei-	.	8r	.	8r	.	8r	.	8g/L	.	(16dd\LL	.	8g/L	.	(16dd\LL	.
.	.	.	.	.	.	16cc#\	.	.	.	.	.	.	.	.	.	.	.	16cc#\	.	.	.	.	.	.	.	.	.	.	16cc#\	.	.	.	16cc#\	.
8G\	.	8e\	.	8g'/	.	16b\)	.	.	.	.	.	.	.	.	.	.	.	16b\	.	.	8AA/L	.	8a/L	.	8ee\L	.	8g/	.	16b\)	.	8g/	.	16b\)	.
.	.	.	.	.	.	16a|\	.	.	.	.	.	.	.	.	.	.	.	16a\JJ)	.	.	.	.	.	.	.	.	.	.	16a|\	.	.	.	16a'\	.
16G\L	.	(16g\L	.	(16e/L	.	16b|\	.	.	8A\	-son	.	8e\	-son	.	16e\LL	-son	.	16b\LL	-son	.	8AA/J	.	8a/J	.	8ee\J	.	(16e/L	.	16b|\	.	(16e/L	.	16b'\	.
16E\JJ	.	16e\JJ)	.	16g/JJ)	.	16cc#|\JJ	.	.	.	.	.	.	.	.	16g\JJ	.	.	16cc#\JJ	.	.	.	.	.	.	.	.	16g/JJ)	.	16cc#|\JJ	.	16g/JJ)	.	16cc#'\JJ	.
!	!	!	!	!	!	!LO:LB:g=original	!	!	!	!	!	!	!	!	!	!	!	!	!	!	!	!	!	!	!	!	!	!	!	!	!	!	!	!
=11	=11	=11	=11	=11	=11	=11	=11	=11	=11	=11	=11	=11	=11	=11	=11	=11	=11	=11	=11	=11	=11	=11	=11	=11	=11	=11	=11	=11	=11	=11	=11	=11	=11	=11
!	!	!	!	!LO:TX:t=P:problem:mixed beam	!	!	!	!	!	!	!	!	!	!	!	!	!	!	!	!	!	!	!	!	!	!	! 	!	!	!	!	!	!	!
!	!	!	!	!	!	!	!	!	!	!	!	!	!	!	!	!	!	!	!	!	!	!	!	!	!	!	!LO:TX:t=P:problem:mixed beam	!	!	!	!LO:TX:t=P:problem:mixed beam	!	!	!
8D\L	.	4a\	.	8f#/L	.	8dd|\L	.	.	8D\	e-	.	8f#\	e-	.	8f#\	e-	.	8dd\	e-	.	4D\	.	8f#/L	.	8dd\L	.	8f#|/L	.	8dd|\L	.	8f#/L	.	8dd'\L	.
8F#\	.	.	.	8dd\	.	8ff#|\	.	.	8F#\L	-lei-	.	8f#\L	-lei-	.	8dd\L	-lei-	.	8ff#\L	-lei-	.	.	.	8dd/	.	8ff#\	.	8dd|\	.	8ff#|\	.	8dd\	.	8ff#'\	.
8A\J	.	8a\	.	8a\J	.	8ee|\J	.	.	8A\J	.	.	8e\J	.	.	8a\J	.	.	8ee\J	.	.	8AA/	.	8a/J	.	8ee\J	.	8a|\J	.	8ee|\J	.	8a\J	.	8ee'\J	.
4d\	.	4a\	.	8f#/	.	8dd\	.	.	4D\	-son	.	4d\	-son	.	4f#\	-son	.	4dd\	-son	.	4D\	.	4f#/	.	4dd\	.	4f#|/	.	4dd|\	.	4f#/	.	4dd\	.
.	.	.	.	8r	.	8r	.	.	.	.	.	.	.	.	.	.	.	.	.	.	.	.	.	.	.	.	.	.	.	.	.	.	.	.
8r	.	8r	.	8r	.	8a/	p	.	8r	.	.	8r	.	.	8r	.	.	8r	.	.	8r	.	8r	.	8r	.	8r	.	8r	.	8r	.	8r	.
!	!	!	!	!	!	!	!	!	!LO:LB:g=original	!	!	!	!	!	!	!	!	!	!	!	!	!	!	!	!	!	!	!	!	!	!	!	!	!
!	!	!	!	!	!	!	!	!	!	!	!	!LO:LB:g=original	!	!	!	!	!	!	!	!	!	!	!	!	!	!	!	!	!	!	!	!	!	!
=12	=12	=12	=12	=12	=12	=12	=12	=12	=12	=12	=12	=12	=12	=12	=12	=12	=12	=12	=12	=12	=12	=12	=12	=12	=12	=12	=12	=12	=12	=12	=12	=12	=12	=12
!	!	!LO:TX:a:i:t=dolce	!	!	!LO:DY:a	!	!	!	!LO:TX:a:t=4	!	!	!LO:TX:a:t=4	!	!	!LO:TX:a:i:t=dolce	!	!	!LO:TX:a:i:t=dolce	!	!	!LO:TX:a:t=6	!	!LO:TX:a:t=4	!	!LO:TX:a:t=4	!	!LO:TX:a:t=4	!	!LO:TX:a:t=3	!	!LO:TX:a:t=4	!	!LO:TX:a:t=3	!
8D\L	.	[4.d\	p	[4.f#/	p	[4.dd\	.	.	2.r	.	.	2.r	.	.	4f#\	Kÿ-	.	4dd\	Kÿ-	.	2.r	.	2.r	.	2.r	.	2.r	.	2.r	.	2.r	.	2.r	.
8F#\	.	.	.	.	.	.	.	.	.	.	.	.	.	.	.	.	.	.	.	.	.	.	.	.	.	.	.	.	.	.	.	.	.	.
8A\J	.	.	.	.	.	.	.	.	.	.	.	.	.	.	8f#\	-ri-	.	8dd\	-ri-	.	.	.	.	.	.	.	.	.	.	.	.	.	.	.
4d\	.	8d\L]	.	8f#/L]	.	8dd\L]	.	.	.	.	.	.	.	.	(8f#\L	-e	.	(8dd\L	-e	.	.	.	.	.	.	.	.	.	.	.	.	.	.	.
.	.	(8e\	.	(8g/	.	(8ee\	.	.	.	.	.	.	.	.	8g\	.	.	8ee\	.	.	.	.	.	.	.	.	.	.	.	.	.	.	.	.
8r	.	8f#\J)	.	8a/J)	.	8ff#\J)	.	.	.	.	.	.	.	.	8a\J)	.	.	8ff#\J)	.	.	.	.	.	.	.	.	.	.	.	.	.	.	.	.
!	!	!	!	!LO:LB:g=original	!	!	!	!	!	!	!	!	!	!	!	!	!	!	!	!	!	!	!	!	!	!	!	!	!	!	!	!	!	!
=13	=13	=13	=13	=13	=13	=13	=13	=13	=13	=13	=13	=13	=13	=13	=13	=13	=13	=13	=13	=13	=13	=13	=13	=13	=13	=13	=13	=13	=13	=13	=13	=13	=13	=13
8AA\L	.	[4.g\	.	[4.b\	.	[4.gg\	.	.	2.r	.	.	2.r	.	.	4b\	Kÿ-	.	4gg\	Kÿ-	.	2.r	.	2.r	.	2.r	.	2.r	.	2.r	.	2.r	.	2.r	.
8C#\	.	.	.	.	.	.	.	.	.	.	.	.	.	.	.	.	.	.	.	.	.	.	.	.	.	.	.	.	.	.	.	.	.	.
8E\J	.	.	.	.	.	.	.	.	.	.	.	.	.	.	8b\	-ri-	.	8gg\	-ri-	.	.	.	.	.	.	.	.	.	.	.	.	.	.	.
4A\	.	8g\L]	.	(8b/L]	.	8gg\L]	.	.	.	.	.	.	.	.	(8b\L	-e	.	(8gg\L	-e	.	.	.	.	.	.	.	.	.	.	.	.	.	.	.
.	.	8e\	.	8g/	.	(8ee\	.	.	.	.	.	.	.	.	8g\	.	.	8ee\	.	.	.	.	.	.	.	.	.	.	.	.	.	.	.	.
8r	.	8d\J	.	8f#/J)	.	8dd\J)	.	.	.	.	.	.	.	.	8f#\J)	.	.	8dd\J)	.	.	.	.	.	.	.	.	.	.	.	.	.	.	.	.
=14	=14	=14	=14	=14	=14	=14	=14	=14	=14	=14	=14	=14	=14	=14	=14	=14	=14	=14	=14	=14	=14	=14	=14	=14	=14	=14	=14	=14	=14	=14	=14	=14	=14	=14
8AA\L	.	4.a\	.	[4.e/	.	[4.cc#\	.	.	2.r	.	.	2.r	.	.	4e\	Ky-	.	4cc#\	Ky-	.	2.r	.	2.r	.	2.r	.	2.r	.	2.r	.	2.r	.	2.r	.
!	!	!LO:LB:g=original	!	!	!	!	!	!	!	!	!	!	!	!	!	!	!	!	!	!	!	!	!	!	!	!	!	!	!	!	!	!	!	!
8C#\	.	.	.	.	.	.	.	.	.	.	.	.	.	.	.	.	.	.	.	.	.	.	.	.	.	.	.	.	.	.	.	.	.	.
8E\J	.	.	.	.	.	.	.	.	.	.	.	.	.	.	8e\	-ri-	.	8cc#\	-ri-	.	.	.	.	.	.	.	.	.	.	.	.	.	.	.
4A\	.	8a\L	.	8e/L]	.	8cc#\L]	.	.	.	.	.	.	.	.	8e\L	-e	.	8cc#\L	-e	.	.	.	.	.	.	.	.	.	.	.	.	.	.	.
.	.	8a\	.	(8f#/	.	(8dd\	.	.	.	.	.	.	.	.	8f#\J	.	.	8dd\J	.	.	.	.	.	.	.	.	.	.	.	.	.	.	.	.
8r	.	8a\J	.	8g/J)	.	8ee\J)	.	.	.	.	.	.	.	.	8g\	e-	.	8ee\	e-	.	.	.	.	.	.	.	.	.	.	.	.	.	.	.
!	!	!	!	!	!	!	!	!	!	!	!	!	!	!	!	!	!	!LO:LB:g=original	!	!	!	!	!	!	!	!	!	!	!	!	!	!	!	!
=15	=15	=15	=15	=15	=15	=15	=15	=15	=15	=15	=15	=15	=15	=15	=15	=15	=15	=15	=15	=15	=15	=15	=15	=15	=15	=15	=15	=15	=15	=15	=15	=15	=15	=15
8D\L	.	8d\L	.	(4.a/	.	(4.ff#\	.	.	2.r	.	.	2.r	.	.	4.a\	-lei-	.	4.ff#\	-lei-	.	2.r	.	2.r	.	2.r	.	2.r	.	4r	.	2.r	.	4r	.
8F#\	.	8f#\	.	.	.	.	.	.	.	.	.	.	.	.	.	.	.	.	.	.	.	.	.	.	.	.	.	.	.	.	.	.	.	.
8A\J	.	8a\J	.	.	.	.	.	.	.	.	.	.	.	.	.	.	.	.	.	.	.	.	.	.	.	.	.	.	8r	.	.	.	8r	.
4d\	.	8a\	.	8f#/)	.	8dd\)	.	.	.	.	.	.	.	.	8f#\	-son	.	8dd\	-son	.	.	.	.	.	.	.	.	.	4r	.	.	.	4r	.
.	.	8r	.	8r	.	8r	.	.	.	.	.	.	.	.	8r	.	.	8r	.	.	.	.	.	.	.	.	.	.	.	.	.	.	.	.
8r	.	8r	f	8r	.	(16ff#\LL	f	.	.	.	.	.	.	.	8r	.	.	8r	.	.	.	.	.	.	.	.	.	.	(16ff#\LL	.	.	.	(16ff#\LL	.
.	.	.	.	.	.	16ee\JJ)	.	.	.	.	.	.	.	.	.	.	.	.	.	.	.	.	.	.	.	.	.	.	16ee\JJ)	.	.	.	16ee\JJ)	.
!LO:LB:g=original	!	!	!	!	!	!	!	!	!	!	!	!	!	!	!	!	!	!	!	!	!	!	!	!	!	!	!	!	!	!	!	!	!	!
!	!	!	!	!	!	!	!	!	!	!	!	!	!	!	!LO:LB:g=original	!	!	!	!	!	!	!	!	!	!	!	!	!	!	!	!	!	!	!
=16	=16	=16	=16	=16	=16	=16	=16	=16	=16	=16	=16	=16	=16	=16	=16	=16	=16	=16	=16	=16	=16	=16	=16	=16	=16	=16	=16	=16	=16	=16	=16	=16	=16	=16
*	*	*	*	*	*	*^	*	*	*	*	*	*	*	*	*	*	*	*	*	*	*	*	*	*	*	*	*	*	*	*	*	*	*	*
!LO:TX:t=P:problem:mixed beam	!	!	!	!	!	!	!	!	!	!	!	!	!	!	!	!	!	!	!	!	!	!	!	!	!	!	!	!	!	!	!	!	!	!	!
8E\L	.	8E/L	.	8b|\L	.	8ee/L	8dd\L	.	.	8G#X\	Chri-	.	8d\	Chri-	.	8b\	Chri-	.	8ee\	Chri-	f	2.r	.	8ee|\L	.	8ee\L	.	8b|\L	.	8dd|\L	.	8b'\L	.	8dd'\L	.
8EE/J	.	8E/J	.	8b|\J	.	8ee/J	8dd\J	.	.	8G#\	-ste	.	8d\	-ste	.	8b\	-ste	.	8ee\	-ste	.	.	.	8ee|\J	.	8ee\J	.	8b|\J	.	8dd|\J	.	8b'\J	.	8dd'\J	.
8r	.	8r	.	8r	.	(16ff#\LL	4ryy	.	.	8r	.	.	8r	.	.	8r	.	.	8r	.	.	.	.	8r	.	8r	.	8r	.	(16ff#\LL	.	8r	.	(16ff#\LL	.
.	.	.	.	.	.	16ee\JJ)	.	.	.	.	.	.	.	.	.	.	.	.	.	.	.	.	.	.	.	.	.	.	.	16ee\JJ)	.	.	.	16ee\JJ)	.
!LO:TX:t=P:problem:mixed beam	!	!	!	!	!	!	!	!	!	!	!	!	!	!	!	!	!	!	!	!	!	!	!	!	!	!	!	!	!	!	!	!	!	!	!
8A\L	.	8A/L	.	8cc#|\L	.	8ee|\L	.	.	.	16A\	au-	.	16c#\	au-	.	16cc#\	au-	.	16ee\	au-	.	.	.	8a|/L	.	8ee\L	.	8a|\L	.	8cc#|\L	.	8a'\L	.	8cc#'\L	.
.	.	.	.	.	.	.	.	.	.	16A\	-di-	.	16c#\	-di-	.	16cc#\	-di-	.	16ee\	-di-	.	.	.	.	.	.	.	.	.	.	.	.	.	.	.
8AA/J	.	8A/J	.	8cc#|\J	.	8ee|\J	4ryy	.	.	8A\	-nos	.	8c#\	-nos	.	8cc#\	-nos	.	8ee\	-nos	.	.	.	8a|/J	.	8ee\J	.	8a|\J	.	8cc#|\J	.	8a'\J	.	8cc#'\J	.
8r	.	8r	.	8r	.	(16ff#\LL	.	.	.	8r	.	.	8r	.	.	8r	.	.	8r	.	.	.	.	8r	.	8r	.	8r	.	(16ff#\LL	.	8r	.	(16ff#\LL	.
.	.	.	.	.	.	16ee\JJ)	.	.	.	.	.	.	.	.	.	.	.	.	.	.	.	.	.	.	.	.	.	.	.	16ee\JJ)	.	.	.	16ee\JJ)	.
!	!	!	!	!	!	!	!	!	!	!	!	!	!	!	!	!	!	!	!	!	!	!	!	!	!	!	!	!	!	!	!	!	!	!LO:LB:g=original	!
=17	=17	=17	=17	=17	=17	=17	=17	=17	=17	=17	=17	=17	=17	=17	=17	=17	=17	=17	=17	=17	=17	=17	=17	=17	=17	=17	=17	=17	=17	=17	=17	=17	=17	=17	=17
!LO:TX:t=P:problem:mixed beam	!	!	!	! 	!	!	!	!	!	!	!	!	!	!	!	!	!	!	!	!	!	!	!	!	!	!	!	!	!	!	!	!	!	!	!
8E\L	.	8E/L	.	8g#X|/L	.	8ee/L	8dd\L	.	.	8B\	Chri-	.	8G#X/	Chri-	.	8dd\	Chri-	.	8ee\	Chri-	.	2.r	.	8ee|\L	.	8ee\L	.	8g#|\L	.	8b|\L	.	8g#X'/L	.	8b'\L	.
8EE/J	.	8E/J	.	8g#/|J	.	8ee/J	8dd\J	.	.	8B\	-ste	.	8G#/	-ste	.	8dd\	-ste	.	8ee\	-ste	.	.	.	8ee|\J	.	8ee\J	.	8g#|\J	.	8b|\J	.	8g#'/J	.	8b'\J	.
8r	.	8r	.	8r	.	(16ff#\LL	4ryy	.	.	16r	.	.	16r	.	.	16r	.	.	16r	.	.	.	.	8r	.	8r	.	8r	.	(16ff#\LL	.	8r	.	(16ff#\LL	.
.	.	.	.	.	.	16ee\JJ)	.	.	.	16B\	ex-	.	16G#/	ex-	.	16dd\	ex-	.	16ee\	ex-	.	.	.	.	.	.	.	.	.	16ee\JJ)	.	.	.	16ee\JJ)	.
!LO:TX:t=P:problem:mixed beam	!	!	!	!LO:TX:t=P:problem:mixed beam	!	!	!	!	!	!	!	!	!	!	!	!	!	!	!	!	!	!	!	!	!	!	!	!	!	!	!	!	!	!	!
8A\L	.	8A/L	.	8cc#/L	.	8ee|\L	.	.	.	16A\	-au-	.	16A\	-au-	.	16cc#\	-au-	.	16ee\	-au-	.	.	.	8a/L	.	8ee\L	.	8a|\L	.	8cc|#\L	.	8a'/L	.	8cc#'\L	.
.	.	.	.	.	.	.	.	.	.	16A\	-di-	.	16A\	-di-	.	16cc#\	-di-	.	16ee\	-di-	.	.	.	.	.	.	.	.	.	.	.	.	.	.	.
8AA/J	.	8A/J	.	16cc#|/L	.	16ee|\L	4ryy	.	.	8A\	-nos	.	8A\	-nos	.	8cc#\	-nos	.	8ee\	-nos	.	.	.	8a|/J	.	8ee\J	.	8a|\J	.	8cc|#\J	.	8a'/J	.	8cc#'\J	.
.	.	.	.	16A/|	.	16a|\	.	.	.	.	.	.	.	.	.	.	.	.	.	.	.	.	.	.	.	.	.	.	.	.	.	.	.	.	.
8r	.	8r	.	16c#/|	.	16cc#|\	.	.	.	8r	.	.	8r	.	.	8r	.	.	8r	.	.	.	.	8r	.	8r	.	8r	.	8r	.	8r	.	8r	.
.	.	.	.	16e/JJ|	.	16ee|\JJ	.	.	.	.	.	.	.	.	.	.	.	.	.	.	.	.	.	.	.	.	.	.	.	.	.	.	.	.	.
*	*	*	*	*	*	*v	*v	*	*	*	*	*	*	*	*	*	*	*	*	*	*	*	*	*	*	*	*	*	*	*	*	*	*	*	*
!	!	!	!	!	!	!	!	!	!	!	!	!	!	!	!	!	!	!	!	!	!	!	!	!	!	!	!	!	!	!LO:LB:g=original	!	!	!	!
=18	=18	=18	=18	=18	=18	=18	=18	=18	=18	=18	=18	=18	=18	=18	=18	=18	=18	=18	=18	=18	=18	=18	=18	=18	=18	=18	=18	=18	=18	=18	=18	=18	=18	=18
8A\|L	.	8a|\L	.	16a/LL|	f	16aa|\LL	.	.	8A\	Pa-	.	8A\	Pa-	.	8a\	Pa-	.	8aa\	Pa-	.	4AA/	.	4a/	.	4a/	.	8a|\L	.	8aa|\L	.	8a'/L	.	8aa'\L	.
.	.	.	.	16a/|	.	16aa|\	.	.	.	.	.	.	.	.	.	.	.	.	.	.	.	.	.	.	.	.	.	.	.	.	.	.	.	.
8G#X|\	.	8g#X|\	.	16g#X|/	.	16gg#X|\	.	.	8G#X\	-ter	.	8G#X/	-ter	.	8g#X\	-ter	.	8gg#X\	-ter	.	.	.	.	.	.	.	8g#|\	.	8gg#|\	.	8g#X'/	.	8gg#X'\	.
.	.	.	.	16g#/|	.	16gg#|\	.	.	.	.	.	.	.	.	.	.	.	.	.	.	.	.	.	.	.	.	.	.	.	.	.	.	.	.
8A\|J	.	8a\J|	.	16a/|	.	16aa|\	.	.	8A\	de	.	8A\	de	.	8a\	de	.	8aa\	de	.	8r	.	8r	.	8r	.	8a\|J	.	8aa|\J	.	8a'/J	.	8aa'\J	.
.	.	.	.	16a/JJ|	.	16aa\|JJ	.	.	.	.	.	.	.	.	.	.	.	.	.	.	.	.	.	.	.	.	.	.	.	.	.	.	.	.
!	!	!	!	!	!	!LO:LB:g=original	!	!	!	!	!	!	!	!	!	!	!	!	!	!	!	!	!	!	!	!	!	!	!	!	!	!	!	!
4c#\|	.	4cc#|\	.	16cc#\LL|	.	16ccc#|\LL	.	.	4c#\	Cae-	.	4c#\	Cae-	.	4cc#\	Cae-	.	4ccc#\	Cae-	.	8r	.	8r	.	8r	.	4cc#|\	.	4ccc#\	.	4cc#\	.	4ccc#\	.
.	.	.	.	16cc#\|	.	16ccc#|\	.	.	.	.	.	.	.	.	.	.	.	.	.	.	.	.	.	.	.	.	.	.	.	.	.	.	.	.
.	.	.	.	16cc#\|	.	16ccc#|\	.	.	.	.	.	.	.	.	.	.	.	.	.	.	8AA/L	.	8a/L	.	8a/L	.	.	.	.	.	.	.	.	.
.	.	.	.	16cc#\|	.	16ccc#|\	.	.	.	.	.	.	.	.	.	.	.	.	.	.	.	.	.	.	.	.	.	.	.	.	.	.	.	.
8A|\	.	8a|\	.	16a\|	.	16aa|\	.	.	8A\	-lis	.	8A\	-lis	.	8a\	-lis	.	8aa\	-lis	.	8AA/J	.	8a/J	.	8a/J	.	8a|\	.	8aa\	.	8a\	.	8aa\	.
.	.	.	.	16a\JJ|	.	16aa|\JJ	.	.	.	.	.	.	.	.	.	.	.	.	.	.	.	.	.	.	.	.	.	.	.	.	.	.	.	.
=19	=19	=19	=19	=19	=19	=19	=19	=19	=19	=19	=19	=19	=19	=19	=19	=19	=19	=19	=19	=19	=19	=19	=19	=19	=19	=19	=19	=19	=19	=19	=19	=19	=19	=19
!	!	!	!	! 	!	!	!	!	!	!	!	!	!	!	!	!	!	!	!	!	!LO:TX:a:t=1	!	!	!	!	!	! 	!	!	!	!	!	!	!
8F#\|L	.	8f#|\L	.	16f#/|LL	.	16ff#|\LL	.	.	8F#\	de	.	8f#\	de	.	8f#\	de	.	8ff#\	de	.	2.r	.	4f#/	.	4f#/	.	8f#|/L	.	8ff#|\L	.	8f#'/L	.	8ff#'\L	.
.	.	.	.	16f#/|	.	16ff#|\	.	.	.	.	.	.	.	.	.	.	.	.	.	.	.	.	.	.	.	.	.	.	.	.	.	.	.	.
8E#X|\	.	8e#X|\	.	16e#X/|	.	16ee#X|\	.	.	8E#X\	Cae-	.	8e#X\	Cae-	.	8e#X\	Cae-	.	8ee#X\	Cae-	.	.	.	.	.	.	.	8e#X|/	.	8ee#X|\	.	8e#X'/	.	8ee#X'\	.
.	.	.	.	16e#/|	.	16ee#|\	.	.	.	.	.	.	.	.	.	.	.	.	.	.	.	.	.	.	.	.	.	.	.	.	.	.	.	.
8F#\|J	.	8f#|\J	.	16f#/|	.	16ff#|\	.	.	8F#\	-lis	.	8f#\	-lis	.	8f#\	-lis	.	8ff#\	-lis	.	.	.	8r	.	8r	.	8f#/|J	.	8ff#|\J	.	8f#'/J	.	8ff#'\J	.
.	.	.	.	16f#/JJ|	.	16ff#|\JJ	.	.	.	.	.	.	.	.	.	.	.	.	.	.	.	.	.	.	.	.	.	.	.	.	.	.	.	.
4A\|	.	4a\	.	16a/LL|	.	16aa|\LL	.	.	4A\	De-	.	4a\	De-	.	4a\	De-	.	4aa\	De-	.	.	.	4a/	.	4a/	.	4a|\	.	4aa|\	.	4a/	.	4aa'\	.
.	.	.	.	16a/|	.	16aa|\	.	.	.	.	.	.	.	.	.	.	.	.	.	.	.	.	.	.	.	.	.	.	.	.	.	.	.	.
.	.	.	.	16a/|	.	16aa|\	.	.	.	.	.	.	.	.	.	.	.	.	.	.	.	.	.	.	.	.	.	.	.	.	.	.	.	.
.	.	.	.	16a/|	.	16aa|\	.	.	.	.	.	.	.	.	.	.	.	.	.	.	.	.	.	.	.	.	.	.	.	.	.	.	.	.
8F#\|	.	8f#\	.	16f#/|	.	16ff#|\	.	.	8F#\	-us	.	8f#\	-us	.	8f#\	-us	.	8ff#\	-us	.	.	.	8f#/	.	8f#/	.	8f#|\	.	8ff#|\	.	8f#/	.	8ff#'\	.
.	.	.	.	16f#/JJ|	.	16ff#|\JJ	.	.	.	.	.	.	.	.	.	.	.	.	.	.	.	.	.	.	.	.	.	.	.	.	.	.	.	.
!	!	!	!	!LO:LB:g=original	!	!	!	!	!	!	!	!	!	!	!	!	!	!	!	!	!	!	!	!	!	!	!	!	!	!	!	!	!	!
!	!	!	!	!	!	!	!	!	!	!	!	!	!	!	!LO:LB:g=original	!	!	!	!	!	!	!	!	!	!	!	!	!	!	!	!	!	!	!
!	!	!	!	!	!	!	!	!	!	!	!	!	!	!	!	!	!	!LO:LB:g=original	!	!	!	!	!	!	!	!	!	!	!	!	!	!	!	!
!	!	!	!	!	!	!	!	!	!	!	!	!	!	!	!	!	!	!	!	!	!	!	!	!	!	!	!LO:LB:g=original	!	!	!	!	!	!	!
!	!	!	!	!	!	!	!	!	!	!	!	!	!	!	!	!	!	!	!	!	!	!	!	!	!	!	!	!	!	!	!LO:LB:g=original	!	!	!
=20	=20	=20	=20	=20	=20	=20	=20	=20	=20	=20	=20	=20	=20	=20	=20	=20	=20	=20	=20	=20	=20	=20	=20	=20	=20	=20	=20	=20	=20	=20	=20	=20	=20	=20
*	*	*tremolo	*	*	*	*	*	*	*	*	*	*	*	*	*	*	*	*	*	*	*	*	*	*	*	*	*	*	*	*	*	*	*	*
!	!	!	!	!LO:TX:t=P:problem:mixed beam	!	!	!	!	!	!	!	!	!	!	!	!	!	!	!	!	!	!	!	!	!	!	!	!	!	!	!	!	!	!
8AA\L	.	8e\L	.	(16cc#\LL	.	(16een\LL	.	.	16A\	mi-	.	16en\	mi-	.	16cc#\	mi-	.	16een\	mi-	.	4AA/	.	8a/	.	8ee\	.	8cc#\L	.	(8ee\L	.	8cc#\L	.	(8een\L	.
.	.	.	.	16a\J)	.	16cc#\)	.	.	16A\	-se-	.	16e\	-se-	.	16a\	-se-	.	16cc#\	-se-	.	.	.	.	.	.	.	.	.	.	.	.	.	.	.
!	!	!	!	!	!	!	!	!	!	!	!	!LO:LB:g=original	!	!	!	!	!	!	!	!	!	!	!	!	!	!	!	!	!	!	!	!	!	!
8A\	.	8e\	.	8g#X\	.	(16dd\	.	.	8B\	-re-	.	8e\	-re-	.	16b\LL	-re-	.	16dd\LL	-re-	.	.	.	8r	.	8r	.	8b\	.	8dd\	.	8b\	.	8dd\	.
.	.	.	.	.	.	16b\)	.	.	.	.	.	.	.	.	16g#X\JJ	.	.	16b\JJ	.	.	.	.	.	.	.	.	.	.	.	.	.	.	.	.
8A\J	.	8e\J	.	(16a\L	.	(16cc#\	.	.	8c#\	-re	.	8e\	-re	.	8a\	-re	.	16cc#\LL	-re	.	8r	.	8r	.	8r	.	8a\J	.	8cc#\J)	.	8a\J	.	8cc#\J)	.
*	*	*Xtremolo	*	*	*	*	*	*	*	*	*	*	*	*	*	*	*	*	*	*	*	*	*	*	*	*	*	*	*	*	*	*	*	*
.	.	.	.	16c#/JJ)	.	16a\JJ)	.	.	.	.	.	.	.	.	.	.	.	16a\JJ	.	.	.	.	.	.	.	.	.	.	.	.	.	.	.	.
!LO:TX:t=P:problem:mixed beam	!	!	!	!	!	!	!	!	!	!	!	!	!	!	!	!	!	!	!	!	!	!	!	!	!	!	!	!	!	!	!	!	!	!
!	!	!	!	!	!	!	!	!	!LO:LB:g=original	!	!	!	!	!	!	!	!	!	!	!	!	!	!	!	!	!	!	!	!	!	!	!	!	!
8D\L	6	8f#\L	.	(16e/LL	.	(16cc#\LL	.	.	8d\L	no-	.	8f#\L	no-	.	16e\LL	no-	.	16cc#\LL	no-	.	4r	.	8dd\L	.	8ff#\L	.	(16e/LL	.	(16cc#\LL	.	(16ee\LL	.	(16cc#\LL	.
.	.	.	.	16d/J)	.	16b\J)	.	.	.	.	.	.	.	.	16d\J	.	.	16b\J	.	.	.	.	.	.	.	.	16d/J)	.	16b\J)	.	16dd\J)	.	16b\J)	.
8E\	6	8e\	.	8c#/	.	8a\	.	.	8e\J	.	.	8e\J	.	.	8c#\J	.	.	8a\J	.	.	.	.	8ee\	.	8ee\	.	8c#/	.	8a\	.	8cc#\	.	8a\	.
!	!	!	!	!	!	!	!	!	!	!	!	!	!	!	!	!	!	!	!	!	!	!	!	!	!	!	!	!	!	!	!	!	!LO:SIC:v:s=8g#	!
8EE/J	5	8e\J	.	8B/J	.	8g#X\J	.	.	8E\	-bis	.	8e\	-bis	.	8B/	-bis	.	8g#X\	-bis	.	8r	.	8ee\J	.	8ee\J	.	8B/J	.	8g#\J	.	8b\J	.	8g\J	.
!	!	!	!	!	!	!	!	!	!	!	!	!	!	!	!	!	!	!	!	!	!	!	!	!	!LO:LB:g=original	!	!	!	!	!	!	!	!	!
=21	=21	=21	=21	=21	=21	=21	=21	=21	=21	=21	=21	=21	=21	=21	=21	=21	=21	=21	=21	=21	=21	=21	=21	=21	=21	=21	=21	=21	=21	=21	=21	=21	=21	=21
*	*	*	*	*	*	*^	*	*	*	*	*	*	*	*	*	*	*	*	*	*	*	*	*	*	*	*	*	*	*	*	*	*	*	*
!LO:TX:t=P:problem:mixed beam	!	! 	!LO:DY:a	!	!	!	!	!	!	!	!	!LO:DY:a	!	!	!LO:DY:a	!	!	!	!	!	!	!LO:TX:a:t=2	!	!LO:TX:a:t=2	!	!LO:TX:a:t=2	!	!	!	!LO:TX:t=P:problem:p = piano:global	!	!	!	!	!
8E\L	.	8E|/L	p	8b\|L	.	8ee/L	8dd\L	p	.	8G#X\	Fi-	p	8d\	Fi-	p	8b\	Fi-	p	8ee\	Fi-	p	2.r	.	2.r	.	2.r	.	8b|\L	p	8dd'\L	p	8b'\L	p	8dd'\L	p
8EE/J	.	8E|/J	.	8b\|J	.	8ee/J	8dd\J	.	.	8G#\	-li	.	8d\	-li	.	8b\	-li	.	8ee\	-li	.	.	.	.	.	.	.	8b|\J	.	8dd'\J	.	8b'\J	.	8dd'\J	.
8r	.	8r	.	8r	.	(16ff#\LL	4ryy	.	.	16r	.	.	16r	.	.	16r	.	.	16r	.	.	.	.	.	.	.	.	8r	.	(16ff#\LL	.	8r	.	(16ff#\LL	.
.	.	.	.	.	.	16ee\JJ)	.	.	.	16G#\	Re-	.	16d\	Re-	.	16b\	Re-	.	16ee\	Re-	.	.	.	.	.	.	.	.	.	16ee\JJ)	.	.	.	16ee\JJ)	.
!LO:TX:t=P:problem:mixed beam	!	! 	!	!	!	!	!	!	!	!	!	!	!	!	!	!	!	!	!	!	!	!	!	!	!	!	!	!	!	!	!	!	!	!	!
8A\L	.	8A|/L	.	8cc#|\L	.	8ee|\L	.	.	.	8A\	-dem-	.	8c#\	-dem-	.	8cc#\	-dem-	.	8ee\	-dem-	.	.	.	.	.	.	.	8a|\L	.	8cc#'\L	.	8a'\L	.	8cc#'\L	.
!	!	! 	!	!	!	!	!	!	!	!LO:SIC:v:l:s=-ptor	!	!	!LO:SIC:v:l:s=-ptor	!	!	!LO:SIC:v:l:s=-ptor	!	!	!LO:SIC:v:l:s=-ptor	!	!	!	!	!	!	!	!	!	!	!	!	!	!	!	!
8AA/J	.	8A|/J	.	8cc#|\J	.	8ee|\J	4ryy	.	.	8A\	-tor	.	8c#\	-tor	.	8cc#\	-tor	.	8ee\	-tor	.	.	.	.	.	.	.	8a|\J	.	8cc#\J	.	8a'\J	.	8cc#'\J	.
8r	.	8r	.	8r	.	(16ff#\LL	.	.	.	8r	.	.	8r	.	.	8r	.	.	8r	.	.	.	.	.	.	.	.	8r	.	(16ff#\LL	.	8r	.	(16ff#\LL	.
.	.	.	.	.	.	16ee\JJ)	.	.	.	.	.	.	.	.	.	.	.	.	.	.	.	.	.	.	.	.	.	.	.	16ee\JJ)	.	.	.	16ee\JJ)	.
!	!	!LO:LB:g=original	!	!	!	!	!	!	!	!	!	!	!	!	!	!	!	!	!	!	!	!	!	!	!	!	!	!	!	!	!	!	!	!	!
=22	=22	=22	=22	=22	=22	=22	=22	=22	=22	=22	=22	=22	=22	=22	=22	=22	=22	=22	=22	=22	=22	=22	=22	=22	=22	=22	=22	=22	=22	=22	=22	=22	=22	=22	=22
!LO:TX:t=P:problem:mixed beam	!	!	!LO:DY:a	! 	!	!	!	!	!	!	!	!	!	!	!	!	!	!	!	!	!	!	!	!	!	!	!	!	!	!	!	!	!	!	!
8E\L	.	8E/L	p	8g#X|/L	.	8ee/L	8dd\L	.	.	8B\	mun-	.	8G#X/	mun-	.	8dd\	mun-	.	8ee\	mun-	.	2.r	.	2.r	.	2.r	.	8g#|\L	.	8b\L	.	8g#X'/L	.	8b'\L	.
8EE/J	.	8E/J	.	8g#/|J	.	8ee/J	8dd\J	.	.	8B\	-di	.	8G#/	-di	.	8dd\	-di	.	8ee\	-di	.	.	.	.	.	.	.	8g#|\J	.	8b'\J	.	8g#'/J	.	8b'\J	.
8r	.	8r	.	8r	.	(16ff#\LL	4ryy	.	.	8r	.	.	8r	.	.	8r	.	.	8r	.	.	.	.	.	.	.	.	8r	.	(16ff#\LL	.	8r	.	(16ff#\LL	.
.	.	.	.	.	.	16ee\JJ)	.	.	.	.	.	.	.	.	.	.	.	.	.	.	.	.	.	.	.	.	.	.	.	16ee\JJ)	.	.	.	16ee\JJ)	.
!LO:TX:t=P:problem:mixed beam	!	!	!	!LO:TX:t=P:problem:mixed beam	!	!	!	!	!	!	!	!	!	!	!	!	!	!	!	!	!	!	!	!	!	!	!	!	!	!	!	!	!	!	!
8A\L	.	8A/L	.	8cc#|/L	.	8ee|\L	.	.	.	8A\	De-	.	8A\	De-	.	8cc#\	De-	.	8ee\	De-	.	.	.	.	.	.	.	8a|\L	.	8cc#\L	.	8a'/L	.	8cc#'\L	.
8AA/J	.	8A/J	.	16cc#|/L	.	16ee|\L	4ryy	f	.	8A\	-us	.	8A\	-us	.	8cc#\	-us	.	8ee\	-us	.	.	.	.	.	.	.	8a|\J	.	8cc#\J	.	8a'/J	.	8cc#'\J	.
.	.	.	.	16A|/	.	16a\	.	.	.	.	.	.	.	.	.	.	.	.	.	.	.	.	.	.	.	.	.	.	.	.	.	.	.	.	.
8r	.	8r	.	16c#|/	.	16cc#\	.	.	.	8r	.	.	8r	.	.	8r	.	.	8r	.	.	.	.	.	.	.	.	8r	.	8r	.	8r	.	8r	.
.	.	.	.	16e/JJ	.	16ee\JJ	.	.	.	.	.	.	.	.	.	.	.	.	.	.	.	.	.	.	.	.	.	.	.	.	.	.	.	.	.
*	*	*	*	*	*	*v	*v	*	*	*	*	*	*	*	*	*	*	*	*	*	*	*	*	*	*	*	*	*	*	*	*	*	*	*	*
!LO:LB:g=original	!	!	!	!	!	!	!	!	!	!	!	!	!	!	!	!	!	!	!	!	!	!	!	!	!	!	!	!	!	!	!	!	!	!
!	!	!	!	!	!	!	!	!	!	!	!	!	!	!	!	!	!	!	!	!	!	!	!LO:LB:g=original	!	!	!	!	!	!	!	!	!	!	!
=23	=23	=23	=23	=23	=23	=23	=23	=23	=23	=23	=23	=23	=23	=23	=23	=23	=23	=23	=23	=23	=23	=23	=23	=23	=23	=23	=23	=23	=23	=23	=23	=23	=23	=23
!	!	!	!	!LO:TX:t=P:problem:mixed beam	!	!	!	!	!	!	!LO:DY:a	!	!	!LO:DY:a	!	!	!	!	!	!LO:DY:a	!	!	!	!	!	!	!	!	!	!	!	!	!	!
8A|\L	.	16a|\LL	f	16a\LL	f	16aa|\LL	.	.	8A\	Spi-	f	8A\	Spi-	f	8a\	Spi-	f	8a\	Spi-	f	4AA/	.	4a/	.	4a/	.	8a|\L	f	8aa\L	f	8a/L	f	8aa'\L	f
.	.	16a|\	.	16aa\	.	16aa|\	.	.	.	.	.	.	.	.	.	.	.	.	.	.	.	.	.	.	.	.	.	.	.	.	.	.	.	.
8G#X|\	.	16g#X|\	.	16gg#X\	.	16gg#X|\	.	.	8G#X\	-ri-	.	8G#X/	-ri-	.	8g#X\	-ri-	.	8g#X\	-ri-	.	.	.	.	.	.	.	8g#|\	.	8gg#\	.	8g#X/	.	8gg#X'\	.
.	.	16g#|\	.	16gg#\	.	16gg#|\	.	.	.	.	.	.	.	.	.	.	.	.	.	.	.	.	.	.	.	.	.	.	.	.	.	.	.	.
8A\|J	.	16a|\	.	16aa\	.	16aa|\	.	.	8A\	-tus	.	8A\	-tus	.	8a\	-tus	.	8a\	-tus	.	8r	.	8r	.	8r	.	8a|\J	.	8aa\J	.	8a/J	.	8aa'\J	.
.	.	16a|\JJ	.	16aa\JJ	.	16aa|\JJ	.	.	.	.	.	.	.	.	.	.	.	.	.	.	.	.	.	.	.	.	.	.	.	.	.	.	.	.
!	!	!	!	!	!	!	!	!	!LO:SIC:v:s=4c#	!	!	!	!	!	!	!	!	!	!	!	!	!	!	!	! 	!	!	!	!	!	!	!	!	!
4c#|\	.	16cc#|\LL	.	16ccc#\LL	.	16ccc#|\LL	.	.	4d\	San-	.	4c#\	San-	.	4cc#\	San-	.	4cc#\	San-	.	4AA/	.	8a/L	.	8a|/L	.	4cc#\	.	4ccc#\	.	4cc#\	.	4ccc'#\	.
.	.	16cc#|\	.	16ccc#\	.	16ccc#|\	.	.	.	.	.	.	.	.	.	.	.	.	.	.	.	.	.	.	.	.	.	.	.	.	.	.	.	.
.	.	16cc#|\	.	16ccc#\	.	16ccc#|\	.	.	.	.	.	.	.	.	.	.	.	.	.	.	.	.	16a/L	.	16a|/L	.	.	.	.	.	.	.	.	.
.	.	16cc#|\	.	16ccc#\	.	16ccc#|\	.	.	.	.	.	.	.	.	.	.	.	.	.	.	.	.	16a/J	.	16a|/J	.	.	.	.	.	.	.	.	.
8A|\	.	16a|\	.	16aa\	.	16aa|\	.	.	8B\	-cte	.	8B\	-cte	.	8b\	-cte	.	8b\	-cte	.	8AA/	.	8a/J	.	8a|/J	.	8a\	.	8aa\	.	8a\	.	8aa'\	.
.	.	16a\|JJ	.	16aa\JJ	.	16aa|\JJ	.	.	.	.	.	.	.	.	.	.	.	.	.	.	.	.	.	.	.	.	.	.	.	.	.	.	.	.
!	!	!	!	!	!	!LO:LB:g=original	!	!	!	!	!	!	!	!	!	!	!	!	!	!	!	!	!	!	!	!	!	!	!	!	!	!	!	!
!	!	!	!	!	!	!	!	!	!	!	!	!	!	!	!	!	!	!LO:LB:g=original	!	!	!	!	!	!	!	!	!	!	!	!	!	!	!	!
!	!	!	!	!	!	!	!	!	!	!	!	!	!	!	!	!	!	!	!	!	!	!	!	!	!	!	!	!	!	!	!	!	!LO:LB:g=original	!
=24	=24	=24	=24	=24	=24	=24	=24	=24	=24	=24	=24	=24	=24	=24	=24	=24	=24	=24	=24	=24	=24	=24	=24	=24	=24	=24	=24	=24	=24	=24	=24	=24	=24	=24
!	!	!	!	!	!	!	!	!	!	!	!	!	!	!	!	!	!	!	!	!	!LO:TX:a:t=3	!	!	!	!	!	! 	!	!	!	!	!	!	!
8F#|\L	.	16f#|\LL	.	16ff#|\LL	.	16ff#|\LL	.	.	8F#\L	San-	.	8f#\L	San-	.	8f#\L	San-	.	8ff#\L	San-	.	2.r	.	4f#/	.	4f#/	.	8f#|/L	.	8ff#\L	.	8f#/L	.	8ff#'\L	.
.	.	16f#|\	.	16ff#\|	.	16ff#|\	.	.	.	.	.	.	.	.	.	.	.	.	.	.	.	.	.	.	.	.	.	.	.	.	.	.	.	.
8E#X|\	.	16e#X|\	.	16ee#X|\	.	16ee#X|\	.	.	8E#X\J	.	.	8e#X\J	.	.	8e#X\J	.	.	8ee#X\J	.	.	.	.	.	.	.	.	8e#X|/	.	8ee#X\	.	8e#X/	.	8ee#X'\	.
.	.	16e#|\	.	16ee#\|	.	16ee#|\	.	.	.	.	.	.	.	.	.	.	.	.	.	.	.	.	.	.	.	.	.	.	.	.	.	.	.	.
8F#|\J	.	16f#|\	.	16ff#\|	.	16ff#|\	.	.	8F#\	-cte	.	8f#\	-cte	.	8f#\	-cte	.	8ff#\	-cte	.	.	.	8r	.	8r	.	8f#|/J	.	8ff#\J	.	8f#/J	.	8ff#'\J	.
.	.	16f#\|JJ	.	16ff#\JJ|	.	16ff#|\JJ	.	.	.	.	.	.	.	.	.	.	.	.	.	.	.	.	.	.	.	.	.	.	.	.	.	.	.	.
4A|\	.	16a|\LL	.	16aa\LL|	.	16aa|\LL	.	.	4A\	De-	.	4a\	De-	.	4a\	De-	.	4aa\	De-	.	.	.	4a/	.	4a/	.	4a\	.	4aa\	.	4a/	.	4aa'\	.
.	.	16a|\	.	16aa\|	.	16aa|\	.	.	.	.	.	.	.	.	.	.	.	.	.	.	.	.	.	.	.	.	.	.	.	.	.	.	.	.
.	.	16a|\	.	16aa\|	.	16aa|\	.	.	.	.	.	.	.	.	.	.	.	.	.	.	.	.	.	.	.	.	.	.	.	.	.	.	.	.
.	.	16a|\	.	16aa\|	.	16aa|\	.	.	.	.	.	.	.	.	.	.	.	.	.	.	.	.	.	.	.	.	.	.	.	.	.	.	.	.
8F#|\	.	16f#|\	.	16ff#\|	.	16ff#|\	.	.	8F#\	-us	.	8f#\	-us	.	8f#\	-us	.	8ff#\	-us	.	.	.	8f#/	.	8f#/	.	8f#\	.	8ff#\	.	8f#/	.	8ff#'\	.
.	.	16f#\|JJ	.	16ff#\JJ|	.	16ff#|\JJ	.	.	.	.	.	.	.	.	.	.	.	.	.	.	.	.	.	.	.	.	.	.	.	.	.	.	.	.
!	!	!	!	!LO:LB:g=original	!	!	!	!	!	!	!	!	!	!	!	!	!	!	!	!	!	!	!	!	!	!	!	!	!	!	!	!	!	!
!	!	!	!	!	!	!	!	!	!	!	!	!LO:LB:g=original	!	!	!	!	!	!	!	!	!	!	!	!	!	!	!	!	!	!	!	!	!	!
!	!	!	!	!	!	!	!	!	!	!	!	!	!	!	!LO:LB:g=original	!	!	!	!	!	!	!	!	!	!	!	!	!	!	!	!	!	!	!
=25	=25	=25	=25	=25	=25	=25	=25	=25	=25	=25	=25	=25	=25	=25	=25	=25	=25	=25	=25	=25	=25	=25	=25	=25	=25	=25	=25	=25	=25	=25	=25	=25	=25	=25
!	!	!	!	!LO:TX:t=P:problem:mixed beam	!	!	!	!	!	!	!	!	!	!	!	!	!	!	!	!	!	!	!	!	!	!	!	!	!	!	!	!	!	!
8AA\L	.	8e\L	.	(16cc#\LL	.	(16ee\LL	.	.	16A\	mi-	.	16en\	mi-	.	16cc#\	mi-	.	16ee\	mi-	.	2.r	.	8a/	.	8ee\	.	8cc#\L	.	8ee\L	.	8cc#\L	.	8ee\L	.
.	.	.	.	16a\J)	.	16cc#\)	.	.	16AA/	-se-	.	16e\	-se-	.	16a\	-se-	.	16cc#\	-se-	.	.	.	.	.	.	.	.	.	.	.	.	.	.	.
8A\	.	8e\	.	8g#X\	.	(16dd\	.	.	8BB/	-re-	.	8e\	-re-	.	16b\LL	-re-	.	16dd\LL	-re-	.	.	.	8r	.	8r	.	8b\	.	8dd\	.	8b\	.	8dd\	.
.	.	.	.	.	.	16b\)	.	.	.	.	.	.	.	.	16g#X\JJ	.	.	16b\JJ	.	.	.	.	.	.	.	.	.	.	.	.	.	.	.	.
8A\J	.	8e\J	.	(16a/L	.	(16cc#\	.	.	8C#/	-re	.	8e\	-re	.	8a\	-re	.	8cc#\	-re	.	.	.	8r	.	8r	.	8a\J	.	8cc#\J	.	8a\J	.	8cc#\J	.
.	.	.	.	16c#\JJ)	.	16a\JJ)	.	.	.	.	.	.	.	.	.	.	.	.	.	.	.	.	.	.	.	.	.	.	.	.	.	.	.	.
!LO:TX:t=P:problem:mixed beam	!	!	!	!	!	!	!	!	!	!	!	!	!	!	!	!	!	!	!	!	!	!	!	!	!	!	!	!	!	!	!	!	!	!
!	!	!	!	!	!	!	!	!	!LO:LB:g=original	!	!	!	!	!	!	!	!	!	!	!	!	!	!	!	!	!	!	!	!	!	!	!	!	!
8D\L	6	8f#\L	.	(16e/LL	.	(16cc#\LL	.	.	8D\	no-	.	(8f#\	no-	.	(16e\LL	no-	.	(16cc#\LL	no-	.	.	.	8dd\L	.	(8ff#\L	.	16e/LL	.	16cc#\LL	.	16ee\LL	.	16cc#\LL	.
.	.	.	.	16d/J)	.	16b\J)	.	.	.	.	.	.	.	.	16d\J)	.	.	16b\J)	.	.	.	.	.	.	.	.	16d/J	.	16b\J	.	16dd\J	.	16b\J	.
8E\	6 4	8e\	.	8c#/	.	8a\	.	.	4E\	.	.	4e\)	.	.	8c#\	.	.	8a\	.	.	.	.	8ee\	.	8ee\)	.	8c#/	.	8a\	.	8cc#\	.	8a\	.
!	!	!	!	!	!	!	!	!	!	!	!	!	!	!	!	!	!	!	!	!	!	!	!	!	!	!	!	!	!	!	!	!	!LO:SIC:v:s=8g#	!
8EE/J	5 8	8e\J	.	8B/J	.	8g#X\J	.	.	.	.	.	.	.	.	8B\J	.	.	8g#X\J	.	.	.	.	8ee\J	.	8ee|\J	.	8B/J	.	8g#\J	.	8b\J	.	8gn\J	.
=26	=26	=26	=26	=26	=26	=26	=26	=26	=26	=26	=26	=26	=26	=26	=26	=26	=26	=26	=26	=26	=26	=26	=26	=26	=26	=26	=26	=26	=26	=26	=26	=26	=26	=26
!	!	!	!	!LO:TX:a:i:t=dolce	!	!LO:N:vis=4	!	!	!	!	!	!	!	!	!	!	!	!	!	!	!	!	!	!	!	!	!	!	!	!	!	!	!	!
4AA/	.	4e\	.	8c#/L	.	8a/	.	.	4AA/	-bis	.	4e\	-bis	.	4c#\	-bis	.	4a\	-bis	.	2.r	.	4a/	.	4ee\	.	4c#/	.	4a\	.	4cc#\	.	4a\	.
.	.	.	.	(16c#/L	.	8r	.	.	.	.	.	.	.	.	.	.	.	.	.	.	.	.	.	.	.	.	.	.	.	.	.	.	.	.
.	.	.	.	16e/)	.	.	.	.	.	.	.	.	.	.	.	.	.	.	.	.	.	.	.	.	.	.	.	.	.	.	.	.	.	.
!	!	!	!	!	!	!LO:TX:b:i:t=dolce	!	!	!	!	!	!	!	!	!	!	!	!	!	!	!	!	!	!	!	!	!	!	!	!	!	!	!	!
8r	.	8r	.	(16c#/	.	(16aa\LL	.	.	8r	.	.	8r	.	.	8r	.	.	8r	.	.	.	.	8r	.	8r	.	8r	.	8r	.	8r	.	8r	.
.	.	.	.	16e/JJ)	.	16ccc#\JJ)	.	.	.	.	.	.	.	.	.	.	.	.	.	.	.	.	.	.	.	.	.	.	.	.	.	.	.	.
!	!	!	!	!	!	!LO:TX:a:t=SIC&colon;t=niejednoznaczny zapis wysokości przednutki	!	!	!	!	!	!	!	!	!	!	!	!	!	!	!	!	!	!	!	!	!	!	!	!	!	!	!	!
.	.	.	.	.	.	16qqccc#/	.	.	.	.	.	.	.	.	.	.	.	.	.	.	.	.	.	.	.	.	.	.	.	.	.	.	.	.
!	!	!	!	!	!	!	!	!	!	!	!	!	!	!	!	!	!	!	!	!	!	!	!	!	!	!	!	!	!LO:LB:g=original	!	!	!	!	!
4r	.	4r	.	(16d/LL	.	8bb\L	.	.	4r	.	.	4r	.	.	4r	.	.	4r	.	.	.	.	4r	.	4r	.	4r	.	4r	.	4r	.	4r	.
.	.	.	.	16e/)	.	.	.	.	.	.	.	.	.	.	.	.	.	.	.	.	.	.	.	.	.	.	.	.	.	.	.	.	.	.
.	.	.	.	(16d/	.	(16bb\L	.	.	.	.	.	.	.	.	.	.	.	.	.	.	.	.	.	.	.	.	.	.	.	.	.	.	.	.
.	.	.	.	16e/)	.	16aa\	.	.	.	.	.	.	.	.	.	.	.	.	.	.	.	.	.	.	.	.	.	.	.	.	.	.	.	.
8r	.	8r	.	(16d/	.	16gg#X\	.	.	8r	.	.	8r	.	.	8r	.	.	8r	.	.	.	.	8r	.	8r	.	8r	.	8r	.	8r	.	8r	.
.	.	.	.	16e/JJ)	.	16bb\JJ)	.	.	.	.	.	.	.	.	.	.	.	.	.	.	.	.	.	.	.	.	.	.	.	.	.	.	.	.
!	!	!	!	!	!	!	!	!	!	!	!	!	!	!	!	!	!	!	!	!	!	!	!	!	!	!	!	!	!	!	!LO:LB:g=original	!	!	!
=27	=27	=27	=27	=27	=27	=27	=27	=27	=27	=27	=27	=27	=27	=27	=27	=27	=27	=27	=27	=27	=27	=27	=27	=27	=27	=27	=27	=27	=27	=27	=27	=27	=27	=27
!	!	!	!	!	!	!	!	!	!	!	!	!	!	!	!	!	!	!	!	!	!	!	!	!	!	!	!LO:TX:a:i:t=dolce	!	!LO:TX:t=P:problem:mixed beam	!	!	!	!LO:TX:t=P:problem:mixed beam	!
4A\	.	4.a\	.	(16c#/LL	.	(8aa\L	.	.	4A\	San-	.	4e\	San-	.	4a\	San-	.	4cc#\	San-	.	2.AA/	p	4.a/	p	4.ee\	p	(16E/LL	.	(8a\L	.	(16a/LL	.	(8a\L	.
.	.	.	.	16e/)	.	.	.	.	.	.	.	.	.	.	.	.	.	.	.	.	.	.	.	.	.	.	16c#/)	.	.	.	16cc#/)	.	.	.
.	.	.	.	(16c#/	.	8ccc#\)	.	.	.	.	.	.	.	.	.	.	.	.	.	.	.	.	.	.	.	.	(16A/	.	8cc#\)	.	(16a/	.	8cc#\)	.
.	.	.	.	16e/)	.	.	.	.	.	.	.	.	.	.	.	.	.	.	.	.	.	.	.	.	.	.	16c#/)	.	.	.	16cc#/)	.	.	.
!	!	!	!	!	!	!LO:TX:a:t=0	!	!	!	!	!	!	!	!	!	!	!	!	!	!	!	!	!	!	!	!	!	!	! 	!	!	!	!	!
8r	.	.	.	(16c#/	.	8ee\J	.	.	8A\	-cta	.	8e\	-cta	.	8a\	-cta	.	8cc#\	-cta	.	.	.	.	.	.	.	(16A/	.	8e|/J	.	(16a/	.	8e'/J	.
.	.	.	.	16e/JJ)	.	.	.	.	.	.	.	.	.	.	.	.	.	.	.	.	.	.	.	.	.	.	16c#/JJ)	.	.	.	16cc#/JJ)	.	.	.
!	!	!	!	!	!	!	!	!	!	!	!	!	!	!	!	!	!	!	!	!	!	!	!	!	!	!	!	!	!LO:TX:t=P:problem:mixed beam	!	!	!	!LO:TX:t=P:problem:mixed beam	!
4E\	.	4.g#X\	.	(16B/LL	.	(8bb\L	.	.	8.G#X\	Tri-	.	8.e\	Tri-	.	8.b\	Tri-	.	8.dd\	Tri-	.	.	.	4.ee\	.	4.ee\	.	(16E/LL	.	(8b\L	.	(16e/LL	.	(8b\L	.
.	.	.	.	16e/)	.	.	.	.	.	.	.	.	.	.	.	.	.	.	.	.	.	.	.	.	.	.	16d/)	.	.	.	16dd/)	.	.	.
.	.	.	.	(16B/	.	8ddd\)	.	.	.	.	.	.	.	.	.	.	.	.	.	.	.	.	.	.	.	.	(16B/	.	8dd\)	.	(16b/	.	8dd\)	.
.	.	.	.	16e/)	.	.	.	.	16G#\	-ni-	.	16e\	-ni-	.	16b\	-ni-	.	16dd\	-ni-	.	.	.	.	.	.	.	16d/)	.	.	.	16dd/)	.	.	.
!	!	!	!	!	!	!LO:TX:a:t=0	!	!	!	!	!	!	!	!	!	!	!	!	!	!	!	!	!	!	!	!	!	!	! 	!	!	!	!	!
8r	.	.	.	(16B/	.	8ee\J	.	.	8G#\	-tas	.	8e\	-tas	.	8b\	-tas	.	8dd\	-tas	.	.	.	.	.	.	.	(16B/	.	8e/J	.	(16b/	.	8e'/J	.
.	.	.	.	16e/JJ)	.	.	.	.	.	.	.	.	.	.	.	.	.	.	.	.	.	.	.	.	.	.	16d/JJ)	.	.	.	16dd/JJ)	.	.	.
!	!	!	!	!	!	!	!	!	!	!	!	!	!	!	!	!	!	!	!	!	!	!	!	!	!	!	!LO:LB:g=original	!	!	!	!	!	!	!
=28	=28	=28	=28	=28	=28	=28	=28	=28	=28	=28	=28	=28	=28	=28	=28	=28	=28	=28	=28	=28	=28	=28	=28	=28	=28	=28	=28	=28	=28	=28	=28	=28	=28	=28
!	!	!	!	!	!	!	!	!	!	!	!	!	!	!	!	!	!	!	!	!	!	!	!	!	!	!	!	!	!LO:TX:t=P:problem:mixed beam	!	!	!	!LO:TX:t=P:problem:mixed beam	!
4A\	.	4.a\	.	(16c#/LL	.	(8aa\L	.	.	4A\	u-	.	4e\	u-	.	4a\	u-	.	4cc#\	u-	.	2.AA/	<	4.a/	.	4.ee\	.	(16E/LL	.	(8a\L	.	(16e/LL	.	(8a\L	.
.	.	.	.	16e/)	.	.	.	.	.	.	.	.	.	.	.	.	.	.	.	.	.	.	.	.	.	.	16c#/)	.	.	.	16cc#/)	.	.	.
.	.	.	.	(16c#/	.	8ccc#\)	.	.	.	.	.	.	.	.	.	.	.	.	.	.	.	.	.	.	.	.	(16A/	.	8cc#\)	.	(16a/	.	8cc#\)	.
.	.	.	.	16e/)	.	.	.	.	.	.	.	.	.	.	.	.	.	.	.	.	.	.	.	.	.	.	16c#/)	.	.	.	16cc#/)	.	.	.
!	!	!	!	!	!	!LO:TX:a:t=0	!	!	!LO:SIC:v:l:s=-nus	!	!	!	!	!	!	!	!	!	!	!	!	!	!	!	!	!	!	!	! 	!	!	!	!	!
8r	.	.	.	(16c#/	.	8ee\J	.	.	8A\	-nis	.	8e\	-nus	.	8a\	-nus	.	8cc#\	-nus	.	.	.	.	.	.	.	(16A/	.	8e|/J	.	(16a/	.	8e'/J	.
.	.	.	.	16e/JJ)	.	.	.	.	.	.	.	.	.	.	.	.	.	.	.	.	.	.	.	.	.	.	16c#/JJ)	.	.	.	16cc#/JJ)	.	.	.
!LO:TX:t=P:problem:mixed beam	!	!	!	!	!	!	!	!	!	!	!	!	!	!	!	!	!	!	!	!	!	!	!	!	!	!	!	!	!LO:TX:t=P:problem:mixed beam	!	!	!	!LO:TX:t=P:problem:mixed beam	!
8E/L	.	8g#X\L	.	(16B/LL	.	(16bb\LL	.	.	4E\	De-	.	4e\	De-	.	4g#X\	De-	.	4b\	De-	.	.	.	4ee\	.	4ee\	.	(16E/LL	.	(8b\L	.	(16e/LL	.	(8b\L	.
.	.	.	.	16e/)	.	16aa\	.	.	.	.	.	.	.	.	.	.	.	.	.	.	.	.	.	.	.	.	16B/)	.	.	.	16b/)	.	.	.
8EE/	.	8e\	.	(16B/	.	16gg#X\	.	.	.	.	.	.	.	.	.	.	.	.	.	.	.	.	.	.	.	.	(16G#/	.	8ee\)	.	(16g#X/	.	8ee\)	.
.	.	.	.	16e/)	.	16ff#\J)	.	.	.	.	.	.	.	.	.	.	.	.	.	.	.	.	.	.	.	.	16B/)	.	.	.	16b/)	.	.	.
8E/J	.	8g#\J	.	(16B/	.	8ee\J	.	.	8E\	-us	.	8e\	-us	.	8g#\	-us	.	8b\	-us	.	.	.	8r	.	8r	.	(16G#/	.	8E|/J	.	(16g#/	.	8e'/J	.
.	.	.	.	16e/JJ)	.	.	.	.	.	.	.	.	.	.	.	.	.	.	.	.	.	.	.	.	.	.	16B/JJ)	.	.	.	16b/JJ)	.	.	.
=29	=29	=29	=29	=29	=29	=29	=29	=29	=29	=29	=29	=29	=29	=29	=29	=29	=29	=29	=29	=29	=29	=29	=29	=29	=29	=29	=29	=29	=29	=29	=29	=29	=29	=29
!	!	!	!	!	!	!	!	!	!	!	!	!	!	!	!	!	!	!	!	!	!	!	!	!	!	!	!	!	!LO:TX:t=P:problem:mixed beam	!	!	!	!LO:TX:t=P:problem:mixed beam	!
4A\	.	4.a\	.	(16c#/LL	.	(8aa\L	.	.	4A\	mi-	.	4e\	mi-	.	4a\	mi-	.	4cc#\	mi-	.	2.AA/	[[	4.a/	.	4.ee\	.	(16E/LL	.	(8a\L	.	(16a/LL	.	(8a\L	.
.	.	.	.	16e/)	.	.	.	.	.	.	.	.	.	.	.	.	.	.	.	.	.	.	.	.	.	.	16c#/)	.	.	.	16cc#/)	.	.	.
.	.	.	.	(16c#/	.	8ccc#\)	.	.	.	.	.	.	.	.	.	.	.	.	.	.	.	.	.	.	.	.	(16A/	.	8cc#\)	.	(16a/	.	8cc#\)	.
.	.	.	.	16e/)	.	.	.	.	.	.	.	.	.	.	.	.	.	.	.	.	.	.	.	.	.	.	16c#/)	.	.	.	16cc#/)	.	.	.
8r	.	.	.	(16c#/	.	8ee\J	.	.	8A\	-se-	.	8e\	-se-	.	8a\	-se-	.	8cc#\	-se-	.	.	.	.	.	.	.	(16A/	.	8e/|J	.	(16a/	.	8e'/J	.
.	.	.	.	16e/JJ)	.	.	.	.	.	.	.	.	.	.	.	.	.	.	.	.	.	.	.	.	.	.	16c#/JJ)	.	.	.	16cc#/JJ)	.	.	.
!	!	!	!	!	!	!	!	!	!	!	!	!	!	!	!	!	!	!	!	!	!	!	!	!	!	!	!	!	!LO:TX:t=P:problem:mixed beam	!	!	!	!LO:TX:t=P:problem:mixed beam	!
!	!	!	!	!	!	!	!	!	!	!	!	!	!	!	!	!	!	!LO:LB:g=original	!	!	!	!	!	!	!	!	!	!	!	!	!	!	!	!
4E\	.	4.g#X\	.	(16B/LL	.	(8bb\L	.	.	4G#X\	-re-	.	4e\	-re-	.	4b\	-re-	.	4dd\	-re-	.	.	.	4.ee\	.	4.ee\	.	(16E/LL	.	(8b\L	.	(16e/LL	.	(8b\L	.
.	.	.	.	16e/)	.	.	.	.	.	.	.	.	.	.	.	.	.	.	.	.	.	.	.	.	.	.	16d/)	.	.	.	16dd/)	.	.	.
.	.	.	.	(16B/	.	8ddd\)	.	.	.	.	.	.	.	.	.	.	.	.	.	.	.	.	.	.	.	.	(16B/	.	8dd\)	.	(16b/	.	8dd\)	.
.	.	.	.	16e/)	.	.	.	.	.	.	.	.	.	.	.	.	.	.	.	.	.	.	.	.	.	.	16d/)	.	.	.	16dd/)	.	.	.
8r	.	.	.	(16B/	.	8ee\J	.	.	8G#\	-re	.	8e\	-re	.	8b\	-re	.	8dd\	-re	.	.	.	.	.	.	.	(16B/	.	8e/|J	.	(16b/	.	8e'/J	.
.	.	.	.	16e/JJ)	.	.	.	.	.	.	.	.	.	.	.	.	.	.	.	.	.	.	.	.	.	.	16d/JJ)	.	.	.	16dd/JJ)	.	.	.
!	!	!LO:LB:g=original	!	!	!	!	!	!	!	!	!	!	!	!	!	!	!	!	!	!	!	!	!	!	!	!	!	!	!	!	!	!	!	!
!	!	!	!	!LO:LB:g=original	!	!	!	!	!	!	!	!	!	!	!	!	!	!	!	!	!	!	!	!	!	!	!	!	!	!	!	!	!	!
!	!	!	!	!	!	!LO:LB:g=original	!	!	!	!	!	!	!	!	!	!	!	!	!	!	!	!	!	!	!	!	!	!	!	!	!	!	!	!
=30	=30	=30	=30	=30	=30	=30	=30	=30	=30	=30	=30	=30	=30	=30	=30	=30	=30	=30	=30	=30	=30	=30	=30	=30	=30	=30	=30	=30	=30	=30	=30	=30	=30	=30
4A\	.	4a\	.	(16c#/LL	.	16aa\LL	.	.	4A\	no-	.	4.e\	no-	.	(4a\	no-	.	(4cc#\	no-	.	4AA/	f	4a/	.	4ee\	.	(16E/LL	.	(16a\LL	.	16e/LL	.	(16a\LL	.
.	.	.	.	16e/)	.	16ccc#\	.	.	.	.	.	.	.	.	.	.	.	.	.	.	.	.	.	.	.	.	16c#/)	.	16cc#\JJ)	.	16cc#/	.	16cc#\JJ)	.
!	!	!	!	!	!	!LO:TX:t=P:problem:triola oznaczona liczbą i łukiem:global	!	!	!	!	!	!	!	!	!	!	!	!	!	!	!	!	!	!	!	!	!	!	!LO:TX:t=P:problem:triola oznaczona liczbą i łukiem:global	!	!	!	!LO:TX:t=P:problem:triola oznaczona liczbą i łukiem:global	!
.	.	.	.	(16c#/	.	24eee\	.	.	.	.	.	.	.	.	.	.	.	.	.	.	.	.	.	.	.	.	(16A/	.	24ee\LL	.	16a/	.	24ee\LL	.
.	.	.	.	.	.	24ccc#\	.	.	.	.	.	.	.	.	.	.	.	.	.	.	.	.	.	.	.	.	.	.	24cc#\	.	.	.	24cc#\	.
.	.	.	.	16e/)	.	.	.	.	.	.	.	.	.	.	.	.	.	.	.	.	.	.	.	.	.	.	16c#/)	.	.	.	16cc#/	.	.	.
.	.	.	.	.	.	24aa\JJ	.	.	.	.	.	.	.	.	.	.	.	.	.	.	.	.	.	.	.	.	.	.	24a\JJ	.	.	.	24a\JJ	.
8E\	.	8g#X\	.	(16d/	.	8bbT\	.	.	8E\	.	.	.	.	.	8b\)	.	.	8dd\)	.	.	8r	.	8ee\	.	8ee\	.	(16E/	.	8bT\	.	16e/	.	8bM\	.
.	.	.	.	16e/JJ)	.	.	.	.	.	.	.	.	.	.	.	.	.	.	.	.	.	.	.	.	.	.	16d/JJ)	.	.	.	16dd/JJ	.	.	.
4AA/	.	4a\	.	(16c#/LL	.	4aa\	.	.	4A\	-bis	.	4e\	-bis	.	4a\	-bis	.	4cc#\	-bis	.	8AA/	.	4a/	.	4ee\	.	4c#/	.	4a\	.	4cc#\	.	4a\	.
.	.	.	.	16A/)	.	.	.	.	.	.	.	.	.	.	.	.	.	.	.	.	.	.	.	.	.	.	.	.	.	.	.	.	.	.
.	.	.	.	16c#/	.	.	.	.	.	.	.	.	.	.	.	.	.	.	.	.	8r	.	.	.	.	.	.	.	.	.	.	.	.	.
.	.	.	.	16e/	.	.	.	.	.	.	.	.	.	.	.	.	.	.	.	.	.	.	.	.	.	.	.	.	.	.	.	.	.	.
8r	.	8r	.	16a/	.	8r	.	.	8r	.	.	8r	.	.	8r	.	.	8r	.	.	8r	.	8r	.	8r	.	8r	.	8r	.	8r	.	8r	.
.	.	.	.	16b/JJ	.	.	.	.	.	.	.	.	.	.	.	.	.	.	.	.	.	.	.	.	.	.	.	.	.	.	.	.	.	.
!LO:LB:g=original	!	!	!	!	!	!	!	!	!	!	!	!	!	!	!	!	!	!	!	!	!	!	!	!	!	!	!	!	!	!	!	!	!	!
!	!	!	!	!	!	!	!	!	!	!	!	!LO:LB:g=original	!	!	!	!	!	!	!	!	!	!	!	!	!	!	!	!	!	!	!	!	!	!
!	!	!	!	!	!	!	!	!	!	!	!	!	!	!	!	!	!	!	!	!	!	!	!	!	!	!	!	!	!	!	!	!	!LO:LB:g=original	!
=31	=31	=31	=31	=31	=31	=31	=31	=31	=31	=31	=31	=31	=31	=31	=31	=31	=31	=31	=31	=31	=31	=31	=31	=31	=31	=31	=31	=31	=31	=31	=31	=31	=31	=31
!	!	!	!	!	!	!	!	!	!LO:TX:a:t=7	!	!	!LO:TX:a:t=7	!	!	!LO:TX:a:i:t=dolce	!	!	!LO:TX:a:i:t=dolce	!	!	!LO:TX:a:t=15	!	!LO:TX:a:t=15	!	!LO:TX:a:t=15	!	!LO:TX:a:t=15	!	!LO:TX:a:t=15	!	!LO:TX:a:t=15	!	!LO:TX:a:t=15	!
8AA\L	.	4e\	p	(4.cc#\	p	(4.ee\	p	.	2.r	.	.	2.r	.	.	4.cc#\	San-	.	4.ee\	San-	.	2.r	.	2.r	.	2.r	.	2.r	.	2.r	.	2.r	.	2.r	.
8C#\	.	.	.	.	.	.	.	.	.	.	.	.	.	.	.	.	.	.	.	.	.	.	.	.	.	.	.	.	.	.	.	.	.	.
8E\J	.	8e\	.	.	.	.	.	.	.	.	.	.	.	.	.	.	.	.	.	.	.	.	.	.	.	.	.	.	.	.	.	.	.	.
4A\	.	4.e\	.	(8a/L)	.	(8cc#\L)	.	.	.	.	.	.	.	.	8a\L	-cta	.	(8cc#\L	-cta	.	.	.	.	.	.	.	.	.	.	.	.	.	.	.
.	.	.	.	8g#X/	.	8b\	.	.	.	.	.	.	.	.	8g#X\J	.	.	8b\J)	.	.	.	.	.	.	.	.	.	.	.	.	.	.	.	.
8r	.	.	.	8a/J)	.	8cc#\J)	.	.	.	.	.	.	.	.	8a\	Ma-	.	8cc#\	Ma-	.	.	.	.	.	.	.	.	.	.	.	.	.	.	.
!	!	!	!	!	!	!	!	!	!	!	!	!	!	!	!	!	!	!LO:LB:g=original	!	!	!	!	!	!	!	!	!	!	!	!	!	!	!	!
=32	=32	=32	=32	=32	=32	=32	=32	=32	=32	=32	=32	=32	=32	=32	=32	=32	=32	=32	=32	=32	=32	=32	=32	=32	=32	=32	=32	=32	=32	=32	=32	=32	=32	=32
8EE/L	.	4e\	.	(4.b\	.	(4.dd\	.	.	2.r	.	.	2.r	.	.	4.b\	-ri-	.	4.dd\	-ri-	.	2.r	.	2.r	.	2.r	.	2.r	.	2.r	.	2.r	.	2.r	.
!LO:SIC:v:s=8GG#	!	!	!	!	!	!	!	!	!	!	!	!	!	!	!	!	!	!	!	!	!	!	!	!	!	!	!	!	!	!	!	!	!	!
8GG/	.	.	.	.	.	.	.	.	.	.	.	.	.	.	.	.	.	.	.	.	.	.	.	.	.	.	.	.	.	.	.	.	.	.
8BB/J	.	8e\	.	.	.	.	.	.	.	.	.	.	.	.	.	.	.	.	.	.	.	.	.	.	.	.	.	.	.	.	.	.	.	.
!	!	!	!	!	!	!	!	!	!	!	!	!	!	!	!LO:SIC:v:s=8g#	!	!	!	!	!	!	!	!	!	!	!	!	!	!	!	!	!	!	!
4E\	.	4.e\	.	(8g#X/L)	.	8b\L)	.	.	.	.	.	.	.	.	8g\	-a	.	8b\	-a	.	.	.	.	.	.	.	.	.	.	.	.	.	.	.
.	.	.	.	8f#/	.	(8a\	.	.	.	.	.	.	.	.	8r	.	.	8r	.	.	.	.	.	.	.	.	.	.	.	.	.	.	.	.
8r	.	.	.	8g#/J)	.	8b\J)	.	.	.	.	.	.	.	.	8r	.	.	8r	.	.	.	.	.	.	.	.	.	.	.	.	.	.	.	.
=33	=33	=33	=33	=33	=33	=33	=33	=33	=33	=33	=33	=33	=33	=33	=33	=33	=33	=33	=33	=33	=33	=33	=33	=33	=33	=33	=33	=33	=33	=33	=33	=33	=33	=33
8AA\L	.	4e\	.	4a/	.	4cc#\	.	.	2.r	.	.	2.r	.	.	4a\	San-	.	4cc#\	San-	.	2.r	.	2.r	.	2.r	.	2.r	.	2.r	.	2.r	.	2.r	.
8C#\	.	.	.	.	.	.	.	.	.	.	.	.	.	.	.	.	.	.	.	.	.	.	.	.	.	.	.	.	.	.	.	.	.	.
8E\J	.	8r	.	8f#/	.	8a\	.	.	.	.	.	.	.	.	8f#\	-cta	.	8a\	-cta	.	.	.	.	.	.	.	.	.	.	.	.	.	.	.
4BB\ 4B	.	4f#\	.	4d/	.	(8f#/L	.	.	.	.	.	.	.	.	4d\	De-	.	8f#\L	De-	.	.	.	.	.	.	.	.	.	.	.	.	.	.	.
.	.	.	.	.	.	8b/	.	.	.	.	.	.	.	.	.	.	.	8b\J	.	.	.	.	.	.	.	.	.	.	.	.	.	.	.	.
8r	.	8f#\	.	8b\	.	8dd/J)	.	.	.	.	.	.	.	.	8b\	-i	.	8dd\	-i	.	.	.	.	.	.	.	.	.	.	.	.	.	.	.
=34	=34	=34	=34	=34	=34	=34	=34	=34	=34	=34	=34	=34	=34	=34	=34	=34	=34	=34	=34	=34	=34	=34	=34	=34	=34	=34	=34	=34	=34	=34	=34	=34	=34	=34
8AA/L	.	4e\	.	(4.a/	.	(4.cc#t\	.	.	2.r	.	.	2.r	.	.	4a\	Ge-	.	4cc#\	ge-	.	2.r	.	2.r	.	2.r	.	2.r	.	2.r	.	2.r	.	2.r	.
8C#/	.	.	.	.	.	.	.	.	.	.	.	.	.	.	.	.	.	.	.	.	.	.	.	.	.	.	.	.	.	.	.	.	.	.
!	!	!	!	!	!	!	!	!	!	!	!	!	!	!	!LO:SIC:v:s=8g#	!	!	!	!	!	!	!	!	!	!	!	!	!	!	!	!	!	!	!
8E/J	.	8e\	.	.	.	.	.	.	.	.	.	.	.	.	(16g\LL	-ni-	.	(16b\LL	-ni-	.	.	.	.	.	.	.	.	.	.	.	.	.	.	.
.	.	.	.	.	.	.	.	.	.	.	.	.	.	.	16a\JJ)	.	.	16cc#\JJ)	.	.	.	.	.	.	.	.	.	.	.	.	.	.	.	.
.	.	.	.	32qqg/LLL	.	16qqb/LL	.	.	.	.	.	.	.	.	.	.	.	.	.	.	.	.	.	.	.	.	.	.	.	.	.	.	.	.
!	!	!	!	!LO:SIC:v:s=32qg#	!	!	!	!	!	!	!	!	!	!	!	!	!	!	!	!	!	!	!	!	!	!	!	!	!	!	!	!	!	!
!	!	!	!	!LO:SIC:v:s=8g#	!	!	!	!	!	!	!	!	!	!	!LO:SIC:v:s=16g#	!	!	!	!	!	!	!	!	!	!	!	!	!	!	!	!	!	!	!
.	.	.	.	32qqa/JJJ	.	16qqcc#/JJ	.	.	.	.	.	.	.	.	.	.	.	.	.	.	.	.	.	.	.	.	.	.	.	.	.	.	.	.
4EE/ 4E	.	4e\	.	8g/)	.	8b\)	.	.	.	.	.	.	.	.	8g\	-trix	.	8b\	-trix	.	.	.	.	.	.	.	.	.	.	.	.	.	.	.
.	.	.	.	4r	.	8r	.	.	.	.	.	.	.	.	8r	.	.	8r	.	.	.	.	.	.	.	.	.	.	.	.	.	.	.	.
8r	.	8r	.	.	.	(16cc#\LL	.	.	.	.	.	.	.	.	8r	.	.	8r	.	.	.	.	.	.	.	.	.	.	.	.	.	.	.	.
.	.	.	.	.	.	16dd\JJ)	.	.	.	.	.	.	.	.	.	.	.	.	.	.	.	.	.	.	.	.	.	.	.	.	.	.	.	.
=35	=35	=35	=35	=35	=35	=35	=35	=35	=35	=35	=35	=35	=35	=35	=35	=35	=35	=35	=35	=35	=35	=35	=35	=35	=35	=35	=35	=35	=35	=35	=35	=35	=35	=35
8AA\L	.	4e\	.	(4.cc#\	.	(4.ee\	.	.	2.r	.	.	2.r	.	.	4cc#\	San-	.	4ee\	San-	.	2.r	.	2.r	.	2.r	.	2.r	.	2.r	.	2.r	.	2.r	.
8C#\	.	.	.	.	.	.	.	.	.	.	.	.	.	.	.	.	.	.	.	.	.	.	.	.	.	.	.	.	.	.	.	.	.	.
8E\J	.	8e\	.	.	.	.	.	.	.	.	.	.	.	.	8cc#\	-cta	.	8ee\	-cta	.	.	.	.	.	.	.	.	.	.	.	.	.	.	.
4A\	.	4.e\	.	(8a/L)	.	(8cc#\L)	.	.	.	.	.	.	.	.	8a\L	Vir-	.	8cc#\L	Vir-	.	.	.	.	.	.	.	.	.	.	.	.	.	.	.
!	!	!	!	!	!	!	!	!	!	!	!	!	!	!	!LO:SIC:v:s=8g#	!	!	!	!	!	!	!	!	!	!	!	!	!	!	!	!	!	!	!
.	.	.	.	8g#X/	.	8b\	.	.	.	.	.	.	.	.	8g\J	.	.	8b\J	.	.	.	.	.	.	.	.	.	.	.	.	.	.	.	.
8r	.	.	.	8a/J)	.	8cc#\J)	.	.	.	.	.	.	.	.	8a\	-go	.	8cc#\	-go	.	.	.	.	.	.	.	.	.	.	.	.	.	.	.
!	!	!	!	!	!	!	!	!	!	!	!	!	!	!	!	!	!	!LO:LB:g=original	!	!	!	!	!	!	!	!	!	!	!	!	!	!	!	!
=36	=36	=36	=36	=36	=36	=36	=36	=36	=36	=36	=36	=36	=36	=36	=36	=36	=36	=36	=36	=36	=36	=36	=36	=36	=36	=36	=36	=36	=36	=36	=36	=36	=36	=36
8EE/L	.	4e\	.	(4.b\	.	(4.dd\	.	.	2.r	.	.	2.r	.	.	4b\	Vir-	.	4dd\	Vir-	.	2.r	.	2.r	.	2.r	.	2.r	.	2.r	.	2.r	.	2.r	.
!LO:SIC:v:s=8GG#	!	!	!	!	!	!	!	!	!	!	!	!	!	!	!	!	!	!	!	!	!	!	!	!	!	!	!	!	!	!	!	!	!	!
8GG/	.	.	.	.	.	.	.	.	.	.	.	.	.	.	.	.	.	.	.	.	.	.	.	.	.	.	.	.	.	.	.	.	.	.
8BB/J	.	8e\	.	.	.	.	.	.	.	.	.	.	.	.	8b\	-gi-	.	8dd\	-gi-	.	.	.	.	.	.	.	.	.	.	.	.	.	.	.
4E\	.	4.e\	.	(8g#X/L)	.	8b\L)	.	.	.	.	.	.	.	.	8g#X\	-num	.	8b\	-num	.	.	.	.	.	.	.	.	.	.	.	.	.	.	.
.	.	.	.	8f#/	.	(8a\	.	.	.	.	.	.	.	.	8r	.	.	8r	.	.	.	.	.	.	.	.	.	.	.	.	.	.	.	.
8r	.	.	.	8g#/J)	.	8b\J)	.	.	.	.	.	.	.	.	8g#\	o-	.	8b\	o-	.	.	.	.	.	.	.	.	.	.	.	.	.	.	.
=37	=37	=37	=37	=37	=37	=37	=37	=37	=37	=37	=37	=37	=37	=37	=37	=37	=37	=37	=37	=37	=37	=37	=37	=37	=37	=37	=37	=37	=37	=37	=37	=37	=37	=37
4AA\ 4A	.	4e\	.	4a/	.	(8cc#\L	.	.	2.r	.	.	2.r	.	.	4a\	-ra	.	(8cc#\L	-ra	.	2.r	.	2.r	.	2.r	.	2.r	.	2.r	.	2.r	.	2.r	.
.	.	.	.	.	.	8ee\)	.	.	.	.	.	.	.	.	.	.	.	8ee\J)	.	.	.	.	.	.	.	.	.	.	.	.	.	.	.	.
8r	.	8e\	.	8c#/	.	8a\J	.	.	.	.	.	.	.	.	8c#/	pro	.	8a\	pro	.	.	.	.	.	.	.	.	.	.	.	.	.	.	.
.	.	.	.	16qqe/	.	(16qqcc#/	.	.	.	.	.	.	.	.	.	.	.	16qqcc#/	.	.	.	.	.	.	.	.	.	.	.	.	.	.	.	.
4EE/ 4E	.	8f#\L	.	(8d/L	.	8b\L)	.	.	.	.	.	.	.	.	8d\L	no-	.	8b\L	no-	.	.	.	.	.	.	.	.	.	.	.	.	.	.	.
.	.	8e\	.	8c#/	.	8a\	.	.	.	.	.	.	.	.	8c#\	.	.	8a\	.	.	.	.	.	.	.	.	.	.	.	.	.	.	.	.
8r	.	8e\J	.	8B/J)	.	8g#X\J	.	.	.	.	.	.	.	.	8B\J	.	.	8g#X\J	.	.	.	.	.	.	.	.	.	.	.	.	.	.	.	.
!	!	!	!	!	!	!LO:LB:g=original	!	!	!	!	!	!	!	!	!	!	!	!	!	!	!	!	!	!	!	!	!	!	!	!	!	!	!	!
!	!	!	!	!	!	!	!	!	!	!	!	!	!	!	!LO:LB:g=original	!	!	!	!	!	!	!	!	!	!	!	!	!	!	!	!	!	!	!
=38	=38	=38	=38	=38	=38	=38	=38	=38	=38	=38	=38	=38	=38	=38	=38	=38	=38	=38	=38	=38	=38	=38	=38	=38	=38	=38	=38	=38	=38	=38	=38	=38	=38	=38
!	!	!	!	!	!	!LO:TX:t=P:problem:mixed beam	!	!	!	!	!	!	!	!	!	!	!	!	!	!	!	!	!	!	!	!	!	!	!	!	!	!	!	!
4AA\ 4A	.	4e\	.	8c#/L	.	(16a/|LL	.	.	4r	.	.	4r	.	.	4c#\	-bis	.	4a\	-bis	.	2.r	.	2.r	.	2.r	.	2.r	.	2.r	.	2.r	.	2.r	.
.	.	.	.	.	.	16ggn\|)	.	.	.	.	.	.	.	.	.	.	.	.	.	.	.	.	.	.	.	.	.	.	.	.	.	.	.	.
.	.	.	.	16r	.	16ff#|\	.	.	.	.	.	.	.	.	.	.	.	.	.	.	.	.	.	.	.	.	.	.	.	.	.	.	.	.
.	.	.	.	16gn/L	.	16ee|\	.	.	.	.	.	.	.	.	.	.	.	.	.	.	.	.	.	.	.	.	.	.	.	.	.	.	.	.
8r	.	8r	.	16f#/	.	16dd|\	.	.	8r	.	.	8r	.	.	8r	.	.	8r	.	.	.	.	.	.	.	.	.	.	.	.	.	.	.	.
.	.	.	.	16e/JJ	.	16cc#|\JJ	.	.	.	.	.	.	.	.	.	.	.	.	.	.	.	.	.	.	.	.	.	.	.	.	.	.	.	.
!	!	!	!	!	!	!	!	!	!LO:TX:a:i:t=dolce	!	!	!LO:TX:a:i:t=dolce	!	!	!	!	!	!	!	!	!	!	!	!	!	!	!	!	!	!	!	!	!	!
8D\L	.	4a\	.	4.ff#\	.	(4.aa\	.	.	(4.A\	Ma-	.	(4.f#\	Ma-	.	4r	.	.	4r	.	.	.	.	.	.	.	.	.	.	.	.	.	.	.	.
8F#\	.	.	.	.	.	.	.	.	.	.	.	.	.	.	.	.	.	.	.	.	.	.	.	.	.	.	.	.	.	.	.	.	.	.
8A\J	.	8a\	.	.	.	.	.	.	.	.	.	.	.	.	8r	.	.	8r	.	.	.	.	.	.	.	.	.	.	.	.	.	.	.	.
!LO:LB:g=original	!	!	!	!	!	!	!	!	!	!	!	!	!	!	!	!	!	!	!	!	!	!	!	!	!	!	!	!	!	!	!	!	!	!
!	!	!	!	!	!	!	!	!	!LO:LB:g=original	!	!	!	!	!	!	!	!	!	!	!	!	!	!	!	!	!	!	!	!	!	!	!	!	!
=39	=39	=39	=39	=39	=39	=39	=39	=39	=39	=39	=39	=39	=39	=39	=39	=39	=39	=39	=39	=39	=39	=39	=39	=39	=39	=39	=39	=39	=39	=39	=39	=39	=39	=39
!	!	!	!	!	!	!	!	!	!	!	!	!	!	!	!LO:TX:a:t=7	!	!	!LO:TX:a:t=7	!	!	!	!	!	!	!	!	!	!	!	!	!	!	!	!
4d\	.	4.a\	.	(8dd\L	.	8ff#\L)	.	.	8F#\L	.	.	8d\L	.	.	2.r	.	.	2.r	.	.	2.r	.	2.r	.	2.r	.	2.r	.	2.r	.	2.r	.	2.r	.
.	.	.	.	8cc#\	.	(8ee\	.	.	8E\J)	.	.	8c#\J)	.	.	.	.	.	.	.	.	.	.	.	.	.	.	.	.	.	.	.	.	.	.
8r	.	.	.	8dd\J	.	8ff#\J)	.	.	8F#\	-ter	.	8d\	-ter	.	.	.	.	.	.	.	.	.	.	.	.	.	.	.	.	.	.	.	.	.
8AA/L	.	4a\	.	(4.ee\)	.	(4.gg\	.	.	4.Gn\	Chri-	.	4.e\	Chri-	.	.	.	.	.	.	.	.	.	.	.	.	.	.	.	.	.	.	.	.	.
8C#/	.	.	.	.	.	.	.	.	.	.	.	.	.	.	.	.	.	.	.	.	.	.	.	.	.	.	.	.	.	.	.	.	.	.
8E/J	.	8a\	.	.	.	.	.	.	.	.	.	.	.	.	.	.	.	.	.	.	.	.	.	.	.	.	.	.	.	.	.	.	.	.
!	!	!	!	!LO:LB:g=original	!	!	!	!	!	!	!	!	!	!	!	!	!	!	!	!	!	!	!	!	!	!	!	!	!	!	!	!	!	!
=40	=40	=40	=40	=40	=40	=40	=40	=40	=40	=40	=40	=40	=40	=40	=40	=40	=40	=40	=40	=40	=40	=40	=40	=40	=40	=40	=40	=40	=40	=40	=40	=40	=40	=40
4AA\ 4A	.	4.a\	.	8cc#\L)	.	8ee\L)	.	.	8E\	-sti	.	8c#\	-ste	.	2.r	.	.	2.r	.	.	2.r	.	2.r	.	2.r	.	2.r	.	2.r	.	2.r	.	2.r	.
.	.	.	.	(8b\	.	(8dd\	.	.	8r	.	.	8r	.	.	.	.	.	.	.	.	.	.	.	.	.	.	.	.	.	.	.	.	.	.
8r	.	.	.	8cc#\J)	.	8ee\J)	.	.	8c#\	o-	.	8e\	o-	.	.	.	.	.	.	.	.	.	.	.	.	.	.	.	.	.	.	.	.	.
8D\L	.	4a\	.	4dd\	.	(4ff#\	.	.	4d\	-ra	.	4f#\	-ra	.	.	.	.	.	.	.	.	.	.	.	.	.	.	.	.	.	.	.	.	.
8F#\	.	.	.	.	.	.	.	.	.	.	.	.	.	.	.	.	.	.	.	.	.	.	.	.	.	.	.	.	.	.	.	.	.	.
8A\J	.	8r	.	8b\	.	8dd\)	.	.	8B\	o-	.	8d\	o-	.	.	.	.	.	.	.	.	.	.	.	.	.	.	.	.	.	.	.	.	.
!	!	!LO:LB:g=original	!	!	!	!	!	!	!	!	!	!	!	!	!	!	!	!	!	!	!	!	!	!	!	!	!	!	!	!	!	!	!	!
=41	=41	=41	=41	=41	=41	=41	=41	=41	=41	=41	=41	=41	=41	=41	=41	=41	=41	=41	=41	=41	=41	=41	=41	=41	=41	=41	=41	=41	=41	=41	=41	=41	=41	=41
4E\ 4e	.	4g\	.	(4e/	.	8b\L	.	.	4G\	-ra	.	8B\L	-ra	.	2.r	.	.	2.r	.	.	2.r	.	2.r	.	2.r	.	2.r	.	2.r	.	2.r	.	2.r	.
.	.	.	.	.	.	8ee\	.	.	.	.	.	8e\J	.	.	.	.	.	.	.	.	.	.	.	.	.	.	.	.	.	.	.	.	.	.
8r	.	8g\	.	8ee\)	.	8gg\J	.	.	8e\	pro	.	8g\	pro	.	.	.	.	.	.	.	.	.	.	.	.	.	.	.	.	.	.	.	.	.
8D\L	.	4.a\	.	(4.dd\	.	(4.ff#\	.	.	4.d\	no-	.	4.f#\	no-	.	.	.	.	.	.	.	.	.	.	.	.	.	.	.	.	.	.	.	.	.
8F#\	.	.	.	.	.	.	.	.	.	.	.	.	.	.	.	.	.	.	.	.	.	.	.	.	.	.	.	.	.	.	.	.	.	.
8d\J	.	.	.	.	.	.	.	.	.	.	.	.	.	.	.	.	.	.	.	.	.	.	.	.	.	.	.	.	.	.	.	.	.	.
.	.	.	.	(32qqcc#/LLL	.	16qqee/LL	.	.	.	.	.	.	.	.	.	.	.	.	.	.	.	.	.	.	.	.	.	.	.	.	.	.	.	.
.	.	.	.	32qqdd/JJJ)	.	16qqff#/JJ	.	.	.	.	.	.	.	.	.	.	.	.	.	.	.	.	.	.	.	.	.	.	.	.	.	.	.	.
=42	=42	=42	=42	=42	=42	=42	=42	=42	=42	=42	=42	=42	=42	=42	=42	=42	=42	=42	=42	=42	=42	=42	=42	=42	=42	=42	=42	=42	=42	=42	=42	=42	=42	=42
.	.	.	.	.	.	.	.	.	(32qqc#/LLL	.	.	(32qqe/LLL	.	.	.	.	.	.	.	.	.	.	.	.	.	.	.	.	.	.	.	.	.	.
!LO:TX:t=P:problem:mixed beam	!	!	!	!	!	!	!	!	!	!	!	!	!	!	!	!	!	!	!	!	!	!	!	!	!	!	!	!	!	!	!	!	!	!
.	.	.	.	.	.	.	.	.	32qqd/JJJ	.	.	32qqf#/JJJ	.	.	.	.	.	.	.	.	.	.	.	.	.	.	.	.	.	.	.	.	.	.
8A\L	.	8a\L	.	8cc#\)	.	8ee\)	.	.	8c#\)	-bis	.	8e\)	-bis	.	2.r	.	.	2.r	.	.	2.r	.	2.r	.	2.r	.	2.r	.	2.r	.	2.r	.	2.r	.
8AA/J	.	8a\J	.	8r	.	8r	.	.	8r	.	.	8r	.	.	.	.	.	.	.	.	.	.	.	.	.	.	.	.	.	.	.	.	.	.
8r	.	8r	.	(16dd\LL	.	(16ff#\LL	.	.	16F#\LL	Ma-	.	16d\LL	Ma-	.	.	.	.	.	.	.	.	.	.	.	.	.	.	.	.	.	.	.	.	.
.	.	.	.	16ee\JJ)	.	16gg\JJ)	.	.	16G\JJ	.	.	16e\JJ	.	.	.	.	.	.	.	.	.	.	.	.	.	.	.	.	.	.	.	.	.	.
8D\L	.	4.a\	.	(4.ff#\	.	(4.aa\	.	.	4A\	-ter	.	4f#\	-ter	.	.	.	.	.	.	.	.	.	.	.	.	.	.	.	.	.	.	.	.	.
8F#\	.	.	.	.	.	.	.	.	.	.	.	.	.	.	.	.	.	.	.	.	.	.	.	.	.	.	.	.	.	.	.	.	.	.
!	!	!	!	!	!	!	!	!	!LO:SIC:v:l:s=Di-	!	!	!LO:SIC:v:l:s=di-	!	!	!	!	!	!	!	!	!	!	!	!	!	!	!	!	!	!	!	!	!	!
8A\J	.	.	.	.	.	.	.	.	8A\	De-	.	8f#\	de-	.	.	.	.	.	.	.	.	.	.	.	.	.	.	.	.	.	.	.	.	.
=43	=43	=43	=43	=43	=43	=43	=43	=43	=43	=43	=43	=43	=43	=43	=43	=43	=43	=43	=43	=43	=43	=43	=43	=43	=43	=43	=43	=43	=43	=43	=43	=43	=43	=43
4d\	.	4a\	.	8dd\L)	.	8ff#\L)	.	.	8F#\L	-vi-	.	8d\L	-vi-	.	2.r	.	.	2.r	.	.	2.r	.	2.r	.	2.r	.	2.r	.	2.r	.	2.r	.	2.r	.
.	.	.	.	(8cc#\	.	(8ee\	.	.	8E\J	.	.	8c#\J	.	.	.	.	.	.	.	.	.	.	.	.	.	.	.	.	.	.	.	.	.	.
8r	.	8a\	.	8dd\J)	.	8ff#\J)	.	.	8F#\	-ne	.	8d\	-nae	.	.	.	.	.	.	.	.	.	.	.	.	.	.	.	.	.	.	.	.	.
8GG\L	.	4.g\	.	(4.d\ 4.b 4.bb	.	(4.ddd\	.	.	4B\	Gra-	.	4d\	Gra-	.	.	.	.	.	.	.	.	.	.	.	.	.	.	.	.	.	.	.	.	.
8BB\	.	.	.	.	.	.	.	.	.	.	.	.	.	.	.	.	.	.	.	.	.	.	.	.	.	.	.	.	.	.	.	.	.	.
8D\J	.	.	.	.	.	.	.	.	8B\	-ti-	.	8d\	-ti-	.	.	.	.	.	.	.	.	.	.	.	.	.	.	.	.	.	.	.	.	.
!	!	!	!	!	!	!	!	!	!	!	!	!LO:LB:g=original	!	!	!	!	!	!	!	!	!	!	!	!	!	!	!	!	!	!	!	!	!	!
=44	=44	=44	=44	=44	=44	=44	=44	=44	=44	=44	=44	=44	=44	=44	=44	=44	=44	=44	=44	=44	=44	=44	=44	=44	=44	=44	=44	=44	=44	=44	=44	=44	=44	=44
4G\	.	8dd\	.	8gg\)	.	8bb\)	.	.	8G\	-a	.	8B\	-a	.	2.r	.	.	2.r	.	.	2.r	.	2.r	.	2.r	.	2.r	.	2.r	.	2.r	.	2.r	.
.	.	8r	.	8r	.	8r	.	.	8r	.	.	8r	.	.	.	.	.	.	.	.	.	.	.	.	.	.	.	.	.	.	.	.	.	.
8r	.	8dd\	.	8gg\	.	8bb|\	.	.	8G\	o-	.	8B\	o-	.	.	.	.	.	.	.	.	.	.	.	.	.	.	.	.	.	.	.	.	.
8D\L	.	8dd\L	.	8ff#\L	.	8aa\L	.	.	8F#\L	-ra	.	(8A\L	-ra	.	.	.	.	.	.	.	.	.	.	.	.	.	.	.	.	.	.	.	.	.
8E\	.	8cc#\	.	8ee\	.	8gg\	.	.	8c#\J	.	.	8g\J)	.	.	.	.	.	.	.	.	.	.	.	.	.	.	.	.	.	.	.	.	.	.
8F#\J	.	8a\J	.	8dd\J	.	8ff#\J	.	.	8d\	pro	.	8f#\	pro	.	.	.	.	.	.	.	.	.	.	.	.	.	.	.	.	.	.	.	.	.
!	!	!	!	!	!	!	!	!	!LO:LB:g=original	!	!	!	!	!	!	!	!	!	!	!	!	!	!	!	!	!	!	!	!	!	!	!	!	!
=45	=45	=45	=45	=45	=45	=45	=45	=45	=45	=45	=45	=45	=45	=45	=45	=45	=45	=45	=45	=45	=45	=45	=45	=45	=45	=45	=45	=45	=45	=45	=45	=45	=45	=45
16F#\LL	6 3	8b\L	.	16a/LL	.	(16ff#\LL	.	.	(16A\LL	no-	.	16f#\LL	no-	.	2.r	.	.	2.r	.	.	2.r	.	2.r	.	2.r	.	2.r	.	2.r	.	2.r	.	2.r	.
16G\JJ	6 3	.	.	16g/J	.	16ee\J)	.	.	16G\J)	.	.	16e\J	.	.	.	.	.	.	.	.	.	.	.	.	.	.	.	.	.	.	.	.	.	.
!LO:TX:t=P:problem:mixed beam	!	!	!	!	!	!	!	!	!	!	!	!	!	!	!	!	!	!	!	!	!	!	!	!	!	!	!	!	!	!	!	!	!	!
8A\L	6 4	8a\	.	8f#/	.	8dd\	.	.	8F#\	.	.	8d\	.	.	.	.	.	.	.	.	.	.	.	.	.	.	.	.	.	.	.	.	.	.
8AA/J	5 3	8a\J	.	8e/J	.	8cc#\J	.	.	8E\J	.	.	8c#\J	.	.	.	.	.	.	.	.	.	.	.	.	.	.	.	.	.	.	.	.	.	.
8D\L	.	4a\	.	8f#/	.	8dd\	.	.	8F#\	-bis	.	8d\	-bis	.	.	.	.	.	.	.	.	.	.	.	.	.	.	.	.	.	.	.	.	.
8d\J	.	.	.	8r	.	8r	.	.	8r	.	.	8r	.	.	.	.	.	.	.	.	.	.	.	.	.	.	.	.	.	.	.	.	.	.
8r	.	8r	.	8r	.	8a/	f	.	8r	.	.	8r	.	.	.	.	.	.	.	.	.	.	.	.	.	.	.	.	.	.	.	.	.	.
!LO:LB:g=original	!	!	!	!	!	!	!	!	!	!	!	!	!	!	!	!	!	!	!	!	!	!	!	!	!	!	!	!	!	!	!	!	!	!
!	!	!	!	!	!	!LO:LB:g=original	!	!	!	!	!	!	!	!	!	!	!	!	!	!	!	!	!	!	!	!	!	!	!	!	!	!	!	!
!	!	!	!	!	!	!	!	!	!	!	!	!	!	!	!	!	!	!	!	!	!LO:LB:g=original	!	!	!	!	!	!	!	!	!	!	!	!	!
=46	=46	=46	=46	=46	=46	=46	=46	=46	=46	=46	=46	=46	=46	=46	=46	=46	=46	=46	=46	=46	=46	=46	=46	=46	=46	=46	=46	=46	=46	=46	=46	=46	=46	=46
*tremolo	*	*	*	*	*	*	*	*	*	*	*	*	*	*	*	*	*	*	*	*	*	*	*	*	*	*	*	*	*	*	*	*	*	*
!	!	!	!	! 	!	!	!	!	!	!	!	!	!	!LO:DY:a	!	!	!	!	!	!LO:DY:a	!	!	!	!	!	!	!	!	!	!	!	!	!	!
16C#X\LL	7	16c#|\LL	f	16e/LL|	f	16gg|\LL	.	.	8c#\	Ma-	f	8e\	Ma-	f	8a\	Ma-	f	8gg\	Ma-	f	8AA/L	.	8.a/L	f	8.ee\L	f	8e/L	.	(8ggX\L	.	8ee\L	.	(8gg\L	f
16AA\	.	16e\|	.	16a/|	.	(16gg\	.	.	.	.	.	.	.	.	.	.	.	.	.	.	.	.	.	.	.	.	.	.	.	.	.	.	.	.
16C#\	.	16c#\|	.	16e/|	.	16ee\)	.	.	8c#\	-ter	.	8e\	-ter	.	8a\	-ter	.	8gg\	-ter	.	16AA/L	.	.	.	.	.	8A/	.	8ee\)	.	8a\	.	8ee\)	.
16AA\	.	16e\|	.	16a/|	.	(16ee\	.	.	.	.	.	.	.	.	.	.	.	.	.	.	16AA/J	.	16a/K	.	16ee\K	.	.	.	.	.	.	.	.	.
16C#\	.	16a\|	.	16c#/|	.	16a\)	.	.	8c#\	pu-	.	8e\	pu-	.	8a\	pu-	.	8gg\	pu-	.	8AA/J	.	8a/J	.	8ee\J	.	8c#/J	.	8a|\J	.	8cc#\J	.	8a'\J	.
16AA\JJ	.	16e\|JJ	.	16a/JJ|	.	16a\|JJ	.	.	.	.	.	.	.	.	.	.	.	.	.	.	.	.	.	.	.	.	.	.	.	.	.	.	.	.
!	!	!	!	!LO:LB:g=original	!	!	!	!	!	!	!	!	!	!	!	!	!	!	!	!	!	!	!	!	!	!	!	!	!	!	!	!	!	!
16D\LL	8	16d\|LL	.	16d/LL|	.	16ff#|\LL	.	.	8.d\	-ris-	.	8.d\	-ris-	.	8.a\	-riſ-	.	8.ff#\	-ris-	.	8D\L	.	8.dd\L	.	8.ff#\L	.	4d/	.	(8ff#\L	.	4dd\	.	(8ff#\L	.
16AA\	.	16f#|\	.	16a/|	.	(16ff#\	.	.	.	.	.	.	.	.	.	.	.	.	.	.	.	.	.	.	.	.	.	.	.	.	.	.	.	.
16D\	.	16d\|	.	16f#/|	.	16dd\)	.	.	.	.	.	.	.	.	.	.	.	.	.	.	16D\L	.	.	.	.	.	.	.	8dd\)	.	.	.	8dd\)	.
16AA\	.	16f#|\	.	16a/|	.	(16dd\	.	.	16d\	-si-	.	16d\	-si-	.	16a\	-si-	.	16ff#\	-si-	.	16D\J	.	16dd\K	.	16ff#\K	.	.	.	.	.	.	.	.	.
16D\	.	16d\|	.	16f#/|	.	16a\)	.	.	8d\	-ma	.	8d\	-ma	.	8a\	-ma	.	8ff#\	-ma	.	8D\J	.	8dd\J	.	8ff#\J	.	8f#/	.	8a|\J	.	8ff#\	.	8a'\J	.
16AA\JJ	.	16f#|\JJ	.	16a/JJ|	.	16a\|JJ	.	.	.	.	.	.	.	.	.	.	.	.	.	.	.	.	.	.	.	.	.	.	.	.	.	.	.	.
!	!	!	!	!	!	!	!	!	!	!	!	!	!	!	!	!	!	!	!	!	!	!	!LO:LB:g=original	!	!	!	!	!	!	!	!	!	!	!
!	!	!	!	!	!	!	!	!	!	!	!	!	!	!	!	!	!	!	!	!	!	!	!	!	!LO:LB:g=original	!	!	!	!	!	!	!	!	!
=47	=47	=47	=47	=47	=47	=47	=47	=47	=47	=47	=47	=47	=47	=47	=47	=47	=47	=47	=47	=47	=47	=47	=47	=47	=47	=47	=47	=47	=47	=47	=47	=47	=47	=47
16E\LL	.	16e\|LL	.	16g/LL|	.	16ee|\LL	.	.	8A\	Ma-	.	8c#\	Ma-	.	8gn\	Ma-	.	8ee\	Ma-	.	8AA/L	.	8.a/L	.	8.ee\L	.	8g/L	.	(8ee\L	.	8gg\L	.	(8ee\L	.
16AA\	.	16g\|	.	16a/|	.	(16ee\	.	.	.	.	.	.	.	.	.	.	.	.	.	.	.	.	.	.	.	.	.	.	.	.	.	.	.	.
16E\	.	16e\|	.	16g/|	.	16cc#\)	.	.	8A\	-ter	.	8c#\	-ter	.	8g\	-ter	.	8ee\	-ter	.	16AA/L	.	.	.	.	.	8e/	.	8cc#\)	.	8ee\	.	8cc#\)	.
16AA\	.	16g\|	.	16a/|	.	(16cc#\	.	.	.	.	.	.	.	.	.	.	.	.	.	.	16AA/J	.	16a/K	.	16ee\K	.	.	.	.	.	.	.	.	.
16E\	.	16e\|	.	16g/|	.	16a\)	.	.	8A\	Cas-	.	8c#\	Cas-	.	8g\	Cas-	.	8ee\	Cas-	.	8AA/J	.	8a/J	.	8ee\J	.	8g/J	.	8a|\J	.	8gg\J	.	8a'\J	.
16AA\JJ	.	16g\JJ|	.	16a/JJ|	.	16a\|JJ	.	.	.	.	.	.	.	.	.	.	.	.	.	.	.	.	.	.	.	.	.	.	.	.	.	.	.	.
16D\LL	.	16d\LL|	.	16f#/LL|	.	16dd|\LL	.	.	8.D\	-tiſ-	.	8.A\	-tiſ-	.	8.f#\	-tiſ-	.	8.dd\	-tiſ-	.	8D\L	.	8f#/L	.	8dd\L	.	4f#/	.	(16dd\LL	.	4ff#\	.	(16dd\LL	.
16AA\	.	16f#\|	.	16a/|	.	(16a\	.	.	.	.	.	.	.	.	.	.	.	.	.	.	.	.	.	.	.	.	.	.	16a\	.	.	.	16a\	.
16D\	.	16d\|	.	16f#/|	.	16dd\	.	.	.	.	.	.	.	.	.	.	.	.	.	.	8D\	.	8f#/	.	8dd\	.	.	.	16dd\)	.	.	.	16dd\)	.
16AA\	.	16f#\|	.	16a/|	.	16ff#\	.	.	16D\	-si-	.	16A\	-si-	.	16f#\	-si-	.	16dd\	-si-	.	.	.	.	.	.	.	.	.	16ff#|\	.	.	.	16ff#'\	.
16D\	.	16d\|	.	16f#/|	.	16aa\)	.	.	8D\	-ma	.	8A\	-ma	.	8f#\	-ma	.	8dd\	-ma	.	8D\J	.	8f#/J	.	8dd\J	.	8d/	.	16aa|\	.	8dd\	.	16aa'\	.
16AA\JJ	.	16f#\JJ|	.	16a/JJ|	.	16ff#|\JJ	.	.	.	.	.	.	.	.	.	.	.	.	.	.	.	.	.	.	.	.	.	.	16ff#|\JJ	.	.	.	16ff#'\JJ	.
!	!	!	!	!	!	!	!	!	!	!	!	!	!	!	!	!	!	!LO:LB:g=original	!	!	!	!	!	!	!	!	!	!	!	!	!	!	!	!
!	!	!	!	!	!	!	!	!	!	!	!	!	!	!	!	!	!	!	!	!	!	!	!	!	!	!	!	!	!	!	!LO:LB:g=original	!	!	!
=48	=48	=48	=48	=48	=48	=48	=48	=48	=48	=48	=48	=48	=48	=48	=48	=48	=48	=48	=48	=48	=48	=48	=48	=48	=48	=48	=48	=48	=48	=48	=48	=48	=48	=48
16C#X\LL	.	16c#\LL	.	16e/LL|	.	16gg|\LL	.	.	4c#\	o-	.	4e\	o-	.	4a\	o-	.	4gg\	o-	.	4.AA/	.	4a/	.	4ee\	.	8e/L	.	(8gg\L	.	8ee\L	.	(8gg\L	.
16AA\	.	16e\	.	16a/|	.	(16gg\	.	.	.	.	.	.	.	.	.	.	.	.	.	.	.	.	.	.	.	.	.	.	.	.	.	.	.	.
16C#\	.	16c#\	.	16e/|	.	16ee\)	.	.	.	.	.	.	.	.	.	.	.	.	.	.	.	.	.	.	.	.	8A/	.	8ee\)	.	8a\	.	8ee\)	.
16AA\	.	16e\	.	16a/|	.	(16ee\	.	.	.	.	.	.	.	.	.	.	.	.	.	.	.	.	.	.	.	.	.	.	.	.	.	.	.	.
16C#\	.	16a\	.	16c#/|	.	16a\)	.	.	8c#\	-ra	.	8e\	-ra	.	8a\	-ra	.	8gg\	-ra	.	.	.	8a/	.	8ee\	.	8c#/J	.	8a|\J	.	8cc#\J	.	8a'\J	.
16AA\JJ	.	16e\JJ	.	16a/JJ|	.	16a\JJ	.	.	.	.	.	.	.	.	.	.	.	.	.	.	.	.	.	.	.	.	.	.	.	.	.	.	.	.
16D\LL	.	16d\LL	.	16d/LL|	.	16ff#|\LL	.	.	8d\	o-	.	8d\	/o-	.	8a\	o-	.	8ff#\	o-	.	4.D\	.	4dd\	.	4ff#\	.	4d/	.	(8ff#\L	.	4dd\	.	(8ff#\L	.
16AA\	.	16f#\	.	16a/|	.	(16ff#\	.	.	.	.	.	.	.	.	.	.	.	.	.	.	.	.	.	.	.	.	.	.	.	.	.	.	.	.
16D\	.	16d\	.	16f#/|	.	16dd\)	.	.	8d\	-ra	.	8d\	-ra/	.	8a\	-ra	.	8ff#\	-ra	.	.	.	.	.	.	.	.	.	8dd\)	.	.	.	8dd\)	.
16AA\	.	16f#\	.	16a/|	.	(16dd\	.	.	.	.	.	.	.	.	.	.	.	.	.	.	.	.	.	.	.	.	.	.	.	.	.	.	.	.
16D\	.	16d\	.	16f#/|	.	16a\)	.	.	8d\	pro	.	8d\	pro	.	8a\	pro	.	8ff#\	pro	.	.	.	8dd\	.	8ff#\	.	8f#/	.	8a|\J	.	8ff#\	.	8a'\J	.
16AA\JJ	.	16f#\JJ	.	16a/JJ|	.	16a\|JJ	.	.	.	.	.	.	.	.	.	.	.	.	.	.	.	.	.	.	.	.	.	.	.	.	.	.	.	.
!	!	!LO:LB:g=original	!	!	!	!	!	!	!	!	!	!	!	!	!	!	!	!	!	!	!	!	!	!	!	!	!	!	!	!	!	!	!	!
!	!	!	!	!	!	!	!	!	!	!	!	!LO:LB:g=original	!	!	!	!	!	!	!	!	!	!	!	!	!	!	!	!	!	!	!	!	!	!
!	!	!	!	!	!	!	!	!	!	!	!	!	!	!	!	!	!	!	!	!	!	!	!	!	!	!	!	!	!LO:LB:g=original	!	!	!	!	!
=49	=49	=49	=49	=49	=49	=49	=49	=49	=49	=49	=49	=49	=49	=49	=49	=49	=49	=49	=49	=49	=49	=49	=49	=49	=49	=49	=49	=49	=49	=49	=49	=49	=49	=49
16C#X\LL	.	16e\LL	.	16g/LL|	.	16ee|\LL	.	.	4A\	no-	.	4c#\	no-	.	4g\	no-	.	4ee\	no-	.	4.AA/	.	4a/	.	4ee\	.	8g/L	.	(8ee\L	.	8gg\L	.	(8ee\L	.
16AA\	.	16g\	.	16a/|	.	(16ee\	.	.	.	.	.	.	.	.	.	.	.	.	.	.	.	.	.	.	.	.	.	.	.	.	.	.	.	.
16C#\	.	16e\	.	16g/|	.	16cc#\)	.	.	.	.	.	.	.	.	.	.	.	.	.	.	.	.	.	.	.	.	8e/	.	8cc#\)	.	8ee\	.	8cc#\)	.
16AA\	.	16g\	.	16a/|	.	(16cc#\	.	.	.	.	.	.	.	.	.	.	.	.	.	.	.	.	.	.	.	.	.	.	.	.	.	.	.	.
16C#\	.	16e\	.	16g/|	.	16a\)	.	.	8A\	-bis	.	8c#\	-bis	.	8g\	-bis	.	8ee\	-bis	.	.	.	8a/	.	8ee\	.	8g/J	.	8a|\J	.	8gg\J	.	8a'\J	.
16AA\JJ	.	16g\JJ	.	16a/JJ|	.	16a|\JJ	.	.	.	.	.	.	.	.	.	.	.	.	.	.	.	.	.	.	.	.	.	.	.	.	.	.	.	.
*Xtremolo	*	*	*	*	*	*	*	*	*	*	*	*	*	*	*	*	*	*	*	*	*	*	*	*	*	*	*	*	*	*	*	*	*	*
!	!	!	!	!	!	!	!	!	!	!	!	!	!	!LO:DY:a	!	!	!	!	!	!	!	!	!	!	!	!	!	!	!	!	!	!	!	!
4D\	.	16d\KL	p	16a/KL	p	16r	.	.	4F#\	Ma-	p	4F#/	Ma-	p	4a\	Ma-	p	4dd\	Ma-	.	4D\	.	4f#/	.	4dd\	.	[4.a\	p	4.dd\	.	(4.aa\	.	4.dd\	.
.	.	8d\	.	8a/	.	16dd|\LL	p	.	.	.	.	.	.	.	.	.	.	.	.	.	.	.	.	.	.	.	.	.	.	.	.	.	.	.
.	.	.	.	.	.	(16cc#\	.	.	.	.	.	.	.	.	.	.	.	.	.	.	.	.	.	.	.	.	.	.	.	.	.	.	.	.
.	.	8d\	.	8a/	.	16dd\)	.	.	.	.	.	.	.	.	.	.	.	.	.	.	.	.	.	.	.	.	.	.	.	.	.	.	.	.
8r	.	.	.	.	.	16ee|\	.	.	8F#\	-ter	.	8F#/	-ter	.	8a\	-ter	.	8dd\	-ter	.	8r	.	8r	.	8r	.	.	.	.	.	.	.	.	.
.	.	16d\Jk	.	16a/Jk	.	16dd|\JJ	.	.	.	.	.	.	.	.	.	.	.	.	.	.	.	.	.	.	.	.	.	.	.	.	.	.	.	.
*Xtremolo	*	*	*	*	*	*	*	*	*	*	*	*	*	*	*	*	*	*	*	*	*	*	*	*	*	*	*	*	*	*	*	*	*	*
=50	=50	=50	=50	=50	=50	=50	=50	=50	=50	=50	=50	=50	=50	=50	=50	=50	=50	=50	=50	=50	=50	=50	=50	=50	=50	=50	=50	=50	=50	=50	=50	=50	=50	=50
!	!	!	!	!	!	!	!	!	!	!	!	!	!	!	!	!	!	!	!	!LO:DY:a	!LO:TX:a:t=1	!	!LO:TX:a:t=1	!	!LO:TX:a:t=1	!	!	!	!	!	!	!	!	!
4AA\ 4A	.	16d\KL	.	16a/KL	.	16r	.	.	8F#\	/Ma-	.	8F#/	/Ma-	.	8a\	/Ma-	.	8dd\	Ma-	p	2.r	.	2.r	.	2.r	.	4.a\]	.	16r	p	4.a/)	p	16r	.
.	.	8d\	.	8a/	.	16aa|\LL	.	.	.	.	.	.	.	.	.	.	.	.	.	.	.	.	.	.	.	.	.	.	(16aa\LL	.	.	.	(16aa\LL	p
.	.	.	.	.	.	(16bb\	.	.	8F#\	-ter/	.	8F#/	-ter/	.	8a\	-ter/	.	8dd\	-ter	.	.	.	.	.	.	.	.	.	16bb\	.	.	.	16bb\	.
.	.	8d\	.	8a/	.	16aa\	.	.	.	.	.	.	.	.	.	.	.	.	.	.	.	.	.	.	.	.	.	.	16aa\	.	.	.	16aa\	.
!	!	!	!	!	!	!	!	!	!LO:LB:g=original	!	!	!	!	!	!	!	!	!	!	!	!	!	!	!	!	!	!	!	!	!	!	!	!	!
8r	.	.	.	.	.	16gg\)	.	.	8F#\	in-	.	8F#/	in-	.	8a\	in-	.	8dd\	in-	.	.	.	.	.	.	.	.	.	16gg\	.	.	.	16gg\	.
.	.	16d\Jk	.	16a/Jk	.	16ff#|\JJ	.	.	.	.	.	.	.	.	.	.	.	.	.	.	.	.	.	.	.	.	.	.	16ff#\JJ)	.	.	.	16ff#\JJ)	.
!	!	!	!	!	!	!	!	!	!	!	!	!	!	!	!LO:LB:g=original	!	!	!	!	!	!	!	!	!	!	!	!	!	!	!	!	!	!	!
!	!	!	!	!	!	!	!	!	!	!	!	!	!	!	!	!	!	!	!	!	!	!	!	!	!	!	!LO:LB:g=original	!	!	!	!	!	!	!
4GG/ 4G	.	16e\KL	.	16b\KL	.	16r	.	.	4G\	-Vi-	.	4G/	-Vi-	.	4b\	-Vi-	.	4ee\	-Vi-	.	.	.	.	.	.	.	[4.b\	.	[4.ee\	.	[4.b/	.	[4.ee\	.
.	.	8e\	.	8b\	.	16ee\|LL	.	.	.	.	.	.	.	.	.	.	.	.	.	.	.	.	.	.	.	.	.	.	.	.	.	.	.	.
.	.	.	.	.	.	(16dd#X\	.	.	.	.	.	.	.	.	.	.	.	.	.	.	.	.	.	.	.	.	.	.	.	.	.	.	.	.
.	.	8e\	.	8b\	.	16ee\)	.	.	.	.	.	.	.	.	.	.	.	.	.	.	.	.	.	.	.	.	.	.	.	.	.	.	.	.
8r	.	.	.	.	.	16ff#|\	.	.	8G\	-o-	.	8G/	-o-	.	8b\	-o-	.	8ee\	-o-	.	.	.	.	.	.	.	.	.	.	.	.	.	.	.
.	.	16e\Jk	.	16b\Jk	.	16ee\|JJ	.	.	.	.	.	.	.	.	.	.	.	.	.	.	.	.	.	.	.	.	.	.	.	.	.	.	.	.
!	!	!	!	!	!	!LO:LB:g=original	!	!	!	!	!	!	!	!	!	!	!	!	!	!	!	!	!	!	!	!	!	!	!	!	!	!	!	!
=51	=51	=51	=51	=51	=51	=51	=51	=51	=51	=51	=51	=51	=51	=51	=51	=51	=51	=51	=51	=51	=51	=51	=51	=51	=51	=51	=51	=51	=51	=51	=51	=51	=51	=51
4BB\ 4B	.	16e\KL	.	16b\KL	.	16r	.	.	8G\	-la-	.	8G/	-la-	.	8b\	-la-	.	8ee\	-la-	.	4r	.	4r	.	4r	.	4.b\]	.	4.ee\]	.	4.b/]	.	4.ee\]	.
.	.	8e\	.	8b\	.	(16bb\LL	.	.	.	.	.	.	.	.	.	.	.	.	.	.	.	.	.	.	.	.	.	.	.	.	.	.	.	.
.	.	.	.	.	.	16aa#X\	.	.	8G\	-ta	.	8G/	-ta	.	8b\	-ta	.	8ee\	-ta	.	.	.	.	.	.	.	.	.	.	.	.	.	.	.
.	.	8e\	.	8b\	.	16bb\)	.	.	.	.	.	.	.	.	.	.	.	.	.	.	.	.	.	.	.	.	.	.	.	.	.	.	.	.
!	!	!	!	!	!	!	!	!	!	!	!	!	!	!	!	!	!	!	!	!	!	!	!	!	!LO:N:vis=8	!	!	!	!	!	!	!	!	!
8r	.	.	.	.	.	16gg|\	.	.	8G\	o-	.	8G/	o-	.	8b\	o-	.	8ee\	o-	.	8r	.	8r	.	4r	.	.	.	.	.	.	.	.	.
.	.	16e\Jk	.	16b\Jk	.	16ee|\JJ	.	.	.	.	.	.	.	.	.	.	.	.	.	.	.	.	.	.	.	.	.	.	.	.	.	.	.	.
!LO:TX:t=P:problem:mixed beam	!	!	!	!	!	!	!	!	!	!	!	!	!	!	!	!	!	!	!	!	!	!	!	!	!	!	!	!	!	!	!	!	!	!
8G\L	6	4a\	.	8dd\L	.	(16ff#\LL	.	.	16A\	-ra	.	16A\	-ra	.	16dd\	-ra	.	16ff#\	-ra	.	4AA/	.	8r	.	.	.	(8dd\L	.	(8ff#\L	.	(8dd\L	.	(8ff#\L	.
.	.	.	.	.	.	16dd\)	.	.	16A\	pro	.	16A\	pro	.	16dd\	pro	.	16dd\	pro	.	.	.	.	.	.	.	.	.	.	.	.	.	.	.
8A\	6 4	.	.	(16b\L	.	(16gg\	.	.	8A\	no-	.	8A\	no-	.	16b\LL	no-	.	16gg\LL	no-	.	.	.	8a/L	.	8ee\L	.	8ee\)	.	8gg\)	.	8ee\)	.	8gg\)	.
.	.	.	.	16g\)	.	16ee\)	.	.	.	.	.	.	.	.	16g\JJ	.	.	16ee\JJ	.	.	.	.	.	.	.	.	.	.	.	.	.	.	.	.
8AA/J	5 3	8a\	.	(16g\	.	(16ee\	.	.	8AA/	-bis	.	8A\	-bis	.	16g\LL	-bis	.	16ee\LL	-bis	.	8AA/	.	8a/J	.	8ee\J	.	8cc#\J	.	8ee\J	.	8cc#'\J	.	8ee'\J	.
.	.	.	.	16e\JJ)	.	16cc#\JJ)	.	.	.	.	.	.	.	.	16e\JJ	.	.	16cc#\JJ	.	.	.	.	.	.	.	.	.	.	.	.	.	.	.	.
!	!	!	!	!LO:LB:g=original	!	!	!	!	!	!	!	!	!	!	!	!	!	!	!	!	!	!	!	!	!	!	!	!	!	!	!	!	!	!
!	!	!	!	!	!	!	!	!	!	!	!	!	!	!	!	!	!	!LO:LB:g=original	!	!	!	!	!	!	!	!	!	!	!	!	!	!	!	!
=52	=52	=52	=52	=52	=52	=52	=52	=52	=52	=52	=52	=52	=52	=52	=52	=52	=52	=52	=52	=52	=52	=52	=52	=52	=52	=52	=52	=52	=52	=52	=52	=52	=52	=52
!	!	!	!	!LO:N:vis=16	!	!	!	!	!	!	!LO:DY:a	!	!	!LO:DY:a	!	!	!	!	!	!LO:DY:a	!	!	!	!	!LO:TX:t=P:problem:mixed beam	!	!	!	!	!	!LO:TX:t=P:problem:2\right:global	!	!LO:TX:t=P:problem:2\right:global	!
4D\	8	16d\KL	f	8a/L	f	16r	f	.	4F#\	Ma-	f	4F#/	Ma-	f	4a\	Ma-	f	4dd\	Ma-	f	8D\	.	8f#/L	.	8dd\L	.	2.a\	f	2.dd\	f	2.a\	f	2.dd\	f
.	.	8d\	.	.	.	16dd|\LL	.	.	.	.	.	.	.	.	.	.	.	.	.	.	.	.	.	.	.	.	.	.	.	.	.	.	.	.
.	.	.	.	8a/	.	(16cc#\	.	.	.	.	.	.	.	.	.	.	.	.	.	.	8r	.	8f#/	.	8f#|/	.	.	.	.	.	.	.	.	.
.	.	8d\	.	.	.	16dd\)	.	.	.	.	.	.	.	.	.	.	.	.	.	.	.	.	.	.	.	.	.	.	.	.	.	.	.	.
8r	.	.	.	8a/	.	16ee\	.	.	8F#\	-ter	.	8F#/	-ter	.	8a\	-ter	.	8dd\	-ter	.	4r	.	8f#/J	.	8f#|/J	.	.	.	.	.	.	.	.	.
.	.	8d\	.	.	.	16dd|\JJ	.	.	.	.	.	.	.	.	.	.	.	.	.	.	.	.	.	.	.	.	.	.	.	.	.	.	.	.
4AA\ 4A	.	.	.	8a/	.	(16bb\LL	.	.	8F#\	/Ma-	.	8F#/	/Ma-	.	8a\	/Ma-	.	8dd\	/Ma-	.	.	.	4f#/	.	4f#/	.	.	.	.	.	.	.	.	.
.	.	8d\	.	.	.	16aa\	.	.	.	.	.	.	.	.	.	.	.	.	.	.	.	.	.	.	.	.	.	.	.	.	.	.	.	.
!	!	!	!	!	!	!	!	!	!	!	!	!	!	!	!	!	!	!	!	!	!LO:N:vis=8	!	!	!	!	!	!	!	!	!	!	!	!	!
.	.	.	.	8a/	.	16gg\	.	.	8F#\	-ter/	.	8F#/	-ter/	.	8a\	-ter/	.	8dd\	-ter/	.	4r	.	.	.	.	.	.	.	.	.	.	.	.	.
.	.	8d\	.	.	.	16ff#\)	.	.	.	.	.	.	.	.	.	.	.	.	.	.	.	.	.	.	.	.	.	.	.	.	.	.	.	.
!	!	!	!	!LO:N:vis=16	!	!	!	!	!	!	!	!	!	!	!	!	!	!	!	!	!	!	!	!	!	!	!	!	!	!	!	!	!	!
8r	.	.	.	8a/J	.	16ee|\	.	.	8F#\	in-	.	8F#/	in-	.	8a\	in-	.	8dd\	in-	.	.	.	8r	.	8r	.	.	.	.	.	.	.	.	.
.	.	16d\Jk	.	.	.	16dd#X|\JJ	.	.	.	.	.	.	.	.	.	.	.	.	.	.	.	.	.	.	.	.	.	.	.	.	.	.	.	.
!LO:LB:g=original	!	!	!	!	!	!	!	!	!	!	!	!	!	!	!	!	!	!	!	!	!	!	!	!	!	!	!	!	!	!	!	!	!	!
=53	=53	=53	=53	=53	=53	=53	=53	=53	=53	=53	=53	=53	=53	=53	=53	=53	=53	=53	=53	=53	=53	=53	=53	=53	=53	=53	=53	=53	=53	=53	=53	=53	=53	=53
!	!	!	!	!	!	!	!	!	!	!	!	!	!	!	!	!	!	!	!	!	!LO:TX:a:t=1	!	!LO:TX:a:t=1	!	!LO:TX:a:t=1	!	!	!	!	!	!	!	!	!
4GG\ 4G	.	16e\KL	.	16b\KL	.	16r	.	.	4G\	-te-	.	4G/	-te-	.	4b\	-te-	.	4ee\	-te-	.	2.r	.	2.r	.	2.r	.	2.b\	.	2.ee\	.	2.b\	.	2.ee\	.
.	.	8e\	.	8b\	.	16ee|\LL	.	.	.	.	.	.	.	.	.	.	.	.	.	.	.	.	.	.	.	.	.	.	.	.	.	.	.	.
.	.	.	.	.	.	(16dd#X\	.	.	.	.	.	.	.	.	.	.	.	.	.	.	.	.	.	.	.	.	.	.	.	.	.	.	.	.
.	.	8e\	.	8b\	.	16ee\)	.	.	.	.	.	.	.	.	.	.	.	.	.	.	.	.	.	.	.	.	.	.	.	.	.	.	.	.
8r	.	.	.	.	.	16ff|#\	.	.	8G\	-me-	.	8G/	-me-	.	8b\	-me-	.	8ee\	-me-	.	.	.	.	.	.	.	.	.	.	.	.	.	.	.
.	.	8e\	.	8b\	.	16ee|\JJ	.	.	.	.	.	.	.	.	.	.	.	.	.	.	.	.	.	.	.	.	.	.	.	.	.	.	.	.
4BB\ 4B	.	.	.	.	.	(16bb\LL	.	.	8G\	-ra-	.	8G/	-ra-	.	8b\	-ra-	.	8ee\	-ra-	.	.	.	.	.	.	.	.	.	.	.	.	.	.	.
.	.	8e\	.	8b\	.	16aa#X\	.	.	.	.	.	.	.	.	.	.	.	.	.	.	.	.	.	.	.	.	.	.	.	.	.	.	.	.
.	.	.	.	.	.	16bb\)	.	.	8G\	-ta	.	8G/	-ta	.	8b\	-ta	.	8ee\	-ta	.	.	.	.	.	.	.	.	.	.	.	.	.	.	.
.	.	8e\	.	8b\	.	16gg|\	.	.	.	.	.	.	.	.	.	.	.	.	.	.	.	.	.	.	.	.	.	.	.	.	.	.	.	.
8r	.	.	.	.	.	16ff#|\	.	.	8r	.	.	8r	.	.	8r	.	.	8r	.	.	.	.	.	.	.	.	.	.	.	.	.	.	.	.
.	.	16e\Jk	.	16b\Jk	.	16ee|\JJ	.	.	.	.	.	.	.	.	.	.	.	.	.	.	.	.	.	.	.	.	.	.	.	.	.	.	.	.
!	!	!	!	!	!	!	!	!	!	!	!	!LO:LB:g=original	!	!	!	!	!	!	!	!	!	!	!	!	!	!	!	!	!	!	!	!	!	!
=54	=54	=54	=54	=54	=54	=54	=54	=54	=54	=54	=54	=54	=54	=54	=54	=54	=54	=54	=54	=54	=54	=54	=54	=54	=54	=54	=54	=54	=54	=54	=54	=54	=54	=54
8D\L	.	16d\LL	.	16ff#\LL|	.	16aa|\LL	.	.	8D\	Ma-	.	8d\	Ma-	.	8a\	Ma-	.	8ff#\	Ma-	.	8.D\L	.	8.d/L	.	8.a/L	.	4ff#\	.	4.aa\	.	4ff#\	.	4.aa\	.
.	.	16d\	.	16ff#\|	.	16aa|\	.	.	.	.	.	.	.	.	.	.	.	.	.	.	.	.	.	.	.	.	.	.	.	.	.	.	.	.
8F#\	.	16d\	.	16ff#\|	.	16aa|\	.	.	8D\	-ter	.	8d\	-ter	.	8a\	-ter	.	8ff#\	-ter	.	.	.	.	.	.	.	.	.	.	.	.	.	.	.
.	.	16d\	.	16ff#\|	.	16aa|\	.	.	.	.	.	.	.	.	.	.	.	.	.	.	16D\K	.	16d/K	.	16a/K	.	.	.	.	.	.	.	.	.
8d\J	.	16d\	.	16ff#\|	.	16ddd|\	.	.	8F#\	a-	.	8A\	a-	.	8dd\	a-	.	8ff#\	a-	.	8D\J	.	8d/J	.	8a/J	.	8dd\	.	.	.	8dd\	.	.	.
.	.	16d\JJ	.	16ff#\JJ|	.	16ddd|\JJ	.	.	.	.	.	.	.	.	.	.	.	.	.	.	.	.	.	.	.	.	.	.	.	.	.	.	.	.
!LO:TX:t=P:problem:mixed beam	!	!	!	!	!	!	!	!	!	!	!	!	!	!	!	!	!	!	!	!	!	!	!	!	!	!	!	!	!	!	!	!	!	!
*	*	*	*	*tremolo	*	*	*	*	*	*	*	*	*	*	*	*	*	*	*	*	*	*	*	*	*	*	*	*	*	*	*	*	*	*
!	!	!	!	!LO:TX:t=P:problem:kropki nad tremolo [ilość nut / staccato]	!	!	!	!	!	!	!	!	!	!	!	!	!	!	!	!	!	!	!	!	!	!	!	!	!	!	!	!	!	!
8G\L	.	16g\LL	.	16ee\LL	.	16bb\|LL	.	.	16G\	-ma-	.	16e\	-ma-	.	16b\	-ma-	.	16gg\	-ma-	.	4r	.	4r	.	4r	.	4gg\	.	4bb\	.	4gg\	.	4bb\	.
.	.	16g\	.	16ee\	.	16bb|\	.	.	16G\	-bi-	.	16e\	-bi-	.	16b\	-bi-	.	16gg\	-bi-	.	.	.	.	.	.	.	.	.	.	.	.	.	.	.
8GG/	.	16g\	.	16ee\	.	16bb|\	.	.	8G\	-lis	.	8e\	-lis	.	8b\	-lis	.	8gg\	-lis	.	.	.	.	.	.	.	.	.	.	.	.	.	.	.
.	.	16g\	.	16ee\	.	16bb|\	.	.	.	.	.	.	.	.	.	.	.	.	.	.	.	.	.	.	.	.	.	.	.	.	.	.	.	.
8G\J	.	16b\	.	16ee\	.	16gg|\	.	.	8c#\	o-	.	8e\	o-	.	8g\	o-	.	8ee\	o-	.	8r	.	8r	.	8r	.	8ee\	.	8gg\	.	8ee\	.	8gg\	.
.	.	16b\JJ	.	16ee\JJ	.	16gg|\JJ	.	.	.	.	.	.	.	.	.	.	.	.	.	.	.	.	.	.	.	.	.	.	.	.	.	.	.	.
*	*	*	*	*Xtremolo	*	*	*	*	*	*	*	*	*	*	*	*	*	*	*	*	*	*	*	*	*	*	*	*	*	*	*	*	*	*
!	!	!	!	!	!	!	!	!	!LO:LB:g=original	!	!	!	!	!	!	!	!	!	!	!	!	!	!	!	!	!	!	!	!	!	!	!	!	!
=55	=55	=55	=55	=55	=55	=55	=55	=55	=55	=55	=55	=55	=55	=55	=55	=55	=55	=55	=55	=55	=55	=55	=55	=55	=55	=55	=55	=55	=55	=55	=55	=55	=55	=55
!LO:TX:t=P:problem:mixed beam	!	!	!	!	!	!	!	!	!	!	!	!	!	!	!	!	!	!	!	!	!	!	!	!	!	!	!	!	!	!	!	!	!	!
*	*	*tremolo	*	*	*	*	*	*	*	*	*	*	*	*	*	*	*	*	*	*	*	*	*	*	*	*	*	*	*	*	*	*	*	*
!	!	!LO:TX:t=P:problem:kropki nad tremolo [ilość nut / staccato]	!	!	!	!	!	!	!	!	!	!	!	!	!	!	!	!	!	!	!	!	!	!	!	!	!	!	!	!	!	!	!	!
8F#\L	.	16a\LL	.	16dd\LL|	.	16ff#|\LL	.	.	8A\	-ra	.	8A\	-ra	.	8f#\	-ra	.	8dd\	-ra	.	8AA/L	.	8dd\L	.	8ff#\L	.	(8dd\L	.	8ff#\L	.	(8dd\L	.	8ff#\L	.
.	.	16a\	.	(16dd\	.	(16ff#\	.	.	.	.	.	.	.	.	.	.	.	.	.	.	.	.	.	.	.	.	.	.	.	.	.	.	.	.
8G\	.	16a\	.	16ee\)	.	16gg\)	.	.	8A\	o-	.	8A\	o-	.	8g\	o-	.	8ee\	o-	.	8AA/	.	8a\	.	8ee\	.	8ee\)	.	8gg\	.	8ee\)	.	8gg\	.
.	.	16a\	.	(16ee\	.	(16gg\	.	.	.	.	.	.	.	.	.	.	.	.	.	.	.	.	.	.	.	.	.	.	.	.	.	.	.	.
8AA/J	.	16a\	.	16cc#\)	.	16ee\)	.	.	8A\	-ra	.	8A\	-ra	.	8e\	-ra	.	8cc#\	-ra	.	8AA/J	.	8a\J	.	8ee\J	.	8cc#\J	.	8ee\J	.	8cc#'\J	.	8ee\J	.
.	.	16a\JJ	.	16cc#\JJ|	.	16ee|\JJ	.	.	.	.	.	.	.	.	.	.	.	.	.	.	.	.	.	.	.	.	.	.	.	.	.	.	.	.
!	!	!	!	!	!	!LO:LB:g=original	!	!	!	!	!	!	!	!	!	!	!	!	!	!	!	!	!	!	!	!	!	!	!	!	!	!	!	!
!	!	!	!	!	!	!	!	!	!	!	!	!	!	!	!LO:LB:g=original	!	!	!	!	!	!	!	!	!	!	!	!	!	!	!	!	!	!	!
8D\L	.	16d\LL	.	16d/LL 16a 16ff#	p	16aa'\LL	p	.	16D\	Ma-	.	16d\	Ma-	.	16a\	Ma-	.	16ff#\	Ma-	.	4D\	.	8.f#/L	.	8.dd\L	.	4.ff#\	.	4aa\	.	4.ff#\	.	4aa\	.
.	.	16d\	.	16ff#/JJ	.	16aa'\	.	.	16D\	-ter	.	16d\	-ter	.	16a\	-ter	.	16ff#\	-ter	.	.	.	.	.	.	.	.	.	.	.	.	.	.	.
*	*	*	*	*tremolo	*	*	*	*	*	*	*	*	*	*	*	*	*	*	*	*	*	*	*	*	*	*	*	*	*	*	*	*	*	*
!	!	!	!	!LO:TX:t=P:problem:kropki nad tremolo [ilość nut / staccato]	!	!	!	!	!	!	!	!	!	!	!	!	!	!	!	!	!	!	!	!	!	!	!	!	!	!	!	!	!	!
8F#\	.	16d\	.	16ff#\LL	.	16aa'\	.	.	8D\	ad-	.	8d\	ad-	.	8a\	ad-	.	8ff#\	ad-	.	.	.	.	.	.	.	.	.	.	.	.	.	.	.
.	.	16d\	.	16ff#\	.	16aa'\	.	.	.	.	.	.	.	.	.	.	.	.	.	.	.	.	16f#/K	.	16dd\K	.	.	.	.	.	.	.	.	.
8d\J	.	16d\	.	16ff#\	.	16ddd'\	.	.	8F#\	-mi-	.	8d\	-mi-	.	8dd\	-mi-	.	8ff#\	-mi-	.	8D\	.	8f#/J	.	8dd\J	.	.	.	8ddd\	.	.	.	8ddd\	.
.	.	16d\JJ	.	16ff#\JJ	.	16ddd'\JJ	.	.	.	.	.	.	.	.	.	.	.	.	.	.	.	.	.	.	.	.	.	.	.	.	.	.	.	.
*	*	*Xtremolo	*	*Xtremolo	*	*	*	*	*	*	*	*	*	*	*	*	*	*	*	*	*	*	*	*	*	*	*	*	*	*	*	*	*	*
!	!	!	!	!	!	!	!	!	!	!	!	!	!	!	!	!	!	!LO:LB:g=original	!	!	!	!	!	!	!	!	!	!	!	!	!	!	!	!
!	!	!	!	!	!	!	!	!	!	!	!	!	!	!	!	!	!	!	!	!	!	!	!	!	!	!	!	!	!	!	!	!	!LO:LB:g=original	!
=56	=56	=56	=56	=56	=56	=56	=56	=56	=56	=56	=56	=56	=56	=56	=56	=56	=56	=56	=56	=56	=56	=56	=56	=56	=56	=56	=56	=56	=56	=56	=56	=56	=56	=56
!LO:TX:t=P:problem:mixed beam	!	!	!	!	!	!	!	!	!	!	!	!	!	!	!	!	!	!	!	!	!	!	!	!	!	!	!	!	!	!	!	!	!	!
8G\L	.	16g\LL	.	16ee\LL	.	16bb|\LL	.	.	16G\	-ra-	.	16e\	-ra-	.	16b\	-ra-	.	16gg\	-ra-	.	4r	.	4r	.	4r	.	4gg\	.	4bb\	.	4gg\	.	4bb\	.
.	.	16g\	.	16ee\JJ	.	16bb|\	.	.	16G\	-bi-	.	16e\	-bi-	.	16b\	-bi-	.	16gg\	-bi-	.	.	.	.	.	.	.	.	.	.	.	.	.	.	.
*	*	*	*	*tremolo	*	*	*	*	*	*	*	*	*	*	*	*	*	*	*	*	*	*	*	*	*	*	*	*	*	*	*	*	*	*
8GG/	.	16g\	.	16ee\LL	.	16bb|\	.	.	8G\	-lis	.	8e\	-lis	.	8b\	-lis	.	8gg\	-lis	.	.	.	.	.	.	.	.	.	.	.	.	.	.	.
.	.	16g\	.	16ee\	.	16bb|\	.	.	.	.	.	.	.	.	.	.	.	.	.	.	.	.	.	.	.	.	.	.	.	.	.	.	.	.
8G\J	.	16b\	.	16ee\	.	16gg|\	.	.	8c#\	pro	.	8e\	pro	.	8g\	pro	.	8ee\	pro	.	8r	.	8r	.	8r	.	8ee\	.	8gg\	.	8ee\	.	8gg\	.
.	.	16b\JJ	.	16ee\JJ	.	16gg|\JJ	.	.	.	.	.	.	.	.	.	.	.	.	.	.	.	.	.	.	.	.	.	.	.	.	.	.	.	.
*	*	*	*	*Xtremolo	*	*	*	*	*	*	*	*	*	*	*	*	*	*	*	*	*	*	*	*	*	*	*	*	*	*	*	*	*	*
!LO:TX:t=P:problem:mixed beam	!	!	!	!	!	!	!	!	!	!	!	!	!	!	!	!	!	!	!	!	!	!	!	!	!	!	!	!	!	!	!	!	!	!
*	*	*tremolo	*	*	*	*	*	*	*	*	*	*	*	*	*	*	*	*	*	*	*	*	*	*	*	*	*	*	*	*	*	*	*	*
8F#\L	.	16a\LL	.	16dd\LL	.	16ff#|\LL	.	.	4A\	no-	.	4.A\	no-	.	8f#\L	no-	.	(8dd\L	no-	.	8AA/L	.	8f#/L	.	8dd\L	.	8dd\L	.	8ff#\L	.	8dd\L	.	8ff#\L	.
.	.	16a\	.	(16dd\	.	(16ff#\	.	.	.	.	.	.	.	.	.	.	.	.	.	.	.	.	.	.	.	.	.	.	.	.	.	.	.	.
8G\	.	16a\	.	16ee\)	.	16gg\)	.	.	.	.	.	.	.	.	8g\	.	.	8ee\	.	.	16AA/L	.	8a/	.	8ee\	.	8ee\	.	8gg\	.	8ee\	.	8gg\	.
.	.	16a\	.	(16ee\	.	(16gg\	.	.	.	.	.	.	.	.	.	.	.	.	.	.	16AA/J	.	.	.	.	.	.	.	.	.	.	.	.	.
8AA/J	.	16a\	.	16cc#\)	.	16ee\)	.	.	8AA/	.	.	.	.	.	8e\J	.	.	8cc#\J)	.	.	8AA/J	.	8a/J	.	8ee\J	.	8cc#\J	.	8ee\J	.	8cc#\J	.	8ee\J	.
.	.	16a\JJ	.	16a\JJ	.	16ee|\JJ	.	.	.	.	.	.	.	.	.	.	.	.	.	.	.	.	.	.	.	.	.	.	.	.	.	.	.	.
*	*	*Xtremolo	*	*	*	*	*	*	*	*	*	*	*	*	*	*	*	*	*	*	*	*	*	*	*	*	*	*	*	*	*	*	*	*
!	!	!LO:LB:g=original	!	!	!	!	!	!	!	!	!	!	!	!	!	!	!	!	!	!	!	!	!	!	!	!	!	!	!	!	!	!	!	!
!	!	!	!	!	!	!	!	!	!	!	!	!	!	!	!	!	!	!	!	!	!LO:LB:g=original	!	!	!	!	!	!	!	!	!	!	!	!	!
!	!	!	!	!	!	!	!	!	!	!	!	!	!	!	!	!	!	!	!	!	!	!	!LO:LB:g=original	!	!	!	!	!	!	!	!	!	!	!
=57	=57	=57	=57	=57	=57	=57	=57	=57	=57	=57	=57	=57	=57	=57	=57	=57	=57	=57	=57	=57	=57	=57	=57	=57	=57	=57	=57	=57	=57	=57	=57	=57	=57	=57
8D\L	.	4a\	.	8f#/L	.	8dd\	.	.	4D\	-bis	.	4A\	-bis	.	4f#\	-bis	.	4dd\	-bis	.	4D\	.	8dd\	.	8ff#\	.	4f#/	.	4dd\	.	4f#/	.	4dd\	.
!	!	!	!	!LO:TX:a:i:t=dolce	!	!	!	!	!	!	!	!	!	!	!	!	!	!	!	!	!	!	!	!	!	!	!	!	!	!	!	!	!	!
8d\J	.	.	.	(16f#/L	.	16r	.	.	.	.	.	.	.	.	.	.	.	.	.	.	.	.	8r	.	8r	.	.	.	.	.	.	.	.	.
!	!	!	!	!	!	!LO:TX:b:i:t=dolce	!	!	!	!	!	!	!	!	!	!	!	!	!	!	!	!	!	!	!	!	!	!	!	!	!	!	!	!
.	.	.	.	16a/)	.	16a\LL	.	.	.	.	.	.	.	.	.	.	.	.	.	.	.	.	.	.	.	.	.	.	.	.	.	.	.	.
8r	.	8r	.	(16f#/	.	(16ff#\	.	.	4r	.	.	8r	.	.	8r	.	.	8r	.	.	8r	.	8r	.	8r	.	8r	.	8r	.	8r	.	8r	.
.	.	.	.	16a/JJ)	.	16dd\JJ)	.	.	.	.	.	.	.	.	.	.	.	.	.	.	.	.	.	.	.	.	.	.	.	.	.	.	.	.
4r	.	4r	.	(16g/LL	.	(16dd\LL	.	.	.	.	.	4r	.	.	4r	.	.	4r	.	.	4r	.	4r	.	4r	.	4r	.	4r	.	4r	.	4r	.
.	.	.	.	16a/)	.	16cc#\	.	.	.	.	.	.	.	.	.	.	.	.	.	.	.	.	.	.	.	.	.	.	.	.	.	.	.	.
.	.	.	.	(16g/	.	16b\	.	.	8r	.	.	.	.	.	.	.	.	.	.	.	.	.	.	.	.	.	.	.	.	.	.	.	.	.
.	.	.	.	16a/)	.	16a\)	.	.	.	.	.	.	.	.	.	.	.	.	.	.	.	.	.	.	.	.	.	.	.	.	.	.	.	.
8r	.	8r	.	(16g/	.	16b|\	.	.	8r	.	.	8r	.	.	8r	.	.	8r	.	.	8r	.	8r	.	8r	.	8r	.	8r	.	8r	.	8r	.
.	.	.	.	16a/JJ)	.	16cc#|\JJ	.	.	.	.	.	.	.	.	.	.	.	.	.	.	.	.	.	.	.	.	.	.	.	.	.	.	.	.
!	!	!	!	!LO:LB:g=original	!	!	!	!	!	!	!	!	!	!	!	!	!	!	!	!	!	!	!	!	!	!	!	!	!	!	!	!	!	!
!	!	!	!	!	!	!	!	!	!	!	!	!	!	!	!	!	!	!	!	!	!	!	!	!	!LO:LB:g=original	!	!	!	!	!	!	!	!	!
!	!	!	!	!	!	!	!	!	!	!	!	!	!	!	!	!	!	!	!	!	!	!	!	!	!	!	!	!	!	!	!LO:LB:g=original	!	!	!
=58	=58	=58	=58	=58	=58	=58	=58	=58	=58	=58	=58	=58	=58	=58	=58	=58	=58	=58	=58	=58	=58	=58	=58	=58	=58	=58	=58	=58	=58	=58	=58	=58	=58	=58
!	!	!	!	!	!	!LO:TX:t=P:problem:mixed beam	!	!	!	!	!	!	!	!	!	!	!	!	!	!	!	!	!	!	!	!	!	!	!LO:TX:t=P:problem:klamra łukowa	!	!	!	!LO:TX:t=P:problem:mixed beam	!
!	!	!	!	!	!	!	!	!	!	!	!	!	!	!	!	!	!	!LO:TX:a:i:t=dolce	!	!	!	!LO:DY:a	!	!	!	!	!LO:TX:a:i:t=dolce	!	!LO:TX:b:i:t=dolce	!	!LO:TX:b:i:t=dol&colon;	!	!LO:TX:b:i:t=dolce	!
8D\L	8	8d\L	.	(16f#/LL	.	(8dd\L	.	1	16d\	Ma-	.	16d\	Ma-	.	16a\	Ma-	.	16ff#\	Ma-	.	2.D\	p	4.dd\	.	4.dd\	p	(16F#/LL	.	(8dd\L	.	(16f#/LL	.	(8dd\L	.
.	.	.	.	16a/)	.	.	.	.	16d\	-ter	.	16d\	-ter	.	16a\	-ter	.	16ff#\	-ter	.	.	.	.	.	.	.	16d/)	.	.	.	16dd/)	.	.	.
8d\	.	8d\	.	(16f#/	.	8ff#\)	.	3	8d\	Cre-	.	8d\	Cre-	.	8a\	Cre-	.	8ff#\	Cre-	.	.	.	.	.	.	.	(16A/	.	8ff#\)	.	(16a/	.	8ff#\)	.
.	.	.	.	16a/)	.	.	.	.	.	.	.	.	.	.	.	.	.	.	.	.	.	.	.	.	.	.	16d/)	.	.	.	16dd/)	.	.	.
8D\J	.	8d\J	.	(16f#/	.	8a/J	.	0	8d\	-a-	.	8d\	-a-	.	8a\	-a-	.	8ff#\	-a-	.	.	.	.	.	.	.	(16A/	.	8a|\J	.	(16a/	.	8a'/J	.
.	.	.	.	16a/JJ)	.	.	.	.	.	.	.	.	.	.	.	.	.	.	.	.	.	.	.	.	.	.	16d/JJ)	.	.	.	16dd/JJ)	.	.	.
*	*	*tremolo	*	*	*	*	*	*	*	*	*	*	*	*	*	*	*	*	*	*	*	*	*	*	*	*	*	*	*	*	*	*	*	*
!	!	!	!	!	!	!LO:TX:t=P:problem:mixed beam	!	!	!	!	!	!	!	!	!	!	!	!	!	!	!	!	!	!	!	!	!	!	!	!	!	!	!	!
!	!	!	!	!	!	!	!	!	!	!	!	!LO:LB:g=original	!	!	!	!	!	!	!	!	!	!	!	!	!	!	!	!	!	!	!	!	!	!
8AA\L	8	8c#X\L	.	(16e/LL	.	(8ee\L	.	2	4c#\	-to-	.	4e\	-to-	.	4a\	-to-	.	4gg\	-to-	.	.	.	4.ee\	.	4.ee\	.	(16E/LL	.	(8ee\L	.	(16e/LL	.	(8ee\L	.
.	.	.	.	16a/)	.	.	.	.	.	.	.	.	.	.	.	.	.	.	.	.	.	.	.	.	.	.	16c#/)	.	.	.	16cc#/)	.	.	.
8A\	.	8c#\	.	(16e/	.	8gg\)	.	4	.	.	.	.	.	.	.	.	.	.	.	.	.	.	.	.	.	.	(16G/	.	8gg\)	.	(16g/	.	8gg\)	.
.	.	.	.	16a/)	.	.	.	.	.	.	.	.	.	.	.	.	.	.	.	.	.	.	.	.	.	.	16c#/)	.	.	.	16cc#/)	.	.	.
8AA\J	.	8c#\J	.	(16e/	.	8a/J	.	0	8c#\	-ris	.	8e\	-ris	.	8a\	-ris	.	8gg\	-ris	.	.	.	.	.	.	.	(16G/	.	8a|\J	.	(16g/	.	8a'/J	.
.	.	.	.	16a/JJ)	.	.	.	.	.	.	.	.	.	.	.	.	.	.	.	.	.	.	.	.	.	.	16c#/JJ)	.	.	.	16cc#/JJ)	.	.	.
=59	=59	=59	=59	=59	=59	=59	=59	=59	=59	=59	=59	=59	=59	=59	=59	=59	=59	=59	=59	=59	=59	=59	=59	=59	=59	=59	=59	=59	=59	=59	=59	=59	=59	=59
!	!	!	!	!	!	!LO:TX:t=P:problem:mixed beam	!	!	!	!	!	!	!	!	!	!	!	!	!	!	!	!	!	!	!	!	!	!	!	!	!	!	!	!
8D\L	8	8d\L	.	(16f#/LL	.	(8dd\L	.	1	16d\	Ma-	.	16d\	Ma-	.	16a\	Ma-	.	16ff#\	Ma-	.	2.D\	<	4.ff#\	.	4.ff#\	.	16F#/LL	.	(8dd\L	.	(16f#/LL	.	(8dd\L	.
.	.	.	.	16a/)	.	.	.	.	16d\	-ter	.	16d\	-ter	.	16a\	-ter	.	16ff#\	-ter	.	.	.	.	.	.	.	16d/	.	.	.	16dd/)	.	.	.
8d\	.	8d\	.	(16f#/	.	8ff#\)	.	3	8d\	Sal-	.	8d\	Sal-	.	8a\	Sal-	.	8ff#\	Sal-	.	.	.	.	.	.	.	16A/	.	8ff#\)	.	(16a/	.	8ff#\)	.
.	.	.	.	16a/)	.	.	.	.	.	.	.	.	.	.	.	.	.	.	.	.	.	.	.	.	.	.	16d/	.	.	.	16dd/)	.	.	.
!LO:LB:g=original	!	!	!	!	!	! 	!	!	!	!	!	!	!	!	!	!	!	!	!	!	!	!	!	!	!	!	!	!	!	!	!	!	!	!
!	!	!	!	!	!	!	!	!	!LO:LB:g=original	!	!	!	!	!	!	!	!	!	!	!	!	!	!	!	!	!	!	!	!	!	!	!	!	!
8D\J	.	8d\J	.	(16f#/	.	8a/J	.	0	8d\	-va-	.	8d\	-va-	.	8a\	-va-	.	8ff#\	-va-	.	.	.	.	.	.	.	16A/	.	8a|\J	.	(16a/	.	8a'/J	.
.	.	.	.	16a/JJ)	.	.	.	.	.	.	.	.	.	.	.	.	.	.	.	.	.	.	.	.	.	.	16d/JJ	.	.	.	16dd/JJ)	.	.	.
!	!	!	!	!	!	!	!	!	!	!	!	!	!	!	!	!	!	!	!	!	!	!	!	!	!	!	!LO:LB:g=original	!	!	!	!	!	!	!
!	!	!	!	!	!	!	!	!	!	!	!	!	!	!	!	!	!	!	!	!	!	!	!	!	!	!	!	!	!LO:LB:g=original	!	!	!	!	!
4r	.	8c#\L	.	(16e/LL	.	(16ee\LL	.	.	4A\	-to-	.	4c#\	-to-	.	4a\	-to-	.	4ee\	-to-	.	.	.	4ee\	.	4ee\	.	(16A/LL	.	16ee\LL	.	(16a/LL	.	16ee\LL	.
.	.	.	.	16a/)	.	16dd\	.	.	.	.	.	.	.	.	.	.	.	.	.	.	.	.	.	.	.	.	16e/)	.	16dd\	.	16ee/)	.	16dd\	.
.	.	8c#\	.	(16e/	.	16cc#\	.	.	.	.	.	.	.	.	.	.	.	.	.	.	.	.	.	.	.	.	(16c#/	.	16cc#\	.	(16cc#/	.	16cc#\	.
.	.	.	.	16a/)	.	16b\J)	.	.	.	.	.	.	.	.	.	.	.	.	.	.	.	.	.	.	.	.	16e/)	.	16b\J	.	16ee/)	.	16b\J	.
8r	.	8c#\J	.	(16e/	.	8a\J	.	.	8A\	-ris	.	8c#\	-ris	.	8a\	-ris	.	8ee\	-ris	.	.	.	8r	.	8r	.	(16c#/	.	8a\J	.	(16cc#/	.	8a\J	.
.	.	.	.	16a/JJ)	.	.	.	.	.	.	.	.	.	.	.	.	.	.	.	.	.	.	.	.	.	.	16e/JJ)	.	.	.	16ee/JJ)	.	.	.
=60	=60	=60	=60	=60	=60	=60	=60	=60	=60	=60	=60	=60	=60	=60	=60	=60	=60	=60	=60	=60	=60	=60	=60	=60	=60	=60	=60	=60	=60	=60	=60	=60	=60	=60
!	!	!	!	!	!	!LO:TX:t=P:problem:mixed beam	!	!	!	!	!	!	!	!	!	!	!	!	!	!	!	!	!	!	!	!	!	!	!LO:TX:t=P:problem:klamra łukowa	!	!	!	!LO:TX:t=P:problem:mixed beam	!
8D\L	.	8d\L	.	(16f#/LL	.	(8dd\L	.	.	4.d\	o-	.	4.d\	o-	.	4.a\	o-	.	4.ff#\	o-	.	2.D\	[[	4.dd\	.	4.dd\	.	(16F#/LL	.	(8dd\L	.	(16f#/LL	.	(8dd\L	.
.	.	.	.	16a/)	.	.	.	.	.	.	.	.	.	.	.	.	.	.	.	.	.	.	.	.	.	.	16d/)	.	.	.	16dd/)	.	.	.
8d\	.	8d\	.	(16f#/	.	8ff#\)	.	.	.	.	.	.	.	.	.	.	.	.	.	.	.	.	.	.	.	.	(16A/	.	8ff#\)	.	(16a/	.	8ff#\)	.
.	.	.	.	16a/)	.	.	.	.	.	.	.	.	.	.	.	.	.	.	.	.	.	.	.	.	.	.	16d/)	.	.	.	16dd/)	.	.	.
8D\J	.	8d\J	.	(16f#/	.	8a/J	.	.	.	.	.	.	.	.	.	.	.	.	.	.	.	.	.	.	.	.	(16A/	.	8a|\J	.	(16a/	.	8a'/J	.
.	.	.	.	16a/JJ)	.	.	.	.	.	.	.	.	.	.	.	.	.	.	.	.	.	.	.	.	.	.	16d/JJ)	.	.	.	16dd/JJ)	.	.	.
!	!	!	!	!	!	!LO:TX:t=P:problem:mixed beam	!	!	!	!	!	!	!	!	!	!	!	!	!	!	!	!	!	!	!	!	!	!	!LO:TX:t=P:problem:klamra łukowa	!	!	!	!LO:TX:t=P:problem:mixed beam	!
8AA\L	.	8c#\L	.	(16e/LL	.	(8ee\L	.	.	4c#\	-ra	.	4e\	-ra	.	4a\	-ra	.	4gg\	-ra	.	.	.	4.ee\	.	4.ee\	.	(16E/LL	.	(8ee\L	.	(16e/LL	.	(8ee\L	.
.	.	.	.	16a/)	.	.	.	.	.	.	.	.	.	.	.	.	.	.	.	.	.	.	.	.	.	.	16c#/)	.	.	.	16cc#/)	.	.	.
8A\	.	8c#\	.	(16e/	.	8gg\)	.	.	.	.	.	.	.	.	.	.	.	.	.	.	.	.	.	.	.	.	(16G/	.	8gg\)	.	(16g/	.	8gg\)	.
.	.	.	.	16a/)	.	.	.	.	.	.	.	.	.	.	.	.	.	.	.	.	.	.	.	.	.	.	16c#/)	.	.	.	16cc#/)	.	.	.
!	!	!	!	!	!	!	!	!	!	!	!	!	!	!	!LO:LB:g=original	!	!	!	!	!	!	!	!	!	!	!	!	!	!	!	!	!	!	!
!	!	!	!	!	!	!	!	!	!	!	!	!	!	!	!	!	!	!LO:LB:g=original	!	!	!	!	!	!	!	!	!	!	!	!	!	!	!	!
8AA\J	.	8c#\J	.	(16e/	.	8a/J	.	.	8c#\	pro	.	8e\	pro	.	8a\	pro	.	8gg\	pro	.	.	.	.	.	.	.	(16G/	.	8a|\J	.	(16g/	.	8a'/J	.
*	*	*Xtremolo	*	*	*	*	*	*	*	*	*	*	*	*	*	*	*	*	*	*	*	*	*	*	*	*	*	*	*	*	*	*	*	*
.	.	.	.	16a/JJ)	.	.	.	.	.	.	.	.	.	.	.	.	.	.	.	.	.	.	.	.	.	.	16c#/JJ)	.	.	.	16cc#/JJ)	.	.	.
!	!	!	!	!	!	!LO:LB:g=original	!	!	!	!	!	!	!	!	!	!	!	!	!	!	!	!	!	!	!	!	!	!	!	!	!	!	!	!
=61	=61	=61	=61	=61	=61	=61	=61	=61	=61	=61	=61	=61	=61	=61	=61	=61	=61	=61	=61	=61	=61	=61	=61	=61	=61	=61	=61	=61	=61	=61	=61	=61	=61	=61
!	!	!	!	!	!	!	!	!	!	!	!	!	!	!	!	!	!	!	!	!	!	!LO:DY:a	!	!	!	!	!	!	!	!	!	!	!	!
4D\	.	4d\	.	(16f#/LL	.	16dd\LL	.	.	4d\	no-	.	4d\	no-	.	4.a\	no-	.	(4ff#\	no-	.	4D\	f	4ff#\	.	4ff#\	.	(16F#/LL	.	(16dd\LL	.	(16f#/LL	.	(16dd\LL	.
.	.	.	.	16a/)	.	16ff#\	.	.	.	.	.	.	.	.	.	.	.	.	.	.	.	.	.	.	.	.	16d/)	.	16ff#\JJ)	.	16dd/)	.	16ff#\JJ)	.
.	.	.	.	(16f#/	.	24aa\	.	.	.	.	.	.	.	.	.	.	.	.	.	.	.	.	.	.	.	.	(16A/	.	24aa\LL	.	(16a/	.	24aa\LL	.
.	.	.	.	.	.	24ff#\	.	.	.	.	.	.	.	.	.	.	.	.	.	.	.	.	.	.	.	.	.	.	24ff#\	.	.	.	24ff#\	.
.	.	.	.	16a/J)	.	.	.	.	.	.	.	.	.	.	.	.	.	.	.	.	.	.	.	.	.	.	16d/)	.	.	.	16dd/)	.	.	.
.	.	.	.	.	.	24dd\JJ	.	.	.	.	.	.	.	.	.	.	.	.	.	.	.	.	.	.	.	.	.	.	24dd\JJ	.	.	.	24dd\JJ	.
8A\	.	8a\	.	8g/J	.	8eeT\	.	.	8A\	.	.	8G/	.	.	.	.	.	8ee\)	.	.	8AA/	.	8ee\	.	8ee\	.	(16G/	.	8eeT\	.	(16g/	.	8eeT\	.
.	.	.	.	.	.	.	.	.	.	.	.	.	.	.	.	.	.	.	.	.	.	.	.	.	.	.	16c#/JJ)	.	.	.	16cc#/JJ)	.	.	.
!	!	!	!	!	!	!	!	!	!	!	!	!	!	!	!	!	!	!	!	!	!	!	!	!	!	!	!LO:TX:t=P:problem:mixed beam	!	!	!	!LO:TX:t=P:problem:mixed beam	!	!	!
8D\L	8 5 3	8a\L	.	8f#/L	f	8dd\L	f	.	8D/	-bis	.	8A\	-bis	.	8f#\	-bis	.	8dd\	-bis	.	8D\L	.	8dd\L	.	8dd\L	f	8d/L	f	8dd\L	.	8d/L	.	8dd\L	.
8F#\	.	8d\ 8a	.	8d/ 8a 8ff#	.	8ddd\	.	.	8r	.	.	8r	.	.	8r	.	.	8r	.	.	8D\	.	8ff#\	.	8ff#\	.	8dd\	.	8ff#\	.	8dd\	.	8ff#\	.
8A\J	.	8d\J 8a	.	8d/J 8a 8ff#	.	8ddd\J	.	.	8d\	no-	.	8d\	no-	.	8a\	no-	.	8ff#\	no-	.	8D\J	.	8ff#\J	.	8ff#\J	.	8dd\J	.	8ff#\J	.	8dd\J	.	8ff#\J	.
=62	=62	=62	=62	=62	=62	=62	=62	=62	=62	=62	=62	=62	=62	=62	=62	=62	=62	=62	=62	=62	=62	=62	=62	=62	=62	=62	=62	=62	=62	=62	=62	=62	=62	=62
4D\ 4d	.	4d\ 4a	.	4d/ 4a 4ff#	.	4d\ 4dd 4ddd	.	.	4D/	-bis	.	4d\	-bis	.	4a\	-bis	.	4ff#\	-bis	.	4D\	.	4ff#\	.	4ff#\	.	4dd\	.	4ff#\	.	4dd\	.	4ff#\	.
!LO:N:vis=8	!	!	!	!	!	!	!	!	!	!	!	!	!	!	!	!	!	!	!	!	!	!	!	!	!	!	!	!	!	!	!	!	!	!
2r	.	8r	.	8r	.	8r	.	.	8r	.	.	8r	.	.	8r	.	.	8r	.	.	8r	.	8r	.	8r	.	8r	.	8r	.	8r	.	8r	.
.	.	4r	.	4r	.	4r	.	.	4r	.	.	4r	.	.	4r	.	.	4r	.	.	4r	.	4r	.	4r	.	4r	.	4r	.	4r	.	4r	.
!	!	!	!	!	!	!LO:TX:b:t=Volti Subito	!	!	!	!	!	!	!	!	!	!	!	!	!	!	!	!	!	!	!	!	!	!	!	!	!	!	!	!
.	.	8r	.	8r	.	8r	.	.	8r	.	.	8r	.	.	8r	.	.	8r	.	.	8r	.	8r	.	8r	.	8r	.	8r	.	8r	.	8r	.
==	==	==	==	==	==	==	==	==	==	==	==	==	==	==	==	==	==	==	==	==	==	==	==	==	==	==	==	==	==	==	==	==	==	==
*-	*-	*-	*-	*-	*-	*-	*-	*-	*-	*-	*-	*-	*-	*-	*-	*-	*-	*-	*-	*-	*-	*-	*-	*-	*-	*-	*-	*-	*-	*-	*-	*-	*-	*-
!!!system-decoration: [(s1,s2,s3,s4)][(s5,s6)][(s7)][(s8,s9,s10,s11)][(s12,s13,s14)][(s15)]
!!!RDF**kern: | = vertical stroke
!!!ENC: Andrzej Kubiczek
!!!END: 2020-10-21
!!!ENC: Urszula Świątek
!!!END: 2022-06-25
!!!YEC: Copyright 2022 Narodowy Instytut Fryderyka Chopina (https://polishscores.org)
!!!YEM: Licence CC BY 4.0 (https://creativecommons.org/licenses/by/4.0)
